P3
300 168
255
220 235 255
220 235 255
220 235 255
220 235 255
220 235 255
220 235 255
220 235 255
220 235 255
220 235 255
220 235 255
220 235 255
220 235 255
220 235 255
220 235 255
220 235 255
220 235 255
220 235 255
220 235 255
220 235 255
220 235 255
220 235 255
220 235 255
220 235 255
220 235 255
220 235 255
220 235 255
220 235 255
220 235 255
220 235 255
220 235 255
220 235 255
220 235 255
220 235 255
220 235 255
220 235 255
220 235 255
220 235 255
220 235 255
220 235 255
220 235 255
220 235 255
220 235 255
220 235 255
220 235 255
220 235 255
220 235 255
220 235 255
220 235 255
220 235 255
220 235 255
220 235 255
220 235 255
220 235 255
220 235 255
220 235 255
220 235 255
220 235 255
220 235 255
220 235 255
220 235 255
220 235 255
220 235 255
220 235 255
220 235 255
220 235 255
220 235 255
220 235 255
220 235 255
220 235 255
220 235 255
220 235 255
220 235 255
220 235 255
220 235 255
220 235 255
220 235 255
220 235 255
220 235 255
220 235 255
220 235 255
220 235 255
220 235 255
220 235 255
220 235 255
220 235 255
220 235 255
220 235 255
220 235 255
220 235 255
220 235 255
220 235 255
220 235 255
220 235 255
220 235 255
220 235 255
220 235 255
220 235 255
220 235 255
220 235 255
220 235 255
220 235 255
220 235 255
220 235 255
220 235 255
220 235 255
220 235 255
220 235 255
220 235 255
220 235 255
220 235 255
220 235 255
220 235 255
220 235 255
220 235 255
220 235 255
220 235 255
220 235 255
220 235 255
220 235 255
220 235 255
220 235 255
220 235 255
220 235 255
220 235 255
220 235 255
220 235 255
220 235 255
220 235 255
220 235 255
220 235 255
220 235 255
220 235 255
220 235 255
220 235 255
220 235 255
220 235 255
220 235 255
220 235 255
220 235 255
220 235 255
220 235 255
220 235 255
220 235 255
220 235 255
220 235 255
220 235 255
220 235 255
220 235 255
220 235 255
220 235 255
220 235 255
220 235 255
220 235 255
220 235 255
220 235 255
220 235 255
220 235 255
220 235 255
220 235 255
220 235 255
220 235 255
220 235 255
220 235 255
220 235 255
220 235 255
220 235 255
220 235 255
220 235 255
220 235 255
220 235 255
220 235 255
220 235 255
220 235 255
220 235 255
220 235 255
220 235 255
220 235 255
220 235 255
220 235 255
220 235 255
220 235 255
220 235 255
220 235 255
220 235 255
220 235 255
220 235 255
220 235 255
220 235 255
220 235 255
220 235 255
220 235 255
220 235 255
220 235 255
220 235 255
220 235 255
220 235 255
220 235 255
220 235 255
220 235 255
220 235 255
220 235 255
220 235 255
220 235 255
220 235 255
220 235 255
220 235 255
220 235 255
220 235 255
220 235 255
220 235 255
220 235 255
220 235 255
220 235 255
220 235 255
220 235 255
220 235 255
220 235 255
220 235 255
220 235 255
220 235 255
220 235 255
220 235 255
220 235 255
220 235 255
220 235 255
220 235 255
220 235 255
220 235 255
220 235 255
220 235 255
220 235 255
220 235 255
220 235 255
220 235 255
220 235 255
220 235 255
220 235 255
220 235 255
220 235 255
220 235 255
220 235 255
220 235 255
220 235 255
220 235 255
220 235 255
220 235 255
220 235 255
220 235 255
220 235 255
220 235 255
220 235 255
220 235 255
220 235 255
220 235 255
220 235 255
220 235 255
220 235 255
220 235 255
220 235 255
220 235 255
220 235 255
220 235 255
220 235 255
220 235 255
220 235 255
220 235 255
220 235 255
220 235 255
220 235 255
220 235 255
220 235 255
220 235 255
220 235 255
220 235 255
220 235 255
220 235 255
220 235 255
220 235 255
220 235 255
220 235 255
220 235 255
220 235 255
220 235 255
220 235 255
220 235 255
220 235 255
220 235 255
220 235 255
220 235 255
220 235 255
220 235 255
220 235 255
220 235 255
220 235 255
220 235 255
220 235 255
220 235 255
220 235 255
220 235 255
220 235 255
220 235 255
220 235 255
220 235 255
220 235 255
220 235 255
220 235 255
220 235 255
220 235 255
220 235 255
220 235 255
220 235 255
220 235 255
220 235 255
220 235 255
220 235 255
220 235 255
220 235 255
220 235 255
220 235 255
220 235 255
220 235 255
220 235 255
220 235 255
220 235 255
220 235 255
220 235 255
220 235 255
220 235 255
220 235 255
220 235 255
220 235 255
220 235 255
220 235 255
220 235 255
220 235 255
220 235 255
220 235 255
220 235 255
220 235 255
220 235 255
220 235 255
220 235 255
220 235 255
220 235 255
220 235 255
220 235 255
220 235 255
220 235 255
220 235 255
220 235 255
220 235 255
220 235 255
220 235 255
220 235 255
220 235 255
220 235 255
220 235 255
220 235 255
220 235 255
220 235 255
220 235 255
220 235 255
220 235 255
220 235 255
220 235 255
220 235 255
220 235 255
220 235 255
220 235 255
220 235 255
220 235 255
220 235 255
220 235 255
220 235 255
220 235 255
220 235 255
220 235 255
220 235 255
220 235 255
220 235 255
220 235 255
220 235 255
220 235 255
220 235 255
220 235 255
220 235 255
220 235 255
220 235 255
220 235 255
220 235 255
220 235 255
220 235 255
220 235 255
220 235 255
220 235 255
220 235 255
220 235 255
220 235 255
220 235 255
220 235 255
220 235 255
220 235 255
220 235 255
220 235 255
220 235 255
220 235 255
220 235 255
220 235 255
220 235 255
220 235 255
220 235 255
220 235 255
220 235 255
220 235 255
220 235 255
220 235 255
220 235 255
220 235 255
220 235 255
220 235 255
220 235 255
220 235 255
220 235 255
220 235 255
220 235 255
220 235 255
220 235 255
220 235 255
220 235 255
220 235 255
220 235 255
220 235 255
220 235 255
220 235 255
220 235 255
220 235 255
220 235 255
220 235 255
220 235 255
220 235 255
220 235 255
220 235 255
220 235 255
220 235 255
220 235 255
220 235 255
220 235 255
220 235 255
220 235 255
220 235 255
220 235 255
220 235 255
220 235 255
220 235 255
220 235 255
220 235 255
220 235 255
220 235 255
220 235 255
220 235 255
220 235 255
220 235 255
220 235 255
220 235 255
220 235 255
220 235 255
220 235 255
220 235 255
220 235 255
220 235 255
220 235 255
220 235 255
220 235 255
220 235 255
220 235 255
220 235 255
220 235 255
220 235 255
220 235 255
220 235 255
220 235 255
220 235 255
220 235 255
220 235 255
220 235 255
220 235 255
220 235 255
220 235 255
220 235 255
220 235 255
220 235 255
220 235 255
220 235 255
220 235 255
220 235 255
220 235 255
220 235 255
220 235 255
220 235 255
220 235 255
220 235 255
220 235 255
220 235 255
220 235 255
220 235 255
220 235 255
220 235 255
220 235 255
220 235 255
220 235 255
220 235 255
220 235 255
220 235 255
220 235 255
220 235 255
220 235 255
220 235 255
220 235 255
220 235 255
220 235 255
220 235 255
220 235 255
220 235 255
220 235 255
220 235 255
220 235 255
220 235 255
220 235 255
220 235 255
220 235 255
220 235 255
220 235 255
220 235 255
220 235 255
220 235 255
220 235 255
220 235 255
220 235 255
220 235 255
220 235 255
220 235 255
220 235 255
220 235 255
220 235 255
220 235 255
220 235 255
220 235 255
220 235 255
220 235 255
220 235 255
220 235 255
220 235 255
220 235 255
220 235 255
220 235 255
220 235 255
220 235 255
220 235 255
220 235 255
220 235 255
220 235 255
220 235 255
220 235 255
220 235 255
220 235 255
220 235 255
220 235 255
220 235 255
220 235 255
220 235 255
220 235 255
220 235 255
220 235 255
220 235 255
220 235 255
220 235 255
220 235 255
220 235 255
220 235 255
220 235 255
220 235 255
220 235 255
220 235 255
220 235 255
220 235 255
220 235 255
220 235 255
220 235 255
220 235 255
220 235 255
220 235 255
220 235 255
220 235 255
220 235 255
220 235 255
220 235 255
220 235 255
220 235 255
220 235 255
220 235 255
220 235 255
220 235 255
220 235 255
220 235 255
220 235 255
220 235 255
220 235 255
220 235 255
220 235 255
220 235 255
220 235 255
220 235 255
220 235 255
220 235 255
220 235 255
220 235 255
220 235 255
220 235 255
220 235 255
220 235 255
220 235 255
220 235 255
220 235 255
220 235 255
220 235 255
220 235 255
220 235 255
220 235 255
220 235 255
220 235 255
220 235 255
220 235 255
220 235 255
220 235 255
220 235 255
220 235 255
220 235 255
220 235 255
220 235 255
220 235 255
220 235 255
220 235 255
220 235 255
220 235 255
220 235 255
220 235 255
220 235 255
220 235 255
220 235 255
220 235 255
220 235 255
220 235 255
220 235 255
220 235 255
220 235 255
220 235 255
220 235 255
220 235 255
220 235 255
220 235 255
220 235 255
220 235 255
220 235 255
220 235 255
220 235 255
220 235 255
220 235 255
220 235 255
220 235 255
220 235 255
220 235 255
220 235 255
220 235 255
220 235 255
220 235 255
220 235 255
220 235 255
220 235 255
220 235 255
220 235 255
220 235 255
220 235 255
220 235 255
220 235 255
220 235 255
220 235 255
220 235 255
220 235 255
220 235 255
220 235 255
220 235 255
220 235 255
220 235 255
220 235 255
220 235 255
220 235 255
220 235 255
220 235 255
220 235 255
220 235 255
220 235 255
220 235 255
220 235 255
220 235 255
220 235 255
220 235 255
220 235 255
220 235 255
220 235 255
220 235 255
220 235 255
220 235 255
220 235 255
220 235 255
220 235 255
220 235 255
220 235 255
220 235 255
220 235 255
220 235 255
220 235 255
220 235 255
220 235 255
220 235 255
220 235 255
220 235 255
220 235 255
220 235 255
220 235 255
220 235 255
220 235 255
220 235 255
220 235 255
220 235 255
220 235 255
220 235 255
220 235 255
220 235 255
220 235 255
220 235 255
220 235 255
220 235 255
220 235 255
220 235 255
220 235 255
220 235 255
220 235 255
220 235 255
220 235 255
220 235 255
220 235 255
220 235 255
220 235 255
220 235 255
220 235 255
220 235 255
220 235 255
220 235 255
220 235 255
220 235 255
220 235 255
220 235 255
220 235 255
220 235 255
220 235 255
220 235 255
220 235 255
220 235 255
220 235 255
220 235 255
220 235 255
220 235 255
220 235 255
220 235 255
220 235 255
220 235 255
220 235 255
220 235 255
220 235 255
220 235 255
220 235 255
220 235 255
220 235 255
220 235 255
220 235 255
220 235 255
220 235 255
220 235 255
220 235 255
220 235 255
220 235 255
220 235 255
220 235 255
220 235 255
220 235 255
220 235 255
220 235 255
220 235 255
220 235 255
220 235 255
220 235 255
220 235 255
220 235 255
220 235 255
220 235 255
220 235 255
220 235 255
220 235 255
220 235 255
220 235 255
220 235 255
220 235 255
220 235 255
220 235 255
220 235 255
220 235 255
220 235 255
220 235 255
220 235 255
220 235 255
220 235 255
220 235 255
220 235 255
220 235 255
220 235 255
220 235 255
220 235 255
220 235 255
220 235 255
220 235 255
220 235 255
220 235 255
220 235 255
220 235 255
220 235 255
220 235 255
220 235 255
220 235 255
220 235 255
220 235 255
220 235 255
220 235 255
220 235 255
220 235 255
220 235 255
220 235 255
220 235 255
220 235 255
220 235 255
220 235 255
220 235 255
220 235 255
220 235 255
220 235 255
220 235 255
220 235 255
220 235 255
220 235 255
220 235 255
220 235 255
220 235 255
220 235 255
220 235 255
220 235 255
220 235 255
220 235 255
220 235 255
220 235 255
220 235 255
220 235 255
220 235 255
220 235 255
220 235 255
220 235 255
220 235 255
220 235 255
220 235 255
220 235 255
220 235 255
220 235 255
220 235 255
220 235 255
220 235 255
220 235 255
220 235 255
220 235 255
220 235 255
220 235 255
220 235 255
220 235 255
220 235 255
220 235 255
220 235 255
220 235 255
220 235 255
220 235 255
220 235 255
220 235 255
220 235 255
220 235 255
221 235 255
221 235 255
221 235 255
221 235 255
221 235 255
221 235 255
221 235 255
221 235 255
221 235 255
221 235 255
221 235 255
221 235 255
221 235 255
221 235 255
221 235 255
221 235 255
221 235 255
221 235 255
221 235 255
221 235 255
221 235 255
221 235 255
221 235 255
221 235 255
221 235 255
221 235 255
221 235 255
221 235 255
221 235 255
220 235 255
221 235 255
221 235 255
221 235 255
221 235 255
221 235 255
221 235 255
221 235 255
221 235 255
221 235 255
221 235 255
221 235 255
221 235 255
221 235 255
221 235 255
221 235 255
221 235 255
221 235 255
221 235 255
221 235 255
221 235 255
221 235 255
221 235 255
221 235 255
221 235 255
221 235 255
221 235 255
221 235 255
220 235 255
221 235 255
221 235 255
221 235 255
221 235 255
221 235 255
221 235 255
221 235 255
221 235 255
221 235 255
221 235 255
221 235 255
221 235 255
221 235 255
221 235 255
221 235 255
221 235 255
220 235 255
221 235 255
221 235 255
221 235 255
221 235 255
221 235 255
221 235 255
221 235 255
220 235 255
221 235 255
221 235 255
221 235 255
221 235 255
221 235 255
221 235 255
221 235 255
221 235 255
221 235 255
221 235 255
220 235 255
221 235 255
221 235 255
220 235 255
220 235 255
221 235 255
221 235 255
221 235 255
221 235 255
221 235 255
221 235 255
221 235 255
221 235 255
220 235 255
221 235 255
221 235 255
221 235 255
221 235 255
220 235 255
221 235 255
221 235 255
221 235 255
220 235 255
221 235 255
221 235 255
221 235 255
221 235 255
221 235 255
221 235 255
220 235 255
221 235 255
221 235 255
221 235 255
221 235 255
221 235 255
221 235 255
221 235 255
221 235 255
221 235 255
221 235 255
221 235 255
221 235 255
220 235 255
220 235 255
221 235 255
221 235 255
221 235 255
221 235 255
221 235 255
221 235 255
221 235 255
220 235 255
221 235 255
221 235 255
221 235 255
221 235 255
221 235 255
221 235 255
221 235 255
220 235 255
221 235 255
220 235 255
221 235 255
220 235 255
221 235 255
221 235 255
221 235 255
221 235 255
221 235 255
221 235 255
221 235 255
221 235 255
220 235 255
220 235 255
221 235 255
221 235 255
221 235 255
221 235 255
221 235 255
221 235 255
221 235 255
221 235 255
221 235 255
221 235 255
220 235 255
221 235 255
221 235 255
221 235 255
221 235 255
221 235 255
221 235 255
221 235 255
221 235 255
221 235 255
221 235 255
220 235 255
221 235 255
221 235 255
221 235 255
220 235 255
221 235 255
221 235 255
220 235 255
221 235 255
220 235 255
221 235 255
221 235 255
221 235 255
221 235 255
221 235 255
221 235 255
221 235 255
221 235 255
221 235 255
221 235 255
220 235 255
220 235 255
221 235 255
221 235 255
221 235 255
221 235 255
221 235 255
221 235 255
221 235 255
221 235 255
221 235 255
221 235 255
221 235 255
221 235 255
221 235 255
221 235 255
221 235 255
221 235 255
221 235 255
221 235 255
221 235 255
221 235 255
221 235 255
221 235 255
221 235 255
221 235 255
221 235 255
221 235 255
221 235 255
221 235 255
221 235 255
221 235 255
221 235 255
221 235 255
221 235 255
221 235 255
221 235 255
221 235 255
221 235 255
221 235 255
221 235 255
221 235 255
221 235 255
221 235 255
221 235 255
221 235 255
221 235 255
221 235 255
221 235 255
221 235 255
221 235 255
221 235 255
221 235 255
221 235 255
221 235 255
221 235 255
221 235 255
221 235 255
221 235 255
221 235 255
221 235 255
221 235 255
221 235 255
221 235 255
221 235 255
221 235 255
221 235 255
221 235 255
221 235 255
221 235 255
221 235 255
221 235 255
221 235 255
221 235 255
221 235 255
221 235 255
221 235 255
221 235 255
221 235 255
221 235 255
221 235 255
221 235 255
221 235 255
221 235 255
221 235 255
221 235 255
221 235 255
221 235 255
221 235 255
221 235 255
221 235 255
221 235 255
221 235 255
221 235 255
221 235 255
221 235 255
221 235 255
221 235 255
221 235 255
221 235 255
221 235 255
221 235 255
221 235 255
221 235 255
221 235 255
221 235 255
221 235 255
221 235 255
221 235 255
221 235 255
221 235 255
221 235 255
221 235 255
221 235 255
221 235 255
221 235 255
221 235 255
221 235 255
221 235 255
221 235 255
221 235 255
221 235 255
221 235 255
221 235 255
221 235 255
221 235 255
221 235 255
221 235 255
221 235 255
221 235 255
221 235 255
221 235 255
221 235 255
221 235 255
221 235 255
221 235 255
221 235 255
221 235 255
221 235 255
221 235 255
221 235 255
221 235 255
221 235 255
221 235 255
221 235 255
221 235 255
221 235 255
221 235 255
221 235 255
221 235 255
221 235 255
221 235 255
221 235 255
221 235 255
221 235 255
221 235 255
221 235 255
221 235 255
221 235 255
221 235 255
221 235 255
221 235 255
221 235 255
221 235 255
221 235 255
221 235 255
221 235 255
221 235 255
221 235 255
221 235 255
221 235 255
221 235 255
221 235 255
221 235 255
221 235 255
221 235 255
221 235 255
221 235 255
221 235 255
221 235 255
221 235 255
221 235 255
221 235 255
221 235 255
221 235 255
221 235 255
221 235 255
221 235 255
221 235 255
221 235 255
221 235 255
221 235 255
221 235 255
221 235 255
221 235 255
221 235 255
221 235 255
221 235 255
221 235 255
221 235 255
221 235 255
221 235 255
221 235 255
221 235 255
221 235 255
221 235 255
221 235 255
221 235 255
221 235 255
221 235 255
221 235 255
221 235 255
221 235 255
221 235 255
221 235 255
221 235 255
221 235 255
221 235 255
221 235 255
221 235 255
221 235 255
221 235 255
221 235 255
221 235 255
221 235 255
221 235 255
221 235 255
221 235 255
221 235 255
221 235 255
221 235 255
221 235 255
221 235 255
221 235 255
221 235 255
221 235 255
221 235 255
221 235 255
221 235 255
221 235 255
221 235 255
221 235 255
221 235 255
221 235 255
221 235 255
221 235 255
221 235 255
221 235 255
221 235 255
221 235 255
221 235 255
221 235 255
221 235 255
221 235 255
221 235 255
221 235 255
221 235 255
221 235 255
221 235 255
221 235 255
221 235 255
221 235 255
221 235 255
221 235 255
221 235 255
221 235 255
221 235 255
221 235 255
221 235 255
221 235 255
221 235 255
221 235 255
221 235 255
221 235 255
221 235 255
221 235 255
221 235 255
221 235 255
221 235 255
221 235 255
221 235 255
221 235 255
221 235 255
221 235 255
221 235 255
221 235 255
221 235 255
221 235 255
221 235 255
221 235 255
221 235 255
221 235 255
221 235 255
221 235 255
221 235 255
221 235 255
221 235 255
221 235 255
221 235 255
221 235 255
221 235 255
221 235 255
221 235 255
221 235 255
221 235 255
221 235 255
221 235 255
221 235 255
221 235 255
221 235 255
221 235 255
221 235 255
221 235 255
221 235 255
221 235 255
221 235 255
221 235 255
221 235 255
221 235 255
221 235 255
221 235 255
221 235 255
221 235 255
221 235 255
221 235 255
221 235 255
221 235 255
221 235 255
221 235 255
221 235 255
221 235 255
221 235 255
221 235 255
221 235 255
221 235 255
221 235 255
221 235 255
221 235 255
221 235 255
221 235 255
221 235 255
221 235 255
221 235 255
221 235 255
221 235 255
221 235 255
221 235 255
221 235 255
221 235 255
221 235 255
221 235 255
221 235 255
221 235 255
221 235 255
221 235 255
221 235 255
221 235 255
221 235 255
221 235 255
221 235 255
221 235 255
221 235 255
221 235 255
221 235 255
221 235 255
221 235 255
221 235 255
221 235 255
221 235 255
221 235 255
221 235 255
221 235 255
221 235 255
221 235 255
221 235 255
221 235 255
221 235 255
221 235 255
221 235 255
221 235 255
221 235 255
221 235 255
221 235 255
221 235 255
221 235 255
221 235 255
221 235 255
221 235 255
221 235 255
221 235 255
221 235 255
221 235 255
221 235 255
221 235 255
221 235 255
221 235 255
221 235 255
221 235 255
221 235 255
221 235 255
221 235 255
221 235 255
221 235 255
221 235 255
221 235 255
221 235 255
221 235 255
221 235 255
221 235 255
221 235 255
221 235 255
221 235 255
221 235 255
221 235 255
221 235 255
221 235 255
221 235 255
221 235 255
221 235 255
221 235 255
221 235 255
221 235 255
221 235 255
221 235 255
221 235 255
221 235 255
221 235 255
221 235 255
221 235 255
221 235 255
221 235 255
221 235 255
221 235 255
221 235 255
221 235 255
221 235 255
221 235 255
221 235 255
221 235 255
221 235 255
221 235 255
221 235 255
221 235 255
221 235 255
221 235 255
221 235 255
221 235 255
221 235 255
221 235 255
221 235 255
221 235 255
221 235 255
221 235 255
221 235 255
221 235 255
221 235 255
221 235 255
221 235 255
221 235 255
221 235 255
221 235 255
221 235 255
221 235 255
221 235 255
221 235 255
221 235 255
221 235 255
221 235 255
221 235 255
221 235 255
221 235 255
221 235 255
221 235 255
221 235 255
221 235 255
221 235 255
221 235 255
221 235 255
221 235 255
221 235 255
221 235 255
221 235 255
221 235 255
221 235 255
221 235 255
221 235 255
221 235 255
221 235 255
221 235 255
221 235 255
221 235 255
221 235 255
221 235 255
221 235 255
221 235 255
221 235 255
221 235 255
221 235 255
221 235 255
221 235 255
221 235 255
221 235 255
221 235 255
221 235 255
221 235 255
221 235 255
221 235 255
221 235 255
221 235 255
221 235 255
221 235 255
221 235 255
221 235 255
221 235 255
221 235 255
221 235 255
221 235 255
221 235 255
221 235 255
221 235 255
221 235 255
221 235 255
221 235 255
221 235 255
221 235 255
221 235 255
221 235 255
221 235 255
221 235 255
221 235 255
221 235 255
221 235 255
221 235 255
221 235 255
221 235 255
221 235 255
221 235 255
221 235 255
221 235 255
221 235 255
221 235 255
221 235 255
221 235 255
221 235 255
221 235 255
221 235 255
221 235 255
221 235 255
221 235 255
221 235 255
221 235 255
221 235 255
221 235 255
221 235 255
221 235 255
221 235 255
221 235 255
221 235 255
221 235 255
221 235 255
221 235 255
221 235 255
221 235 255
221 235 255
221 235 255
221 235 255
221 235 255
221 235 255
221 235 255
221 235 255
221 235 255
221 235 255
221 235 255
221 235 255
221 235 255
221 235 255
221 235 255
221 235 255
221 235 255
221 235 255
221 235 255
221 235 255
221 235 255
221 235 255
221 235 255
221 235 255
221 235 255
221 235 255
221 235 255
221 235 255
221 235 255
221 235 255
221 235 255
221 235 255
221 235 255
221 235 255
221 235 255
221 235 255
221 235 255
221 235 255
221 235 255
221 235 255
221 235 255
221 235 255
221 235 255
221 235 255
221 235 255
221 235 255
221 235 255
221 235 255
221 235 255
221 235 255
221 235 255
221 235 255
221 235 255
221 235 255
221 235 255
221 235 255
221 235 255
221 235 255
221 235 255
221 235 255
221 235 255
221 235 255
221 235 255
221 235 255
221 235 255
221 235 255
221 235 255
221 235 255
221 235 255
221 235 255
221 235 255
221 235 255
221 235 255
221 235 255
221 235 255
221 235 255
221 235 255
221 235 255
221 235 255
221 235 255
221 235 255
221 235 255
221 235 255
221 235 255
221 235 255
221 235 255
221 235 255
221 235 255
221 235 255
221 235 255
221 235 255
221 235 255
221 235 255
221 235 255
221 235 255
221 235 255
221 235 255
221 235 255
221 235 255
221 235 255
221 235 255
221 235 255
221 235 255
221 235 255
221 235 255
221 235 255
221 235 255
221 235 255
221 235 255
221 235 255
221 235 255
221 235 255
221 235 255
221 235 255
221 235 255
221 235 255
221 235 255
221 235 255
221 235 255
221 235 255
221 235 255
221 235 255
221 235 255
221 235 255
221 235 255
221 235 255
221 235 255
221 235 255
221 235 255
221 235 255
221 235 255
221 235 255
221 235 255
221 235 255
221 235 255
221 235 255
221 235 255
221 235 255
221 235 255
221 235 255
221 235 255
221 235 255
221 235 255
221 235 255
221 235 255
221 235 255
221 235 255
221 235 255
221 235 255
221 235 255
221 235 255
221 235 255
221 235 255
221 235 255
221 235 255
221 235 255
221 235 255
221 235 255
221 235 255
221 235 255
221 235 255
221 235 255
221 235 255
221 235 255
221 235 255
221 235 255
221 235 255
221 235 255
221 235 255
221 235 255
221 235 255
221 235 255
221 235 255
221 235 255
221 235 255
221 235 255
221 235 255
221 235 255
221 235 255
221 235 255
221 235 255
221 235 255
221 235 255
221 235 255
221 235 255
221 235 255
221 235 255
221 235 255
221 235 255
221 235 255
221 235 255
221 235 255
221 235 255
221 235 255
221 235 255
221 235 255
221 235 255
221 235 255
221 235 255
221 235 255
221 235 255
221 235 255
221 235 255
221 235 255
221 235 255
221 235 255
221 235 255
221 235 255
221 235 255
221 235 255
221 235 255
221 235 255
221 235 255
221 235 255
221 235 255
221 235 255
221 235 255
221 235 255
221 235 255
221 235 255
221 235 255
221 235 255
221 235 255
221 235 255
221 235 255
221 235 255
221 235 255
221 235 255
221 235 255
221 235 255
221 235 255
221 235 255
221 235 255
221 235 255
221 235 255
221 235 255
221 235 255
221 235 255
221 235 255
221 235 255
221 235 255
221 235 255
221 235 255
221 235 255
221 235 255
221 235 255
221 235 255
221 235 255
221 235 255
221 235 255
221 235 255
221 235 255
221 235 255
221 235 255
221 235 255
221 235 255
221 235 255
221 235 255
221 235 255
221 235 255
221 235 255
221 235 255
221 235 255
221 235 255
221 235 255
221 235 255
221 235 255
221 235 255
221 235 255
221 235 255
221 235 255
221 235 255
221 235 255
221 235 255
221 235 255
221 235 255
221 235 255
221 235 255
221 235 255
221 235 255
221 235 255
221 235 255
221 235 255
221 235 255
221 235 255
221 235 255
221 235 255
221 235 255
221 235 255
221 235 255
221 235 255
221 235 255
221 235 255
221 235 255
221 235 255
221 235 255
221 235 255
221 235 255
221 235 255
221 235 255
221 235 255
221 235 255
221 235 255
221 235 255
221 235 255
221 235 255
221 235 255
221 235 255
221 235 255
221 235 255
221 235 255
221 235 255
221 235 255
221 235 255
221 235 255
221 235 255
221 235 255
221 235 255
221 235 255
221 235 255
221 235 255
221 235 255
221 235 255
221 235 255
221 235 255
221 235 255
221 235 255
221 235 255
221 235 255
221 235 255
221 235 255
221 235 255
221 235 255
221 235 255
221 235 255
221 235 255
221 235 255
221 235 255
221 235 255
221 235 255
221 235 255
221 235 255
221 235 255
221 235 255
221 235 255
221 235 255
221 235 255
221 235 255
221 235 255
221 235 255
221 235 255
221 235 255
221 235 255
221 235 255
221 235 255
221 235 255
221 235 255
221 235 255
221 235 255
221 235 255
221 235 255
221 235 255
221 235 255
221 235 255
221 235 255
221 235 255
221 235 255
221 235 255
221 235 255
221 235 255
221 235 255
221 235 255
221 235 255
221 235 255
221 235 255
221 235 255
221 235 255
221 235 255
221 235 255
221 235 255
221 235 255
221 235 255
221 235 255
221 235 255
221 235 255
221 235 255
221 235 255
221 235 255
221 235 255
221 235 255
221 235 255
221 235 255
221 235 255
221 235 255
221 235 255
221 235 255
221 235 255
221 235 255
221 235 255
221 235 255
221 235 255
221 235 255
221 235 255
221 235 255
221 235 255
221 235 255
221 235 255
221 235 255
221 235 255
221 235 255
221 235 255
221 235 255
221 235 255
221 235 255
221 235 255
221 235 255
221 235 255
221 235 255
221 235 255
221 235 255
221 235 255
221 235 255
221 235 255
221 235 255
221 235 255
221 235 255
221 235 255
221 235 255
221 235 255
221 235 255
221 235 255
221 235 255
221 235 255
221 235 255
221 235 255
221 235 255
221 235 255
221 235 255
221 235 255
221 235 255
221 235 255
221 235 255
221 235 255
221 235 255
221 235 255
221 235 255
221 235 255
221 235 255
221 235 255
221 235 255
221 235 255
221 235 255
221 235 255
221 235 255
221 235 255
221 235 255
221 235 255
221 235 255
221 235 255
221 235 255
221 235 255
221 235 255
221 235 255
221 235 255
221 235 255
221 235 255
221 235 255
221 235 255
221 235 255
221 235 255
221 235 255
221 235 255
221 235 255
221 235 255
221 235 255
221 235 255
221 235 255
221 235 255
221 235 255
221 235 255
221 235 255
221 235 255
221 235 255
221 235 255
221 235 255
221 235 255
221 235 255
221 235 255
221 235 255
221 235 255
221 235 255
221 235 255
221 235 255
221 235 255
221 235 255
221 235 255
221 235 255
221 235 255
221 235 255
221 235 255
221 235 255
221 235 255
221 235 255
221 235 255
221 235 255
221 235 255
221 235 255
221 235 255
221 235 255
221 235 255
221 235 255
221 235 255
221 235 255
221 235 255
221 235 255
221 235 255
221 235 255
221 235 255
221 235 255
221 235 255
221 235 255
221 235 255
221 235 255
221 235 255
221 235 255
221 235 255
221 235 255
221 235 255
221 235 255
221 235 255
221 235 255
221 235 255
221 235 255
221 235 255
221 235 255
221 235 255
221 235 255
221 235 255
221 235 255
221 235 255
221 235 255
221 235 255
221 235 255
221 235 255
221 235 255
221 235 255
221 235 255
221 235 255
221 235 255
221 235 255
221 235 255
221 235 255
221 235 255
221 235 255
221 235 255
221 235 255
221 235 255
221 235 255
221 235 255
221 235 255
221 235 255
221 235 255
221 235 255
221 235 255
221 235 255
221 235 255
221 235 255
221 235 255
221 235 255
221 235 255
221 235 255
221 235 255
221 235 255
221 235 255
221 235 255
221 235 255
221 235 255
221 235 255
221 235 255
221 235 255
221 235 255
221 235 255
221 235 255
221 235 255
221 235 255
221 235 255
221 235 255
221 235 255
221 235 255
221 235 255
221 235 255
221 235 255
221 235 255
221 235 255
221 235 255
221 235 255
221 235 255
221 235 255
221 235 255
221 235 255
221 235 255
221 235 255
221 235 255
221 235 255
221 235 255
221 235 255
221 235 255
221 235 255
221 235 255
221 235 255
221 235 255
221 235 255
221 235 255
221 235 255
221 235 255
221 235 255
221 235 255
221 235 255
221 235 255
221 235 255
221 235 255
221 235 255
221 235 255
221 235 255
221 235 255
221 235 255
221 235 255
221 235 255
221 235 255
221 235 255
221 235 255
221 235 255
221 235 255
221 235 255
221 235 255
221 235 255
221 235 255
221 235 255
221 235 255
221 235 255
221 235 255
221 235 255
221 235 255
221 235 255
221 235 255
221 235 255
221 235 255
221 235 255
221 235 255
221 235 255
221 235 255
221 235 255
221 235 255
221 235 255
221 235 255
221 235 255
221 235 255
221 235 255
221 235 255
221 235 255
221 235 255
221 235 255
221 235 255
221 235 255
221 235 255
221 235 255
221 235 255
221 235 255
221 235 255
221 235 255
221 235 255
221 235 255
221 235 255
221 235 255
221 235 255
221 235 255
221 235 255
221 235 255
221 235 255
221 235 255
221 235 255
221 235 255
221 235 255
221 235 255
221 235 255
221 235 255
221 235 255
221 235 255
221 235 255
221 235 255
221 235 255
221 235 255
221 235 255
221 235 255
221 235 255
221 235 255
221 235 255
221 235 255
221 235 255
221 235 255
221 235 255
221 235 255
221 235 255
221 235 255
221 235 255
221 235 255
221 235 255
221 235 255
221 235 255
221 235 255
221 235 255
221 235 255
221 235 255
221 235 255
221 235 255
221 235 255
221 235 255
221 235 255
221 235 255
221 235 255
221 235 255
221 235 255
221 235 255
221 235 255
221 235 255
221 235 255
221 235 255
221 235 255
221 235 255
221 235 255
221 235 255
221 235 255
221 235 255
221 235 255
221 235 255
221 235 255
221 235 255
221 235 255
221 235 255
221 235 255
221 235 255
221 235 255
221 235 255
221 235 255
221 235 255
221 235 255
221 235 255
221 235 255
221 235 255
221 235 255
221 235 255
221 235 255
221 235 255
221 235 255
221 235 255
221 235 255
221 235 255
221 235 255
221 235 255
221 235 255
221 235 255
221 235 255
221 235 255
221 235 255
221 235 255
221 235 255
221 235 255
221 235 255
221 235 255
221 235 255
221 235 255
221 235 255
221 235 255
221 235 255
221 235 255
221 235 255
221 235 255
221 235 255
221 235 255
221 235 255
221 235 255
221 235 255
221 235 255
221 235 255
221 235 255
221 235 255
221 235 255
221 235 255
221 235 255
221 235 255
221 235 255
221 235 255
221 235 255
221 235 255
221 235 255
221 235 255
221 235 255
221 235 255
221 235 255
221 235 255
221 235 255
221 235 255
221 235 255
221 235 255
221 235 255
221 235 255
221 235 255
221 235 255
221 235 255
221 235 255
221 235 255
221 235 255
221 235 255
221 235 255
221 235 255
221 235 255
221 235 255
221 235 255
221 235 255
221 235 255
221 235 255
221 235 255
221 235 255
221 235 255
221 235 255
221 235 255
221 235 255
221 235 255
221 235 255
221 235 255
221 235 255
221 235 255
221 235 255
221 235 255
221 235 255
221 235 255
221 235 255
221 235 255
221 235 255
221 235 255
221 235 255
221 235 255
221 235 255
221 235 255
221 235 255
221 235 255
221 235 255
221 235 255
221 235 255
221 235 255
221 235 255
221 235 255
221 235 255
221 235 255
221 235 255
221 235 255
221 235 255
221 235 255
221 235 255
221 235 255
221 235 255
221 235 255
221 235 255
221 235 255
221 235 255
221 235 255
221 235 255
221 235 255
221 235 255
221 235 255
221 235 255
221 235 255
221 235 255
221 235 255
221 235 255
221 235 255
221 235 255
221 235 255
221 235 255
221 235 255
221 235 255
221 235 255
221 235 255
221 235 255
221 235 255
221 235 255
221 235 255
221 235 255
221 235 255
221 235 255
221 235 255
221 235 255
221 235 255
221 235 255
221 235 255
221 235 255
221 235 255
221 235 255
221 235 255
221 235 255
221 235 255
221 235 255
221 235 255
221 235 255
221 235 255
221 235 255
221 235 255
221 235 255
221 235 255
221 235 255
221 235 255
221 235 255
221 235 255
221 235 255
221 235 255
221 235 255
221 235 255
221 235 255
221 235 255
221 235 255
221 235 255
221 235 255
221 235 255
221 235 255
221 235 255
221 235 255
221 235 255
221 235 255
221 235 255
221 235 255
221 235 255
221 235 255
221 235 255
221 235 255
221 235 255
221 235 255
221 235 255
221 235 255
221 235 255
221 235 255
221 235 255
221 235 255
221 235 255
221 235 255
221 235 255
221 235 255
221 235 255
221 235 255
221 235 255
221 235 255
221 235 255
221 235 255
221 235 255
221 235 255
221 235 255
221 235 255
221 235 255
221 235 255
221 235 255
221 235 255
221 235 255
221 235 255
221 235 255
221 235 255
221 235 255
221 235 255
221 235 255
221 235 255
221 235 255
221 235 255
221 235 255
221 235 255
221 235 255
221 235 255
221 235 255
221 235 255
221 235 255
221 235 255
221 235 255
221 235 255
221 235 255
221 235 255
221 235 255
221 235 255
221 235 255
221 235 255
221 235 255
221 235 255
221 235 255
221 235 255
221 235 255
221 235 255
221 235 255
221 235 255
221 235 255
221 235 255
221 235 255
221 235 255
221 235 255
221 235 255
221 235 255
221 235 255
221 235 255
221 235 255
221 235 255
221 235 255
221 235 255
221 235 255
221 235 255
221 235 255
221 235 255
221 235 255
221 235 255
221 235 255
221 235 255
221 235 255
221 235 255
221 235 255
221 235 255
221 235 255
221 235 255
221 235 255
221 235 255
221 235 255
221 235 255
221 235 255
221 235 255
221 235 255
221 235 255
221 235 255
221 235 255
221 235 255
221 235 255
221 235 255
221 235 255
221 235 255
221 235 255
221 235 255
221 235 255
221 235 255
221 235 255
221 235 255
221 235 255
221 235 255
221 235 255
221 235 255
221 235 255
221 235 255
221 235 255
221 235 255
221 235 255
221 235 255
221 235 255
221 235 255
221 235 255
221 235 255
221 235 255
221 235 255
221 235 255
221 235 255
221 235 255
221 235 255
221 235 255
221 235 255
221 235 255
221 235 255
221 235 255
221 235 255
221 235 255
221 235 255
221 235 255
221 235 255
221 235 255
221 235 255
221 235 255
221 235 255
221 235 255
221 235 255
221 235 255
221 235 255
221 235 255
221 235 255
221 235 255
221 235 255
221 235 255
221 235 255
221 235 255
221 235 255
221 235 255
221 235 255
221 235 255
221 235 255
221 235 255
221 235 255
221 235 255
221 235 255
221 235 255
221 235 255
221 235 255
221 235 255
221 235 255
221 235 255
221 235 255
221 235 255
221 235 255
221 235 255
221 235 255
221 235 255
221 235 255
221 235 255
221 235 255
221 235 255
221 235 255
221 235 255
221 235 255
221 235 255
221 235 255
221 235 255
221 235 255
221 235 255
221 235 255
221 235 255
221 235 255
221 235 255
221 235 255
221 235 255
221 235 255
221 235 255
221 235 255
221 235 255
221 235 255
221 235 255
221 235 255
221 235 255
221 235 255
221 235 255
221 235 255
221 235 255
221 235 255
221 235 255
221 235 255
221 235 255
221 235 255
221 235 255
221 235 255
221 235 255
221 235 255
221 235 255
221 235 255
221 235 255
221 235 255
221 235 255
221 235 255
221 235 255
221 235 255
221 235 255
221 235 255
221 235 255
221 235 255
221 235 255
221 235 255
221 235 255
221 235 255
221 235 255
221 235 255
221 235 255
221 235 255
221 235 255
221 235 255
221 235 255
221 235 255
221 235 255
221 235 255
221 235 255
221 235 255
221 235 255
221 235 255
221 235 255
221 235 255
221 235 255
221 235 255
221 235 255
221 235 255
221 235 255
221 235 255
221 235 255
221 235 255
221 235 255
221 235 255
221 235 255
221 235 255
221 235 255
221 235 255
221 235 255
221 235 255
221 235 255
221 235 255
221 235 255
221 235 255
221 235 255
221 235 255
221 235 255
221 235 255
221 235 255
221 235 255
221 235 255
221 235 255
221 235 255
221 235 255
221 235 255
221 235 255
221 235 255
221 235 255
221 235 255
221 235 255
221 235 255
221 235 255
221 235 255
221 235 255
221 235 255
221 235 255
221 235 255
221 235 255
221 235 255
221 235 255
221 235 255
221 235 255
221 235 255
221 235 255
221 235 255
221 235 255
221 235 255
221 235 255
221 235 255
221 235 255
221 235 255
221 235 255
221 235 255
221 235 255
221 235 255
221 235 255
221 235 255
221 235 255
221 235 255
221 235 255
221 235 255
221 235 255
221 235 255
221 235 255
221 235 255
221 235 255
221 235 255
221 235 255
221 235 255
221 235 255
221 235 255
221 235 255
221 235 255
221 235 255
221 235 255
221 235 255
221 235 255
221 235 255
221 235 255
221 235 255
221 235 255
221 235 255
221 235 255
221 235 255
221 235 255
221 235 255
221 235 255
221 235 255
221 235 255
221 235 255
221 235 255
221 235 255
221 235 255
221 235 255
221 235 255
221 235 255
221 235 255
221 235 255
221 235 255
221 235 255
221 235 255
221 235 255
221 235 255
221 235 255
221 235 255
221 235 255
221 235 255
221 235 255
221 235 255
221 235 255
221 235 255
221 235 255
221 235 255
221 235 255
221 235 255
221 235 255
221 235 255
221 235 255
221 235 255
221 235 255
221 235 255
221 235 255
221 235 255
221 235 255
221 235 255
221 235 255
221 235 255
221 235 255
221 235 255
221 235 255
221 235 255
221 235 255
221 235 255
221 235 255
221 235 255
221 235 255
221 235 255
221 235 255
221 235 255
221 235 255
221 235 255
221 235 255
221 235 255
221 235 255
221 235 255
221 235 255
221 235 255
221 235 255
221 235 255
221 235 255
221 235 255
221 235 255
221 235 255
221 235 255
221 235 255
221 235 255
221 235 255
221 235 255
221 235 255
221 235 255
221 235 255
221 235 255
221 235 255
221 235 255
221 235 255
221 235 255
221 235 255
221 235 255
221 235 255
221 235 255
221 235 255
221 235 255
221 235 255
221 235 255
221 235 255
221 235 255
221 235 255
221 235 255
221 235 255
221 235 255
221 235 255
221 235 255
221 235 255
221 235 255
221 235 255
221 235 255
221 235 255
221 235 255
221 235 255
221 235 255
221 235 255
221 235 255
221 235 255
221 235 255
221 235 255
221 235 255
221 235 255
221 235 255
221 235 255
221 235 255
221 235 255
221 235 255
221 235 255
221 235 255
221 235 255
221 235 255
221 235 255
221 235 255
221 235 255
221 235 255
221 235 255
221 235 255
221 235 255
221 235 255
221 235 255
221 235 255
221 235 255
221 235 255
221 235 255
221 235 255
221 235 255
221 235 255
221 235 255
221 235 255
221 235 255
221 235 255
221 235 255
221 235 255
221 235 255
221 235 255
221 235 255
221 235 255
221 235 255
221 235 255
221 235 255
221 235 255
221 235 255
221 235 255
221 235 255
221 235 255
221 235 255
221 235 255
221 235 255
221 235 255
221 235 255
221 235 255
221 235 255
221 235 255
221 235 255
221 235 255
221 235 255
221 235 255
221 235 255
221 235 255
221 235 255
221 235 255
221 235 255
221 235 255
221 235 255
221 235 255
221 235 255
221 235 255
221 235 255
221 235 255
221 235 255
221 235 255
221 235 255
221 235 255
221 235 255
221 235 255
221 235 255
221 235 255
221 235 255
221 235 255
221 235 255
221 235 255
221 235 255
221 235 255
221 235 255
221 235 255
221 235 255
221 235 255
221 235 255
221 235 255
221 235 255
221 235 255
221 235 255
221 235 255
221 235 255
221 235 255
221 235 255
221 235 255
221 235 255
221 235 255
221 235 255
221 235 255
221 235 255
221 235 255
221 235 255
221 235 255
221 235 255
221 235 255
221 235 255
221 235 255
221 235 255
221 235 255
221 235 255
221 235 255
221 235 255
221 235 255
221 235 255
221 235 255
221 235 255
221 235 255
221 235 255
221 235 255
221 235 255
221 235 255
221 235 255
221 235 255
221 235 255
221 235 255
221 235 255
221 235 255
221 235 255
221 235 255
221 235 255
221 235 255
221 235 255
221 235 255
221 235 255
221 235 255
221 235 255
221 235 255
221 235 255
221 235 255
221 235 255
221 235 255
221 235 255
221 235 255
221 235 255
221 235 255
221 235 255
221 235 255
221 235 255
221 235 255
221 235 255
221 235 255
221 235 255
221 235 255
221 235 255
221 235 255
221 235 255
221 235 255
221 235 255
221 235 255
221 235 255
221 235 255
221 235 255
221 235 255
221 235 255
221 235 255
221 235 255
221 235 255
221 235 255
221 235 255
221 235 255
221 235 255
221 235 255
221 235 255
221 235 255
221 235 255
221 235 255
221 235 255
221 235 255
221 235 255
221 235 255
221 235 255
221 235 255
221 235 255
221 235 255
221 235 255
221 235 255
221 235 255
221 235 255
221 235 255
221 235 255
221 235 255
221 235 255
221 235 255
221 235 255
221 235 255
221 235 255
221 235 255
221 235 255
221 235 255
221 235 255
221 235 255
221 235 255
221 235 255
221 235 255
221 235 255
221 235 255
221 235 255
221 235 255
221 235 255
221 235 255
221 235 255
221 235 255
221 235 255
221 235 255
221 235 255
221 235 255
221 235 255
221 235 255
221 235 255
221 235 255
221 235 255
221 235 255
221 235 255
221 235 255
221 235 255
221 235 255
221 235 255
221 235 255
221 235 255
221 235 255
221 235 255
221 235 255
221 235 255
221 235 255
221 235 255
221 235 255
221 235 255
221 235 255
221 235 255
221 235 255
221 235 255
221 235 255
221 235 255
221 235 255
221 235 255
221 235 255
221 235 255
221 235 255
221 235 255
221 235 255
221 235 255
221 235 255
221 235 255
221 235 255
221 235 255
221 235 255
221 235 255
221 235 255
221 235 255
221 235 255
221 235 255
221 235 255
221 235 255
221 235 255
221 235 255
221 235 255
221 235 255
221 235 255
221 235 255
221 235 255
221 235 255
221 235 255
221 235 255
221 235 255
221 235 255
221 235 255
221 235 255
221 235 255
221 235 255
221 235 255
221 235 255
221 235 255
221 235 255
221 235 255
221 235 255
221 235 255
221 235 255
221 235 255
221 235 255
221 235 255
221 235 255
221 235 255
221 235 255
221 235 255
221 235 255
221 235 255
221 235 255
221 235 255
221 235 255
221 235 255
221 235 255
221 235 255
221 235 255
221 235 255
221 235 255
221 235 255
221 235 255
221 235 255
221 235 255
221 235 255
221 235 255
221 235 255
221 235 255
221 235 255
221 235 255
221 235 255
221 235 255
221 235 255
221 235 255
221 235 255
221 235 255
221 235 255
221 235 255
221 235 255
221 235 255
221 235 255
221 235 255
221 235 255
221 235 255
221 235 255
221 235 255
221 235 255
221 235 255
221 235 255
221 235 255
221 235 255
221 235 255
221 235 255
221 235 255
221 235 255
221 235 255
221 235 255
221 235 255
221 235 255
221 235 255
221 235 255
221 235 255
221 235 255
221 235 255
221 235 255
221 235 255
221 235 255
221 235 255
221 235 255
221 235 255
221 235 255
221 235 255
221 235 255
221 235 255
221 235 255
221 235 255
221 235 255
221 235 255
221 235 255
221 235 255
221 235 255
221 235 255
221 235 255
221 235 255
221 235 255
218 232 251
221 235 255
217 230 248
217 230 248
221 235 255
220 234 253
220 234 253
221 235 255
221 235 255
221 235 255
221 235 255
221 235 255
221 235 255
221 235 255
221 235 255
221 235 255
221 235 255
221 235 255
221 235 255
221 235 255
221 235 255
221 235 255
221 235 255
221 235 255
221 235 255
221 235 255
221 235 255
221 235 255
221 235 255
221 235 255
221 235 255
221 235 255
221 235 255
221 235 255
221 235 255
221 235 255
221 235 255
221 235 255
221 235 255
221 235 255
221 235 255
221 235 255
221 235 255
221 235 255
221 235 255
221 235 255
221 235 255
221 235 255
221 235 255
221 235 255
221 235 255
221 235 255
221 235 255
221 235 255
221 235 255
221 235 255
221 235 255
221 235 255
221 235 255
221 235 255
221 235 255
221 235 255
221 235 255
221 235 255
221 235 255
221 235 255
221 235 255
221 235 255
221 235 255
221 235 255
221 235 255
221 235 255
221 235 255
221 235 255
221 235 255
221 235 255
221 235 255
221 235 255
221 235 255
221 235 255
221 235 255
221 235 255
221 235 255
221 235 255
221 235 255
221 235 255
221 235 255
221 235 255
221 235 255
221 235 255
221 235 255
221 235 255
221 235 255
221 235 255
221 235 255
221 235 255
221 235 255
221 235 255
221 235 255
221 235 255
221 235 255
221 235 255
221 235 255
221 235 255
221 235 255
221 235 255
221 235 255
221 235 255
221 235 255
221 235 255
221 235 255
221 235 255
221 235 255
221 235 255
221 235 255
221 235 255
221 235 255
221 235 255
221 235 255
221 235 255
221 235 255
221 235 255
221 235 255
221 235 255
221 235 255
221 235 255
221 235 255
221 235 255
221 235 255
221 235 255
221 235 255
221 235 255
221 235 255
221 235 255
221 235 255
221 235 255
221 235 255
221 235 255
221 235 255
221 235 255
221 235 255
221 235 255
221 235 255
221 235 255
221 235 255
221 235 255
221 235 255
221 235 255
221 235 255
221 235 255
221 235 255
221 235 255
221 235 255
221 235 255
221 235 255
221 235 255
221 235 255
221 235 255
221 235 255
221 235 255
221 235 255
221 235 255
221 235 255
221 235 255
221 235 255
221 235 255
221 235 255
221 235 255
221 235 255
221 235 255
221 235 255
221 235 255
221 235 255
221 235 255
221 235 255
221 235 255
221 235 255
221 235 255
221 236 255
221 236 255
221 236 255
221 236 255
221 236 255
221 236 255
221 236 255
221 236 255
221 236 255
221 236 255
221 236 255
221 236 255
221 236 255
221 236 255
221 236 255
221 236 255
221 236 255
221 236 255
221 236 255
221 236 255
221 236 255
221 236 255
221 236 255
221 236 255
221 236 255
221 236 255
221 236 255
221 236 255
221 236 255
221 236 255
221 236 255
221 236 255
221 236 255
221 236 255
221 236 255
221 236 255
221 236 255
221 236 255
221 236 255
221 236 255
221 236 255
221 236 255
221 235 255
221 236 255
221 236 255
221 236 255
221 236 255
221 236 255
221 236 255
221 236 255
221 236 255
221 236 255
221 236 255
221 236 255
221 236 255
221 236 255
221 236 255
221 236 255
221 236 255
221 236 255
221 236 255
221 236 255
221 236 255
221 236 255
221 236 255
221 236 255
221 236 255
221 236 255
221 236 255
221 236 255
221 236 255
221 236 255
221 236 255
221 236 255
221 236 255
221 236 255
221 236 255
221 236 255
221 236 255
221 236 255
221 236 255
221 236 255
221 236 255
221 236 255
221 236 255
221 236 255
221 236 255
221 236 255
221 236 255
221 236 255
221 236 255
221 236 255
221 236 255
221 236 255
221 236 255
221 236 255
221 236 255
221 236 255
221 236 255
221 236 255
221 236 255
221 236 255
221 235 255
221 236 255
221 236 255
221 236 255
221 236 255
221 236 255
221 236 255
221 236 255
221 236 255
221 236 255
221 236 255
221 236 255
221 236 255
221 236 255
221 236 255
218 231 251
212 224 241
213 225 243
190 195 207
184 186 195
194 200 213
173 171 176
187 190 201
192 196 207
196 202 216
194 200 212
204 213 229
201 209 224
214 226 244
217 230 248
220 234 253
221 236 255
221 236 255
221 236 255
221 236 255
221 236 255
221 236 255
221 235 255
221 236 255
221 236 255
221 236 255
217 231 252
219 233 253
213 228 248
209 224 244
209 224 245
206 221 241
201 216 236
205 221 242
212 226 247
213 229 250
211 226 247
216 231 252
217 231 250
218 233 253
221 236 255
221 236 255
221 236 255
221 236 255
221 236 255
221 236 255
221 236 255
221 236 255
221 236 255
221 236 255
221 236 255
221 236 255
221 236 255
221 236 255
221 236 255
221 236 255
221 236 255
221 236 255
221 236 255
221 236 255
221 236 255
221 236 255
221 236 255
221 236 255
221 236 255
221 236 255
221 236 255
221 236 255
221 236 255
221 236 255
221 236 255
221 236 255
220 235 254
215 227 244
216 229 246
206 215 228
210 221 237
203 212 224
209 219 234
205 214 227
209 220 236
210 220 236
212 223 240
211 222 238
215 227 244
220 234 253
221 236 255
221 236 255
221 236 255
221 236 255
221 236 255
221 236 255
221 236 255
221 236 255
221 236 255
221 236 255
221 236 255
221 236 255
221 236 255
221 236 255
221 236 255
221 236 255
221 236 255
221 236 255
221 236 255
221 236 255
221 236 255
221 236 255
221 236 255
221 236 255
221 236 255
221 236 255
221 236 255
221 236 255
221 236 255
221 236 255
221 236 255
221 236 255
221 236 255
221 236 255
221 236 255
221 236 255
221 236 255
221 236 255
221 236 255
221 236 255
221 236 255
221 236 255
221 236 255
221 236 255
221 236 255
221 236 255
221 236 255
221 236 255
221 236 255
221 236 255
221 236 255
221 236 255
221 236 255
221 236 255
221 236 255
221 236 255
221 236 255
221 236 255
221 236 255
221 236 255
221 236 255
221 236 255
221 236 255
221 236 255
221 236 255
221 236 255
221 236 255
221 236 255
221 236 255
221 236 255
221 236 255
221 236 255
221 236 255
221 236 255
221 236 255
221 236 255
221 236 255
221 236 255
221 236 255
221 236 255
221 236 255
221 236 255
221 236 255
221 236 255
221 236 255
221 236 255
221 236 255
221 236 255
221 236 255
221 236 255
221 236 255
221 236 255
221 236 255
221 236 255
221 236 255
221 236 255
221 236 255
221 236 255
221 236 255
221 236 255
221 236 255
221 236 255
221 236 255
221 236 255
221 236 255
221 236 255
221 236 255
221 236 255
221 236 255
221 236 255
221 236 255
221 236 255
221 236 255
221 236 255
221 236 255
221 236 255
221 236 255
221 236 255
221 236 255
221 236 255
221 236 255
221 236 255
221 236 255
221 236 255
221 236 255
221 236 255
221 236 255
221 236 255
221 236 255
221 236 255
221 236 255
221 236 255
221 236 255
221 236 255
221 236 255
221 236 255
221 236 255
221 236 255
221 236 255
221 236 255
221 236 255
221 236 255
221 236 255
221 236 255
221 236 255
221 236 255
221 236 255
221 236 255
221 236 255
221 236 255
221 236 255
221 236 255
221 236 255
221 236 255
221 236 255
221 236 255
221 236 255
221 236 255
221 236 255
221 236 255
221 236 255
221 236 255
221 236 255
221 236 255
221 236 255
221 236 255
221 236 255
221 236 255
221 236 255
221 236 255
221 236 255
221 236 255
221 236 255
221 236 255
221 236 255
221 236 255
221 236 255
221 236 255
221 236 255
221 236 255
221 236 255
221 236 255
221 236 255
221 236 255
221 236 255
221 236 255
221 236 255
221 236 255
221 236 255
221 236 255
221 236 255
221 236 255
221 236 255
221 236 255
221 236 255
221 236 255
221 236 255
221 236 255
221 236 255
221 236 255
221 236 255
221 236 255
221 236 255
221 236 255
221 236 255
221 236 255
221 236 255
221 236 255
221 236 255
221 236 255
220 234 253
221 236 255
214 227 246
200 209 223
189 193 204
161 156 158
162 158 162
144 130 125
129 107 92
133 115 105
133 112 99
142 124 116
135 115 104
140 121 111
128 103 86
131 111 99
153 143 143
161 153 155
175 175 183
201 209 223
199 207 221
211 223 241
220 234 253
221 236 255
221 236 255
221 236 255
215 229 248
212 226 245
205 219 239
184 199 219
181 196 217
178 193 216
174 190 213
150 165 187
164 180 203
159 176 200
165 182 207
156 171 193
151 167 192
161 175 198
165 183 207
164 179 201
173 187 207
185 200 222
193 209 230
204 220 240
213 227 247
221 235 255
221 236 255
221 236 255
221 236 255
221 236 255
221 236 255
221 236 255
221 236 255
221 236 255
221 236 255
221 236 255
221 236 255
221 236 255
221 236 255
221 236 255
221 236 255
221 236 255
221 236 255
221 236 255
221 236 255
221 236 255
221 236 255
221 236 255
221 235 254
218 232 250
208 218 233
200 207 218
198 206 217
183 186 191
176 178 181
176 178 181
175 177 181
175 177 181
174 177 181
174 177 181
174 176 181
173 176 181
174 177 181
174 177 181
175 177 181
176 178 181
176 178 181
177 179 182
178 180 182
196 202 212
200 207 218
209 219 234
217 230 248
221 236 255
221 236 255
221 236 255
221 236 255
221 236 255
221 236 255
221 236 255
221 236 255
221 236 255
221 236 255
221 236 255
221 236 255
221 236 255
221 236 255
221 236 255
221 236 255
221 236 255
221 236 255
221 236 255
221 236 255
221 236 255
221 236 255
221 236 255
221 236 255
221 236 255
221 236 255
221 236 255
221 236 255
221 236 255
221 236 255
221 236 255
221 236 255
221 236 255
221 236 255
221 236 255
221 236 255
221 236 255
221 236 255
221 236 255
221 236 255
221 236 255
221 236 255
221 236 255
221 236 255
221 236 255
221 236 255
221 236 255
221 236 255
221 236 255
221 236 255
221 236 255
221 236 255
221 236 255
221 236 255
221 236 255
221 236 255
221 236 255
221 236 255
221 236 255
221 236 255
221 236 255
221 236 255
221 236 255
221 236 255
221 236 255
221 236 255
221 236 255
221 236 255
221 236 255
221 236 255
221 236 255
221 236 255
221 236 255
221 236 255
221 236 255
221 236 255
221 236 255
221 236 255
221 236 255
221 236 255
221 236 255
221 236 255
221 236 255
221 236 255
221 236 255
221 236 255
221 236 255
221 236 255
221 236 255
221 236 255
221 236 255
221 236 255
221 236 255
221 236 255
221 236 255
221 236 255
221 236 255
221 236 255
221 236 255
221 236 255
221 236 255
221 236 255
221 236 255
221 236 255
221 236 255
221 236 255
221 236 255
221 236 255
221 236 255
221 236 255
221 236 255
221 236 255
221 236 255
221 236 255
221 236 255
221 236 255
221 236 255
221 236 255
221 236 255
221 236 255
221 236 255
221 236 255
221 236 255
221 236 255
221 236 255
221 236 255
221 236 255
221 236 255
221 236 255
221 236 255
221 236 255
221 236 255
221 236 255
221 236 255
221 236 255
221 236 255
221 236 255
221 236 255
221 236 255
221 236 255
221 236 255
221 236 255
221 236 255
221 236 255
221 236 255
221 236 255
221 236 255
221 236 255
221 236 255
221 236 255
221 236 255
221 236 255
221 236 255
221 236 255
221 236 255
221 236 255
221 236 255
221 236 255
221 236 255
221 236 255
221 236 255
221 236 255
221 236 255
221 236 255
221 236 255
221 236 255
221 236 255
221 236 255
221 236 255
221 236 255
221 236 255
221 236 255
221 236 255
221 236 255
221 236 255
221 236 255
221 236 255
221 236 255
221 236 255
221 236 255
221 236 255
221 236 255
221 236 255
221 236 255
221 236 255
221 236 255
221 236 255
221 236 255
221 236 255
221 236 255
221 236 255
221 236 255
221 236 255
221 236 255
221 236 255
221 236 255
221 236 255
221 236 255
221 236 255
221 236 255
221 236 255
221 236 255
221 236 255
221 236 255
217 230 248
198 206 220
185 189 201
163 160 165
153 144 143
137 121 114
121 99 83
125 98 79
125 98 79
125 98 79
121 95 76
123 97 78
123 98 79
126 99 80
126 98 79
121 96 78
125 98 79
122 97 79
123 96 77
127 103 86
144 128 121
156 149 150
169 167 172
185 190 201
210 221 239
206 218 235
196 209 228
177 188 205
162 177 196
169 186 210
135 149 172
140 155 179
137 151 174
135 151 173
133 147 170
143 158 180
124 137 159
149 166 191
129 138 161
118 123 150
139 154 178
125 135 160
136 150 173
125 138 162
140 155 178
133 148 170
161 178 201
173 190 213
185 200 221
198 213 234
216 231 252
221 235 255
221 236 255
221 236 255
221 236 255
221 236 255
221 236 255
221 236 255
221 236 255
221 236 255
221 236 255
221 236 255
221 236 255
221 236 255
221 236 255
221 236 255
221 236 255
221 236 255
217 230 248
206 215 228
191 196 203
184 188 193
177 179 182
174 177 181
173 176 181
172 176 181
171 175 181
171 175 181
170 174 181
169 174 181
169 174 181
169 174 181
168 174 181
168 174 181
168 174 181
169 174 181
169 174 181
169 174 181
169 174 181
170 175 181
170 175 181
171 175 181
172 176 181
173 176 181
174 177 181
179 181 184
187 191 198
198 205 215
216 229 246
220 234 253
221 236 255
221 236 255
221 236 255
221 236 255
221 236 255
221 236 255
221 236 255
221 236 255
221 236 255
221 236 255
221 236 255
221 236 255
221 236 255
221 236 255
221 236 255
221 236 255
221 236 255
221 236 255
221 236 255
221 236 255
221 236 255
221 236 255
221 236 255
221 236 255
221 236 255
221 236 255
221 236 255
221 236 255
221 236 255
221 236 255
221 236 255
221 236 255
221 236 255
221 236 255
221 236 255
221 236 255
221 236 255
221 236 255
221 236 255
221 236 255
221 236 255
221 236 255
221 236 255
221 236 255
221 236 255
221 236 255
221 236 255
221 236 255
221 236 255
221 236 255
221 236 255
221 236 255
221 236 255
221 236 255
221 236 255
221 236 255
221 236 255
221 236 255
221 236 255
221 236 255
221 236 255
221 236 255
221 236 255
221 236 255
221 236 255
221 236 255
221 236 255
221 236 255
221 236 255
221 236 255
221 236 255
221 236 255
221 236 255
221 236 255
221 236 255
221 236 255
221 236 255
221 236 255
221 236 255
221 236 255
221 236 255
221 236 255
221 236 255
221 236 255
221 236 255
221 236 255
221 236 255
221 236 255
221 236 255
221 236 255
221 236 255
221 236 255
221 236 255
221 236 255
221 236 255
221 236 255
221 236 255
221 236 255
221 236 255
221 236 255
221 236 255
221 236 255
221 236 255
221 236 255
221 236 255
221 236 255
221 236 255
221 236 255
221 236 255
221 236 255
221 236 255
221 236 255
221 236 255
221 236 255
221 236 255
221 236 255
221 236 255
221 236 255
221 236 255
221 236 255
221 236 255
221 236 255
221 236 255
221 236 255
221 236 255
221 236 255
221 236 255
221 236 255
221 236 255
221 236 255
221 236 255
221 236 255
221 236 255
221 236 255
221 236 255
221 236 255
221 236 255
221 236 255
221 236 255
221 236 255
221 236 255
221 236 255
221 236 255
221 236 255
221 236 255
221 236 255
221 236 255
221 236 255
221 236 255
221 236 255
221 236 255
221 236 255
221 236 255
221 236 255
221 236 255
221 236 255
221 236 255
221 236 255
221 236 255
221 236 255
221 236 255
221 236 255
221 236 255
221 236 255
221 236 255
221 236 255
221 236 255
221 236 255
221 236 255
221 236 255
221 236 255
221 236 255
221 236 255
221 236 255
221 236 255
221 236 255
221 236 255
221 236 255
221 236 255
221 236 255
221 236 255
221 236 255
221 236 255
221 236 255
221 236 255
221 236 255
221 236 255
221 236 255
221 236 255
221 236 255
221 236 255
221 236 255
221 236 255
221 236 255
221 236 255
221 236 255
221 236 255
221 236 255
217 230 248
197 205 220
169 168 175
147 138 137
134 117 109
121 98 83
119 94 77
119 94 76
121 96 77
124 98 78
123 97 79
121 96 78
120 95 77
122 98 79
118 94 75
120 95 77
122 95 76
120 95 76
125 98 78
122 96 78
122 96 77
120 94 76
122 97 78
124 98 78
136 119 110
159 156 161
187 199 216
172 186 208
149 160 178
141 157 178
137 154 176
143 159 184
144 162 188
120 131 151
139 153 178
123 132 156
120 116 148
121 100 143
122 98 142
114 86 131
106 81 123
128 120 157
108 76 124
116 99 138
121 123 152
115 105 142
126 130 159
121 132 156
137 150 172
131 145 167
143 158 181
158 174 199
175 192 217
201 217 238
205 220 240
220 234 254
221 236 255
221 236 255
221 236 255
221 236 255
221 236 255
221 236 255
221 236 255
221 236 255
221 236 255
221 236 255
221 236 255
221 235 254
207 216 230
193 199 207
179 181 184
175 177 181
173 176 181
172 175 181
170 175 181
169 174 181
168 174 181
167 173 181
167 173 181
166 173 181
166 173 181
165 172 181
165 172 181
165 172 181
165 172 181
164 172 181
164 172 181
165 172 181
165 172 181
165 172 181
165 172 181
166 173 181
166 173 181
167 173 181
168 174 181
169 174 181
170 175 181
171 175 181
172 176 181
173 176 181
176 177 181
181 183 186
195 201 211
212 223 238
220 234 253
221 236 255
221 236 255
221 236 255
221 236 255
221 236 255
221 236 255
221 236 255
221 236 255
221 236 255
221 236 255
221 236 255
221 236 255
221 236 255
221 236 255
221 236 255
221 236 255
221 236 255
221 236 255
221 236 255
221 236 255
221 236 255
221 236 255
221 236 255
221 236 255
221 236 255
221 236 255
221 236 255
221 236 255
221 236 255
221 236 255
221 236 255
221 236 255
221 236 255
221 236 255
221 236 255
221 236 255
221 236 255
221 236 255
221 236 255
221 236 255
221 236 255
221 236 255
221 236 255
221 236 255
221 236 255
221 236 255
221 236 255
221 236 255
221 236 255
221 236 255
221 236 255
221 236 255
221 236 255
221 236 255
221 236 255
221 236 255
221 236 255
221 236 255
221 236 255
221 236 255
221 236 255
221 236 255
221 236 255
221 236 255
221 236 255
221 236 255
221 236 255
221 236 255
221 236 255
221 236 255
221 236 255
221 236 255
221 236 255
221 236 255
221 236 255
221 236 255
221 236 255
221 236 255
221 236 255
221 236 255
221 236 255
221 236 255
221 236 255
221 236 255
221 236 255
221 236 255
221 236 255
221 236 255
221 236 255
221 236 255
222 236 255
221 236 255
221 236 255
221 236 255
221 236 255
221 236 255
221 236 255
221 236 255
221 236 255
222 236 255
221 236 255
221 236 255
221 236 255
222 236 255
222 236 255
221 236 255
221 236 255
221 236 255
222 236 255
221 236 255
221 236 255
222 236 255
221 236 255
222 236 255
221 236 255
221 236 255
221 236 255
221 236 255
222 236 255
221 236 255
222 236 255
222 236 255
221 236 255
222 236 255
221 236 255
221 236 255
221 236 255
221 236 255
222 236 255
221 236 255
221 236 255
221 236 255
221 236 255
221 236 255
221 236 255
221 236 255
221 236 255
222 236 255
221 236 255
222 236 255
221 236 255
221 236 255
221 236 255
222 236 255
221 236 255
222 236 255
221 236 255
222 236 255
221 236 255
222 236 255
222 236 255
221 236 255
222 236 255
221 236 255
222 236 255
222 236 255
221 236 255
221 236 255
221 236 255
222 236 255
221 236 255
222 236 255
222 236 255
222 236 255
221 236 255
222 236 255
221 236 255
221 236 255
221 236 255
222 236 255
222 236 255
221 236 255
222 236 255
221 236 255
222 236 255
221 236 255
221 236 255
221 236 255
221 236 255
221 236 255
222 236 255
222 236 255
221 236 255
221 236 255
221 236 255
221 236 255
222 236 255
221 236 255
221 236 255
221 236 255
221 236 255
222 236 255
221 236 255
220 234 253
210 221 238
176 177 186
166 163 168
128 103 86
128 103 87
123 97 78
119 94 76
118 94 77
118 95 76
108 87 69
119 93 74
124 97 78
122 97 77
120 95 76
123 98 79
124 98 79
119 95 76
120 95 77
120 94 75
120 95 77
113 90 73
121 96 77
118 94 76
128 109 97
139 130 127
175 188 206
154 167 185
154 170 190
149 163 187
132 146 168
129 142 166
126 140 163
121 134 155
121 132 154
127 130 158
121 109 147
125 100 148
116 53 123
119 73 133
115 66 128
116 48 125
112 64 123
124 94 146
115 56 126
115 48 124
118 65 130
106 47 114
113 57 124
110 76 124
120 111 145
118 127 151
123 134 157
128 140 165
135 148 171
146 160 182
156 173 195
185 200 221
206 221 242
221 236 255
221 236 255
222 236 255
221 236 255
221 236 255
221 236 255
221 236 255
222 236 255
213 224 240
198 205 215
184 187 193
175 177 181
173 176 181
171 175 181
170 175 181
168 174 181
167 173 181
166 173 181
166 173 181
165 172 181
164 172 181
164 171 181
163 171 181
163 171 181
162 171 181
162 171 181
162 171 181
162 171 181
162 171 181
162 171 181
162 171 181
162 171 181
162 171 181
163 171 181
163 171 181
163 171 181
164 172 181
165 172 181
165 172 181
166 173 181
167 173 181
168 173 181
169 174 181
170 175 181
172 176 181
173 176 181
176 178 181
185 188 193
200 207 218
219 233 252
221 236 255
221 236 255
221 236 255
221 236 255
222 236 255
221 236 255
221 236 255
221 236 255
221 236 255
221 236 255
221 236 255
221 236 255
221 236 255
221 236 255
221 236 255
221 236 255
221 236 255
221 236 255
222 236 255
221 236 255
221 236 255
221 236 255
221 236 255
221 236 255
221 236 255
222 236 255
221 236 255
221 236 255
221 236 255
221 236 255
221 236 255
221 236 255
222 236 255
221 236 255
221 236 255
221 236 255
221 236 255
222 236 255
221 236 255
221 236 255
222 236 255
221 236 255
221 236 255
221 236 255
221 236 255
222 236 255
221 236 255
221 236 255
222 236 255
221 236 255
222 236 255
221 236 255
221 236 255
221 236 255
221 236 255
221 236 255
221 236 255
221 236 255
221 236 255
221 236 255
221 236 255
221 236 255
221 236 255
221 236 255
221 236 255
221 236 255
222 236 255
221 236 255
222 236 255
222 236 255
222 236 255
221 236 255
221 236 255
221 236 255
222 236 255
222 236 255
222 236 255
221 236 255
221 236 255
221 236 255
221 236 255
221 236 255
222 236 255
222 236 255
222 236 255
222 236 255
222 236 255
222 236 255
222 236 255
222 236 255
222 236 255
222 236 255
222 236 255
222 236 255
222 236 255
222 236 255
222 236 255
222 236 255
222 236 255
222 236 255
222 236 255
222 236 255
222 236 255
222 236 255
222 236 255
222 236 255
222 236 255
222 236 255
222 236 255
222 236 255
222 236 255
222 236 255
222 236 255
222 236 255
222 236 255
222 236 255
222 236 255
222 236 255
222 236 255
222 236 255
222 236 255
222 236 255
222 236 255
222 236 255
222 236 255
222 236 255
222 236 255
222 236 255
222 236 255
222 236 255
222 236 255
222 236 255
222 236 255
222 236 255
222 236 255
222 236 255
222 236 255
222 236 255
222 236 255
222 236 255
222 236 255
222 236 255
222 236 255
222 236 255
222 236 255
222 236 255
222 236 255
222 236 255
222 236 255
222 236 255
222 236 255
222 236 255
222 236 255
222 236 255
222 236 255
222 236 255
222 236 255
222 236 255
222 236 255
222 236 255
222 236 255
222 236 255
222 236 255
222 236 255
222 236 255
222 236 255
222 236 255
222 236 255
222 236 255
222 236 255
222 236 255
222 236 255
222 236 255
222 236 255
222 236 255
222 236 255
222 236 255
222 236 255
222 236 255
222 236 255
222 236 255
222 236 255
222 236 255
222 236 255
222 236 255
222 236 255
222 236 255
222 236 255
222 236 255
222 236 255
216 229 248
197 206 220
163 156 158
136 123 118
118 93 74
121 95 76
115 92 74
117 94 75
122 97 78
112 89 72
121 96 77
122 97 78
118 94 75
116 92 75
117 92 74
118 93 75
119 92 74
125 97 78
118 95 77
122 96 77
118 93 76
123 97 78
119 94 76
120 100 88
133 121 116
151 154 163
143 154 171
140 153 175
150 165 189
138 154 178
129 138 161
134 148 171
124 137 157
126 138 161
125 139 160
130 142 166
121 118 151
118 68 130
116 57 126
116 67 130
116 57 128
118 66 130
124 71 137
116 60 127
117 77 135
121 71 138
123 65 137
119 48 129
120 57 133
117 48 124
120 57 132
111 48 120
110 88 133
99 88 121
115 124 148
138 153 176
129 145 166
127 141 163
145 160 184
161 178 200
186 201 224
210 225 245
220 234 254
222 236 255
222 236 255
222 236 255
213 224 240
189 193 199
178 179 182
174 177 181
172 176 181
170 175 181
169 174 181
167 173 181
166 173 181
165 172 181
164 172 181
163 171 181
163 171 181
162 171 181
162 171 181
161 170 181
161 170 181
161 170 181
160 170 181
160 170 181
160 170 181
160 170 181
160 170 181
160 170 181
160 170 181
160 170 181
160 170 181
160 170 181
161 170 181
161 170 181
161 170 181
162 171 181
162 171 181
163 171 181
164 172 181
165 172 181
166 173 181
167 173 181
168 174 181
169 174 181
171 175 181
172 176 181
175 177 181
178 180 182
200 207 218
219 232 250
222 236 255
222 236 255
222 236 255
222 236 255
222 236 255
222 236 255
222 236 255
222 236 255
222 236 255
222 236 255
222 236 255
222 236 255
222 236 255
222 236 255
222 236 255
222 236 255
222 236 255
222 236 255
222 236 255
222 236 255
222 236 255
222 236 255
222 236 255
222 236 255
222 236 255
222 236 255
222 236 255
222 236 255
222 236 255
222 236 255
222 236 255
222 236 255
222 236 255
222 236 255
222 236 255
222 236 255
222 236 255
222 236 255
222 236 255
222 236 255
222 236 255
222 236 255
222 236 255
222 236 255
222 236 255
222 236 255
222 236 255
222 236 255
222 236 255
222 236 255
222 236 255
222 236 255
222 236 255
222 236 255
222 236 255
222 236 255
222 236 255
222 236 255
222 236 255
222 236 255
222 236 255
222 236 255
222 236 255
222 236 255
222 236 255
222 236 255
222 236 255
222 236 255
222 236 255
222 236 255
222 236 255
222 236 255
222 236 255
222 236 255
222 236 255
222 236 255
222 236 255
222 236 255
222 236 255
222 236 255
222 236 255
222 236 255
222 236 255
222 236 255
222 236 255
222 236 255
222 236 255
222 236 255
222 236 255
222 236 255
222 236 255
222 236 255
222 236 255
222 236 255
222 236 255
222 236 255
222 236 255
222 236 255
222 236 255
222 236 255
222 236 255
222 236 255
222 236 255
222 236 255
222 236 255
222 236 255
222 236 255
222 236 255
222 236 255
222 236 255
222 236 255
222 236 255
222 236 255
222 236 255
222 236 255
222 236 255
222 236 255
222 236 255
222 236 255
222 236 255
222 236 255
222 236 255
222 236 255
222 236 255
222 236 255
222 236 255
222 236 255
222 236 255
222 236 255
222 236 255
222 236 255
222 236 255
222 236 255
222 236 255
222 236 255
222 236 255
222 236 255
222 236 255
222 236 255
222 236 255
222 236 255
222 236 255
222 236 255
222 236 255
222 236 255
222 236 255
222 236 255
222 236 255
222 236 255
222 236 255
222 236 255
222 236 255
222 236 255
222 236 255
222 236 255
222 236 255
222 236 255
222 236 255
222 236 255
222 236 255
222 236 255
222 236 255
222 236 255
222 236 255
222 236 255
222 236 255
222 236 255
222 236 255
222 236 255
222 236 255
222 236 255
222 236 255
222 236 255
222 236 255
222 236 255
222 236 255
222 236 255
222 236 255
222 236 255
222 236 255
222 236 255
222 236 255
222 236 255
222 236 255
222 236 255
222 236 255
222 236 255
210 221 239
184 190 202
151 146 148
124 103 89
121 96 77
121 95 76
115 91 74
120 95 77
114 90 73
116 92 75
117 92 75
118 94 75
121 96 77
121 95 76
119 94 76
116 92 74
117 92 74
118 93 75
121 95 76
120 95 77
117 93 74
120 94 75
120 94 76
125 106 95
170 175 187
151 157 170
153 166 188
153 168 191
131 146 167
139 153 178
134 148 169
115 125 146
113 126 147
132 146 168
118 130 150
126 138 161
123 137 158
124 129 157
121 96 140
108 56 119
115 56 124
125 84 143
119 48 124
122 62 133
120 56 128
115 37 120
119 37 126
120 64 133
122 57 131
124 71 137
117 22 119
122 65 135
125 71 139
112 57 124
109 56 120
109 97 134
124 138 161
118 131 152
120 134 155
125 137 159
146 165 190
153 171 195
160 174 196
196 210 230
219 233 253
213 224 240
191 195 201
178 179 182
174 177 181
172 176 181
170 175 181
168 174 181
167 173 181
166 172 181
165 172 181
164 172 181
163 171 181
162 171 181
161 170 181
161 170 181
160 170 181
160 170 181
159 169 181
159 169 181
159 169 181
158 169 181
158 169 181
158 169 181
158 169 181
158 169 181
158 169 181
158 169 181
158 169 181
158 169 181
158 169 181
159 169 181
159 169 181
159 169 181
160 170 181
160 170 181
161 170 181
162 170 181
162 171 181
163 171 181
164 172 181
165 172 181
166 173 181
168 173 181
169 174 181
170 175 181
172 176 181
174 177 181
181 183 186
197 204 214
220 234 253
222 236 255
222 236 255
222 236 255
222 236 255
222 236 255
222 236 255
222 236 255
222 236 255
222 236 255
222 236 255
222 236 255
222 236 255
222 236 255
222 236 255
222 236 255
222 236 255
222 236 255
222 236 255
222 236 255
222 236 255
222 236 255
222 236 255
222 236 255
222 236 255
222 236 255
222 236 255
222 236 255
222 236 255
222 236 255
222 236 255
222 236 255
222 236 255
222 236 255
222 236 255
222 236 255
222 236 255
222 236 255
222 236 255
222 236 255
222 236 255
222 236 255
222 236 255
222 236 255
222 236 255
222 236 255
222 236 255
222 236 255
222 236 255
222 236 255
222 236 255
222 236 255
222 236 255
222 236 255
222 236 255
222 236 255
222 236 255
222 236 255
222 236 255
222 236 255
222 236 255
222 236 255
222 236 255
222 236 255
222 236 255
222 236 255
222 236 255
222 236 255
222 236 255
222 236 255
222 236 255
222 236 255
222 236 255
222 236 255
222 236 255
222 236 255
222 236 255
222 236 255
222 236 255
222 236 255
222 236 255
222 236 255
222 236 255
222 236 255
222 236 255
222 236 255
222 236 255
222 236 255
222 236 255
222 236 255
222 236 255
222 236 255
222 236 255
222 236 255
222 236 255
222 236 255
222 236 255
222 236 255
222 236 255
222 236 255
222 236 255
222 236 255
222 236 255
222 236 255
222 236 255
222 236 255
222 236 255
222 236 255
222 236 255
222 236 255
222 236 255
222 236 255
222 236 255
222 236 255
222 236 255
222 236 255
222 236 255
222 236 255
222 236 255
222 236 255
222 236 255
222 236 255
222 236 255
222 236 255
222 236 255
222 236 255
222 236 255
222 236 255
222 236 255
222 236 255
222 236 255
222 236 255
222 236 255
222 236 255
222 236 255
222 236 255
222 236 255
222 236 255
222 236 255
222 236 255
222 236 255
222 236 255
222 236 255
222 236 255
222 236 255
222 236 255
222 236 255
222 236 255
222 236 255
222 236 255
222 236 255
222 236 255
222 236 255
222 236 255
222 236 255
222 236 255
222 236 255
222 236 255
222 236 255
222 236 255
222 236 255
222 236 255
222 236 255
222 236 255
222 236 255
222 236 255
222 236 255
222 236 255
222 236 255
222 236 255
222 236 255
222 236 255
222 236 255
222 236 255
222 236 255
222 236 255
222 236 255
222 236 255
222 236 255
222 236 255
222 236 255
222 236 255
222 236 255
222 236 255
222 236 255
210 221 239
188 192 204
136 125 122
119 94 76
120 94 76
117 93 75
122 96 78
115 91 73
119 93 75
117 92 74
119 94 75
115 91 73
116 91 73
119 95 76
117 91 73
119 94 76
111 87 71
118 92 74
110 88 71
111 88 71
120 95 77
120 95 77
110 88 71
128 112 105
149 155 169
155 168 188
156 171 195
117 125 146
132 147 170
126 141 162
121 133 156
128 142 163
122 133 156
134 151 176
122 135 155
122 137 160
129 144 167
130 144 168
130 145 167
129 144 168
122 131 160
117 121 150
112 111 139
126 124 158
119 101 141
117 93 140
115 89 132
118 67 130
122 84 137
123 81 145
120 62 134
113 56 127
118 76 134
121 57 131
108 60 120
113 68 127
118 82 135
118 127 151
117 131 152
120 134 157
125 139 161
130 148 172
131 147 169
147 165 190
151 163 183
184 191 201
177 178 181
174 177 181
172 176 181
170 175 181
168 174 181
167 173 181
165 172 181
164 172 181
163 171 181
162 171 181
161 170 181
161 170 181
160 170 181
159 169 181
159 169 181
158 169 181
158 169 181
158 169 181
157 168 181
157 168 181
157 168 181
157 168 181
156 168 181
156 168 181
156 168 181
156 168 181
156 168 181
156 168 181
156 168 181
157 168 181
157 168 181
157 168 181
158 169 181
158 169 181
159 169 181
159 169 181
160 170 181
161 170 181
161 170 181
162 171 181
163 171 181
164 172 181
165 172 181
166 173 181
167 173 181
169 174 181
171 175 181
173 176 181
175 177 181
180 182 184
205 213 226
220 234 253
222 236 255
222 236 255
222 236 255
222 236 255
222 236 255
222 236 255
222 236 255
222 236 255
222 236 255
222 236 255
222 236 255
222 236 255
222 236 255
222 236 255
222 236 255
222 236 255
222 236 255
222 236 255
222 236 255
222 236 255
222 236 255
222 236 255
222 236 255
222 236 255
222 236 255
222 236 255
222 236 255
222 236 255
222 236 255
222 236 255
222 236 255
222 236 255
222 236 255
222 236 255
222 236 255
222 236 255
222 236 255
222 236 255
222 236 255
222 236 255
222 236 255
222 236 255
222 236 255
222 236 255
222 236 255
222 236 255
222 236 255
222 236 255
222 236 255
222 236 255
222 236 255
222 236 255
222 236 255
222 236 255
222 236 255
222 236 255
222 236 255
222 236 255
222 236 255
222 236 255
222 236 255
222 236 255
222 236 255
222 236 255
222 236 255
222 236 255
222 236 255
222 236 255
222 236 255
222 236 255
222 236 255
222 236 255
222 236 255
222 236 255
222 236 255
222 236 255
222 236 255
222 236 255
222 236 255
222 236 255
222 236 255
222 236 255
222 236 255
222 236 255
222 236 255
222 236 255
222 236 255
222 236 255
222 236 255
222 236 255
222 236 255
222 236 255
222 236 255
222 236 255
222 236 255
222 236 255
222 236 255
222 236 255
222 236 255
222 236 255
222 236 255
222 236 255
222 236 255
222 236 255
222 236 255
222 236 255
222 236 255
222 236 255
222 236 255
222 236 255
222 236 255
222 236 255
222 236 255
222 236 255
222 236 255
222 236 255
222 236 255
222 236 255
222 236 255
222 236 255
222 236 255
222 236 255
222 236 255
222 236 255
222 236 255
222 236 255
222 236 255
222 236 255
222 236 255
222 236 255
222 236 255
222 236 255
222 236 255
222 236 255
222 236 255
222 236 255
222 236 255
222 236 255
222 236 255
222 236 255
222 236 255
222 236 255
222 236 255
222 236 255
222 236 255
222 236 255
222 236 255
222 236 255
222 236 255
222 236 255
222 236 255
222 236 255
222 236 255
222 236 255
222 236 255
222 236 255
222 236 255
222 236 255
222 236 255
222 236 255
222 236 255
222 236 255
222 236 255
222 236 255
222 236 255
222 236 255
222 236 255
222 236 255
222 236 255
222 236 255
222 236 255
222 236 255
222 236 255
222 236 255
222 236 255
222 236 255
222 236 255
222 236 255
222 236 255
222 236 255
222 236 255
209 220 236
186 190 201
139 123 115
119 95 76
115 91 73
118 93 75
114 89 72
112 89 71
117 92 75
114 91 74
114 89 72
112 89 72
118 94 76
117 94 76
118 94 76
120 95 76
111 88 71
115 90 74
112 89 72
116 92 74
116 93 76
116 92 74
125 101 85
152 153 161
156 167 185
158 172 192
136 150 172
127 140 161
136 150 172
132 145 166
116 127 150
136 150 173
134 147 169
133 146 170
112 124 146
120 132 151
123 135 157
129 143 165
123 135 157
127 142 166
123 138 163
121 134 155
132 147 171
125 139 164
115 125 149
108 117 138
116 128 150
113 123 147
111 121 145
111 119 145
117 123 148
119 127 152
118 121 148
120 131 155
121 117 148
114 101 140
120 123 152
127 140 166
121 134 154
122 135 156
130 146 170
121 138 160
128 143 166
127 145 166
155 163 177
176 178 181
175 177 181
173 176 181
171 175 181
169 174 181
167 173 181
166 173 181
165 172 181
163 171 181
163 171 181
161 170 181
161 170 181
160 170 181
159 169 181
158 169 181
158 169 181
157 168 181
157 168 181
156 168 181
156 168 181
156 168 181
156 168 181
155 167 181
155 167 181
155 167 181
155 167 181
155 167 181
155 167 181
155 167 181
155 167 181
155 167 181
155 168 181
156 168 181
156 168 181
156 168 181
157 168 181
157 168 181
158 169 181
158 169 181
159 169 181
160 170 181
160 170 181
161 170 181
162 171 181
163 171 181
164 172 181
165 172 181
166 173 181
168 174 181
169 174 181
171 175 181
174 176 181
176 178 181
184 186 189
213 224 240
222 236 255
222 236 255
222 236 255
222 236 255
222 236 255
222 236 255
222 236 255
222 236 255
222 236 255
222 236 255
222 236 255
222 236 255
222 236 255
222 236 255
222 236 255
222 236 255
222 236 255
222 236 255
222 236 255
222 236 255
222 236 255
222 236 255
222 236 255
222 236 255
222 236 255
222 236 255
222 236 255
222 236 255
222 236 255
222 236 255
222 236 255
222 236 255
222 236 255
222 236 255
222 236 255
222 236 255
222 236 255
222 236 255
222 236 255
222 236 255
222 236 255
222 236 255
222 236 255
222 236 255
222 236 255
222 236 255
222 236 255
222 236 255
222 236 255
222 236 255
222 236 255
222 236 255
222 236 255
222 236 255
222 236 255
222 236 255
222 236 255
222 236 255
222 236 255
222 236 255
222 236 255
222 236 255
222 236 255
222 236 255
222 236 255
222 236 255
222 236 255
222 236 255
222 236 255
222 236 255
222 236 255
222 236 255
222 236 255
222 236 255
222 236 255
222 236 255
222 236 255
222 236 255
222 236 255
222 236 255
222 236 255
222 236 255
222 236 255
222 236 255
222 236 255
222 236 255
222 236 255
222 236 255
222 236 255
222 236 255
222 236 255
222 236 255
222 236 255
222 236 255
222 236 255
222 236 255
222 236 255
222 236 255
222 236 255
222 236 255
222 236 255
222 236 255
222 236 255
222 236 255
222 236 255
222 236 255
222 236 255
222 236 255
222 236 255
222 236 255
222 236 255
222 236 255
222 236 255
222 236 255
222 236 255
222 236 255
222 236 255
222 236 255
222 236 255
222 236 255
222 236 255
222 236 255
222 236 255
222 236 255
222 236 255
222 236 255
222 236 255
222 236 255
222 236 255
222 236 255
222 236 255
222 236 255
222 236 255
222 236 255
222 236 255
222 236 255
222 236 255
222 236 255
222 236 255
222 236 255
222 236 255
222 236 255
222 236 255
222 236 255
222 236 255
222 236 255
222 236 255
222 236 255
222 236 255
222 236 255
222 236 255
222 236 255
222 236 255
222 236 255
222 236 255
222 236 255
222 236 255
222 236 255
222 236 255
222 236 255
222 236 255
222 236 255
222 236 255
222 236 255
222 236 255
222 236 255
222 236 255
222 236 255
222 236 255
222 236 255
222 236 255
222 236 255
222 236 255
222 236 255
222 236 255
222 236 255
222 236 255
222 236 255
222 236 255
211 223 241
189 194 206
136 122 117
122 96 78
115 92 74
121 95 77
114 91 74
115 91 73
118 92 74
118 94 75
112 88 71
116 92 74
117 92 74
114 90 72
120 94 76
117 92 75
113 90 72
118 94 76
114 91 74
115 91 72
113 88 72
119 93 75
126 109 100
148 154 166
143 151 170
144 158 181
130 142 163
138 152 174
126 138 161
121 134 156
125 139 161
126 139 161
128 140 161
120 133 154
123 137 160
125 140 161
126 142 165
135 152 176
125 139 159
116 131 152
122 135 154
114 125 145
114 124 142
109 119 140
114 124 146
120 135 158
114 120 145
113 121 146
119 123 156
125 128 161
117 121 150
118 121 150
107 108 134
107 115 138
106 118 138
110 121 141
108 122 145
121 136 158
117 129 150
126 140 164
126 139 158
116 129 151
126 143 164
134 142 155
167 168 171
177 178 181
174 176 181
171 175 181
170 174 181
168 174 181
166 173 181
165 172 181
164 172 181
163 171 181
162 171 181
161 170 181
160 170 181
159 169 181
158 169 181
158 169 181
157 168 181
157 168 181
156 168 181
156 168 181
155 167 181
155 167 181
155 167 181
154 167 181
154 167 181
154 167 181
154 167 181
154 167 181
154 167 181
154 167 181
154 167 181
154 167 181
154 167 181
154 167 181
155 167 181
155 167 181
155 167 181
155 168 181
156 168 181
156 168 181
157 168 181
157 169 181
158 169 181
159 169 181
160 170 181
160 170 181
161 170 181
162 171 181
163 171 181
164 172 181
165 172 181
167 173 181
168 174 181
170 175 181
172 176 181
174 177 181
178 179 181
201 209 220
220 233 252
222 236 255
222 236 255
222 236 255
222 236 255
222 236 255
222 236 255
222 236 255
222 236 255
222 236 255
222 236 255
222 236 255
222 236 255
222 236 255
222 236 255
222 236 255
222 236 255
222 236 255
222 236 255
222 236 255
222 236 255
222 236 255
222 236 255
222 236 255
222 236 255
222 236 255
222 236 255
222 236 255
222 236 255
222 236 255
222 236 255
222 236 255
222 236 255
222 236 255
222 236 255
222 236 255
222 236 255
222 236 255
222 236 255
222 236 255
222 236 255
222 236 255
222 236 255
222 236 255
222 236 255
222 236 255
222 236 255
222 236 255
222 236 255
222 236 255
222 236 255
222 236 255
222 236 255
222 236 255
222 236 255
222 236 255
222 236 255
222 236 255
222 236 255
222 236 255
222 236 255
222 236 255
222 236 255
222 236 255
222 236 255
222 236 255
222 236 255
222 236 255
222 236 255
222 236 255
222 236 255
222 236 255
222 236 255
222 236 255
222 236 255
222 236 255
222 236 255
222 236 255
222 236 255
222 236 255
222 236 255
222 236 255
222 236 255
222 236 255
222 236 255
222 236 255
222 236 255
222 236 255
222 236 255
222 236 255
222 236 255
222 236 255
222 236 255
222 236 255
222 236 255
222 236 255
222 236 255
222 236 255
222 236 255
222 236 255
222 236 255
222 236 255
222 236 255
222 236 255
222 236 255
222 236 255
222 236 255
222 236 255
222 236 255
222 236 255
222 236 255
222 236 255
222 236 255
222 236 255
222 236 255
222 236 255
222 236 255
222 236 255
222 236 255
222 236 255
222 236 255
222 236 255
222 236 255
222 236 255
222 236 255
222 236 255
222 236 255
222 236 255
222 236 255
222 236 255
222 236 255
222 236 255
222 236 255
222 236 255
222 236 255
222 236 255
222 236 255
222 236 255
222 236 255
222 236 255
222 236 255
222 236 255
222 236 255
222 236 255
222 236 255
222 236 255
222 236 255
222 236 255
222 236 255
222 236 255
222 236 255
222 236 255
222 236 255
222 236 255
222 236 255
222 236 255
222 236 255
222 236 255
222 236 255
222 236 255
222 236 255
222 236 255
222 236 255
222 236 255
222 236 255
222 236 255
222 236 255
222 236 255
222 236 255
222 236 255
222 236 255
222 236 255
222 236 255
222 236 255
222 236 255
222 236 255
222 236 255
213 226 243
194 201 215
141 130 127
114 91 74
117 93 76
120 95 76
114 90 72
117 92 74
112 89 72
120 95 77
113 90 73
117 94 76
114 91 72
116 91 72
113 90 72
112 88 71
106 84 69
118 94 75
114 91 73
115 91 73
110 88 72
119 94 75
114 90 73
154 161 175
157 170 191
149 164 188
144 160 182
135 149 172
129 143 163
129 143 164
123 135 159
129 144 166
127 141 165
126 138 161
122 135 154
115 127 145
126 141 160
114 127 147
122 135 157
121 134 155
115 127 146
119 130 150
117 129 149
120 133 153
120 133 152
112 119 142
133 138 170
139 144 180
145 147 184
139 141 176
141 141 182
137 144 182
136 140 176
132 135 172
129 132 168
138 141 176
105 113 135
104 113 130
106 118 139
114 126 146
115 125 145
111 122 141
116 127 148
142 150 163
174 174 177
175 177 181
173 176 181
170 175 181
168 174 181
167 173 181
166 173 181
164 172 181
163 171 181
162 171 181
161 170 181
160 170 181
159 169 181
159 169 181
158 169 181
157 168 181
157 168 181
156 168 181
155 168 181
155 167 181
155 167 181
154 167 181
154 167 181
154 167 181
154 167 181
153 167 181
153 166 181
153 166 181
153 166 181
153 166 181
153 166 181
153 166 181
153 166 181
153 166 181
153 167 181
154 167 181
154 167 181
154 167 181
155 167 181
155 167 181
155 167 181
156 168 181
156 168 181
157 168 181
158 169 181
158 169 181
159 169 181
160 170 181
161 170 181
162 171 181
163 171 181
164 172 181
165 172 181
166 173 181
168 174 181
169 174 181
172 175 181
173 176 181
176 178 181
185 186 189
218 230 248
222 236 255
222 236 255
222 236 255
222 236 255
222 236 255
222 236 255
222 236 255
222 236 255
222 236 255
222 236 255
222 236 255
222 236 255
222 236 255
222 236 255
222 236 255
222 236 255
222 236 255
222 236 255
222 236 255
222 236 255
222 236 255
222 236 255
222 236 255
222 236 255
222 236 255
222 236 255
222 236 255
222 236 255
222 236 255
222 236 255
222 236 255
222 236 255
222 236 255
222 236 255
222 236 255
222 236 255
222 236 255
222 236 255
222 236 255
222 236 255
222 236 255
222 236 255
222 236 255
222 236 255
222 236 255
222 236 255
222 236 255
222 236 255
222 236 255
222 236 255
222 236 255
222 236 255
222 236 255
222 236 255
222 236 255
222 236 255
222 236 255
222 236 255
222 236 255
222 236 255
222 236 255
222 236 255
222 236 255
222 236 255
222 236 255
222 236 255
222 236 255
222 236 255
222 236 255
222 236 255
222 236 255
222 236 255
222 236 255
222 236 255
222 236 255
222 236 255
222 236 255
222 236 255
222 236 255
222 236 255
222 236 255
222 236 255
222 236 255
222 236 255
222 236 255
222 236 255
222 236 255
222 236 255
222 236 255
222 236 255
222 236 255
222 236 255
222 236 255
222 236 255
222 236 255
222 236 255
222 236 255
222 236 255
222 236 255
222 236 255
222 236 255
222 236 255
222 236 255
222 236 255
222 236 255
222 236 255
222 236 255
222 236 255
222 236 255
222 236 255
222 236 255
222 236 255
222 236 255
222 236 255
222 236 255
222 236 255
222 236 255
222 236 255
222 236 255
222 236 255
222 236 255
222 236 255
222 236 255
222 236 255
222 236 255
222 236 255
222 236 255
222 236 255
222 236 255
222 236 255
222 236 255
222 236 255
222 236 255
222 236 255
222 236 255
222 236 255
222 236 255
222 236 255
222 236 255
222 236 255
222 236 255
222 236 255
222 236 255
222 236 255
222 236 255
222 236 255
222 236 255
222 236 255
222 236 255
222 236 255
222 236 255
222 236 255
222 236 255
222 236 255
222 236 255
222 236 255
222 236 255
222 236 255
222 236 255
222 236 255
222 236 255
222 236 255
222 236 255
222 236 255
222 236 255
222 236 255
222 236 255
222 236 255
222 236 255
222 236 255
222 236 255
222 236 255
222 236 255
222 236 255
217 230 248
201 209 223
147 140 140
117 92 73
122 96 77
111 88 71
115 93 75
111 88 71
117 93 74
113 90 73
117 93 75
115 91 73
112 88 70
109 85 68
116 92 74
108 86 69
116 92 73
114 91 74
116 91 73
118 93 74
110 88 71
116 92 74
113 91 76
152 154 165
160 174 194
138 151 173
133 148 167
145 162 186
129 144 165
122 134 154
125 140 162
123 136 157
122 136 158
129 143 164
126 140 160
128 139 161
127 141 163
120 134 158
103 110 127
122 137 158
125 140 161
120 132 153
126 138 160
124 136 160
115 128 148
126 140 165
130 132 163
143 147 183
145 148 187
144 146 184
152 158 199
147 149 191
155 158 198
145 145 185
148 153 191
147 149 192
142 143 181
125 127 160
116 117 145
119 128 151
117 129 152
115 127 146
127 141 162
154 160 169
178 179 181
174 177 181
172 176 181
170 175 181
168 174 181
167 173 181
165 172 181
164 172 181
163 171 181
162 171 181
161 170 181
160 170 181
159 169 181
158 169 181
158 169 181
157 168 181
156 168 181
156 168 181
155 167 181
155 167 181
154 167 181
154 167 181
153 167 181
153 167 181
153 166 181
153 166 181
153 166 181
152 166 181
152 166 181
152 166 181
152 166 181
152 166 181
152 166 181
152 166 181
153 166 181
153 166 181
153 166 181
153 166 181
153 167 181
154 167 181
154 167 181
155 167 181
155 167 181
156 168 181
156 168 181
157 168 181
157 168 181
158 169 181
159 169 181
160 170 181
160 170 181
161 170 181
162 171 181
163 171 181
165 172 181
166 173 181
167 173 181
169 174 181
171 175 181
173 176 181
176 177 181
181 182 184
212 222 237
222 236 255
222 236 255
222 236 255
222 236 255
222 236 255
222 236 255
222 236 255
222 236 255
222 236 255
222 236 255
222 236 255
222 236 255
222 236 255
222 236 255
222 236 255
222 236 255
222 236 255
222 236 255
222 236 255
222 236 255
222 236 255
222 236 255
222 236 255
222 236 255
222 236 255
222 236 255
222 236 255
222 236 255
222 236 255
222 236 255
222 236 255
222 236 255
222 236 255
222 236 255
222 236 255
222 236 255
222 236 255
222 236 255
222 236 255
222 236 255
222 236 255
222 236 255
222 236 255
222 236 255
222 236 255
222 236 255
222 236 255
222 236 255
222 236 255
222 236 255
222 236 255
222 236 255
222 236 255
222 236 255
222 236 255
222 236 255
222 236 255
222 236 255
222 236 255
222 236 255
222 236 255
222 236 255
222 236 255
222 236 255
222 236 255
222 236 255
222 236 255
222 236 255
222 236 255
222 236 255
222 236 255
222 236 255
222 236 255
222 236 255
222 236 255
222 236 255
222 236 255
222 236 255
222 236 255
222 236 255
222 236 255
222 236 255
222 236 255
222 236 255
222 236 255
222 236 255
222 236 255
222 236 255
222 236 255
222 236 255
222 236 255
222 236 255
222 236 255
222 236 255
222 236 255
222 236 255
222 236 255
222 236 255
222 236 255
222 236 255
222 236 255
222 236 255
222 236 255
222 236 255
222 236 255
222 236 255
222 236 255
222 236 255
222 236 255
222 236 255
222 236 255
222 236 255
222 236 255
222 236 255
222 236 255
222 236 255
222 236 255
222 236 255
222 236 255
222 236 255
222 236 255
222 236 255
222 236 255
222 236 255
222 236 255
222 236 255
222 236 255
222 236 255
222 236 255
222 236 255
222 236 255
222 236 255
222 236 255
222 236 255
222 236 255
222 236 255
222 236 255
222 236 255
222 236 255
222 236 255
222 236 255
222 236 255
222 236 255
222 236 255
222 236 255
222 236 255
222 236 255
222 236 255
222 236 255
222 236 255
222 236 255
222 236 255
222 236 255
222 236 255
222 236 255
222 236 255
222 236 255
222 236 255
222 236 255
222 236 255
222 236 255
222 236 255
222 236 255
222 236 255
222 236 255
222 236 255
222 236 255
222 236 255
222 236 255
222 236 255
222 236 255
222 236 255
222 236 255
202 211 226
153 148 151
116 91 74
115 90 73
113 90 73
112 88 72
112 89 71
114 91 73
118 94 76
114 91 74
112 90 72
109 86 70
118 93 75
113 89 73
115 91 73
115 90 73
115 92 74
115 91 74
110 88 71
117 91 73
116 91 74
117 97 84
148 151 162
159 170 192
134 147 167
143 155 178
131 146 167
130 145 167
137 154 179
130 146 166
127 141 162
126 139 161
116 125 145
128 145 166
121 132 153
123 135 155
126 141 162
127 141 163
119 130 150
114 126 145
124 136 156
118 132 157
116 130 149
123 136 156
129 145 168
130 136 161
149 153 194
151 151 190
153 152 192
162 168 207
154 156 196
139 142 179
151 154 197
140 140 179
148 146 189
143 145 185
148 148 187
139 139 178
132 132 167
127 133 165
118 130 149
122 132 145
161 164 170
177 178 181
174 177 181
172 175 181
170 175 181
168 174 181
166 173 181
165 172 181
164 172 181
163 171 181
162 171 181
161 170 181
160 170 181
159 169 181
158 169 181
157 168 181
157 168 181
156 168 181
156 168 181
155 167 181
155 167 181
154 167 181
154 167 181
153 167 181
153 166 181
153 166 181
152 166 181
152 166 181
152 166 181
152 166 181
152 166 181
152 166 181
152 166 181
152 166 181
152 166 181
152 166 181
152 166 181
152 166 181
152 166 181
153 166 181
153 166 181
153 166 181
154 167 181
154 167 181
154 167 181
155 167 181
155 167 181
156 168 181
156 168 181
157 168 181
158 169 181
159 169 181
159 169 181
160 170 181
161 170 181
162 171 181
163 171 181
164 172 181
166 172 181
167 173 181
169 174 181
170 175 181
173 176 181
175 177 181
179 180 182
195 200 207
222 236 255
222 236 255
222 236 255
222 236 255
222 236 255
222 236 255
222 236 255
222 236 255
222 236 255
222 236 255
222 236 255
222 236 255
222 236 255
222 236 255
222 236 255
222 236 255
222 236 255
222 236 255
222 236 255
222 236 255
222 236 255
222 236 255
222 236 255
222 236 255
222 236 255
222 236 255
222 236 255
222 236 255
222 236 255
222 236 255
222 236 255
222 236 255
222 236 255
222 236 255
222 236 255
222 236 255
222 236 255
222 236 255
222 236 255
222 236 255
222 236 255
222 236 255
222 236 255
222 236 255
222 236 255
222 236 255
222 236 255
222 236 255
222 236 255
222 236 255
222 236 255
222 236 255
222 236 255
222 236 255
222 236 255
222 236 255
222 236 255
222 236 255
222 236 255
222 236 255
222 236 255
222 236 255
222 236 255
222 236 255
222 236 255
222 236 255
222 236 255
222 236 255
222 236 255
222 236 255
222 236 255
222 236 255
222 236 255
222 236 255
222 236 255
222 236 255
222 236 255
222 236 255
222 236 255
222 236 255
222 236 255
222 236 255
222 236 255
222 236 255
222 236 255
222 236 255
222 236 255
222 236 255
222 236 255
222 236 255
222 236 255
222 236 255
222 236 255
222 236 255
222 236 255
222 236 255
222 236 255
222 236 255
222 236 255
222 236 255
222 236 255
222 236 255
222 236 255
222 236 255
222 236 255
222 236 255
222 236 255
222 236 255
222 236 255
222 236 255
222 236 255
222 236 255
222 236 255
222 236 255
222 236 255
222 236 255
222 236 255
222 236 255
222 236 255
222 236 255
222 236 255
222 236 255
222 236 255
222 236 255
222 236 255
222 236 255
222 236 255
222 236 255
222 236 255
222 236 255
222 236 255
222 236 255
222 236 255
222 236 255
222 236 255
222 236 255
222 236 255
222 236 255
222 236 255
222 236 255
222 236 255
222 236 255
222 236 255
222 236 255
222 236 255
222 236 255
222 236 255
222 236 255
222 236 255
222 236 255
222 236 255
222 236 255
222 236 255
222 236 255
222 236 255
222 236 255
222 236 255
222 236 255
222 236 255
222 236 255
222 236 255
222 236 255
222 236 255
222 236 255
222 236 255
222 236 255
222 236 255
222 236 255
222 236 255
222 236 255
222 236 255
212 223 241
176 178 187
111 94 83
110 86 70
106 84 69
113 90 74
107 86 70
112 89 71
113 88 71
116 90 72
108 88 70
110 86 71
115 90 72
115 93 74
108 86 70
106 85 68
113 89 72
115 92 75
112 90 72
109 86 69
115 91 74
114 92 76
146 147 157
151 161 181
139 151 174
144 158 180
139 154 176
130 146 168
130 145 164
127 139 159
133 149 171
128 142 163
125 138 162
113 124 139
125 140 162
120 131 150
122 135 155
125 138 161
121 135 156
127 137 159
121 132 152
124 135 155
127 142 165
122 132 151
130 143 164
117 130 150
128 136 163
150 153 190
158 163 205
154 157 197
154 161 201
156 159 201
157 159 202
160 163 206
151 153 194
147 151 190
156 163 208
156 159 201
151 153 195
160 163 204
127 129 163
135 139 166
167 169 175
176 178 181
174 177 181
171 175 181
169 174 181
168 174 181
166 173 181
165 172 181
164 172 181
163 171 181
162 171 181
161 170 181
160 170 181
159 169 181
158 169 181
157 168 181
157 168 181
156 168 181
155 168 181
155 167 181
154 167 181
154 167 181
154 167 181
153 166 181
153 166 181
153 166 181
152 166 181
152 166 181
152 166 181
152 166 181
152 166 181
151 166 181
151 166 181
151 166 181
151 166 181
151 166 181
152 166 181
152 166 181
152 166 181
152 166 181
152 166 181
152 166 181
153 166 181
153 166 181
153 167 181
154 167 181
154 167 181
155 167 181
155 167 181
156 168 181
156 168 181
157 168 181
158 169 181
159 169 181
159 169 181
160 170 181
161 170 181
162 171 181
163 171 181
165 172 181
166 173 181
167 173 181
168 174 181
171 175 181
172 176 181
175 177 181
178 179 181
195 200 207
221 234 253
222 236 255
222 236 255
222 236 255
222 236 255
222 236 255
222 236 255
222 236 255
222 236 255
222 236 255
222 236 255
222 236 255
222 236 255
222 236 255
222 236 255
222 236 255
222 236 255
222 236 255
222 236 255
222 236 255
222 236 255
222 236 255
222 236 255
222 236 255
222 236 255
222 236 255
222 236 255
222 236 255
222 236 255
222 236 255
222 236 255
222 236 255
222 236 255
222 236 255
222 236 255
222 236 255
222 236 255
222 236 255
222 236 255
222 236 255
222 236 255
222 236 255
222 236 255
222 236 255
222 236 255
222 236 255
222 236 255
222 236 255
222 236 255
222 236 255
222 236 255
222 236 255
222 236 255
222 236 255
222 236 255
222 236 255
222 236 255
222 236 255
222 236 255
222 236 255
222 236 255
222 236 255
222 236 255
222 236 255
222 236 255
222 236 255
222 236 255
222 236 255
222 236 255
222 236 255
222 236 255
222 236 255
222 236 255
222 236 255
222 236 255
222 236 255
222 236 255
222 236 255
222 236 255
222 236 255
222 236 255
222 236 255
222 236 255
222 236 255
222 236 255
222 236 255
222 236 255
222 236 255
222 236 255
222 236 255
222 236 255
222 236 255
222 236 255
222 236 255
222 236 255
222 236 255
222 236 255
222 236 255
222 236 255
222 236 255
222 236 255
222 236 255
222 236 255
222 236 255
222 236 255
222 236 255
222 236 255
222 236 255
222 236 255
222 236 255
222 236 255
222 236 255
222 236 255
222 236 255
222 236 255
222 236 255
222 236 255
222 236 255
222 236 255
222 236 255
222 236 255
222 236 255
222 236 255
222 236 255
222 236 255
222 236 255
222 236 255
222 236 255
222 236 255
222 236 255
222 236 255
222 236 255
222 236 255
222 236 255
222 236 255
222 236 255
222 236 255
222 236 255
222 236 255
222 236 255
222 236 255
222 236 255
222 236 255
222 236 255
222 236 255
222 236 255
222 236 255
222 236 255
222 236 255
222 236 255
222 236 255
222 236 255
222 236 255
222 236 255
222 236 255
222 236 255
222 236 255
222 236 255
222 236 255
222 236 255
222 236 255
222 236 255
222 236 255
222 236 255
222 236 255
222 236 255
222 236 255
222 236 255
222 236 255
221 234 253
196 204 217
124 111 108
115 90 72
113 89 73
112 89 72
116 92 73
116 92 73
115 91 72
114 90 73
113 89 71
111 88 72
114 90 73
111 87 69
110 87 70
112 90 72
111 89 72
114 89 72
113 90 74
116 92 74
111 88 71
111 90 78
145 140 142
157 166 185
128 139 159
143 157 182
128 143 168
129 144 168
128 143 167
132 147 172
123 139 160
131 147 170
123 137 157
120 134 155
131 146 170
124 138 159
123 137 157
129 144 165
125 138 157
132 149 172
120 133 153
130 146 170
120 130 150
119 132 152
126 139 158
119 133 152
111 122 140
118 131 152
138 141 176
159 162 205
152 156 196
161 163 205
152 155 193
163 164 205
159 162 205
163 165 210
154 158 198
152 154 192
152 154 196
141 140 176
143 145 181
147 149 184
172 172 178
176 178 181
174 176 181
172 175 181
170 174 181
168 174 181
167 173 181
165 172 181
164 172 181
163 171 181
162 171 181
161 170 181
160 170 181
159 169 181
158 169 181
158 169 181
157 168 181
156 168 181
156 168 181
155 167 181
155 167 181
154 167 181
154 167 181
153 166 181
153 166 181
153 166 181
152 166 181
152 166 181
152 166 181
152 166 181
151 166 181
151 166 181
151 166 181
151 165 181
151 165 181
151 165 181
151 166 181
151 166 181
151 166 181
151 166 181
152 166 181
152 166 181
152 166 181
152 166 181
153 166 181
153 166 181
153 167 181
154 167 181
154 167 181
155 167 181
155 167 181
156 168 181
157 168 181
157 168 181
158 169 181
159 169 181
159 169 181
160 170 181
161 170 181
162 171 181
164 171 181
165 172 181
166 173 181
167 173 181
169 174 181
171 175 181
172 176 181
175 177 181
177 178 181
194 198 204
220 233 252
222 236 255
222 236 255
222 236 255
222 236 255
222 236 255
222 236 255
222 236 255
222 236 255
222 236 255
222 236 255
222 236 255
222 236 255
222 236 255
222 236 255
222 236 255
222 236 255
222 236 255
222 236 255
222 236 255
222 236 255
222 236 255
222 236 255
222 236 255
222 236 255
222 236 255
222 236 255
222 236 255
222 236 255
222 236 255
222 236 255
222 236 255
222 236 255
222 236 255
222 236 255
222 236 255
222 236 255
222 236 255
222 236 255
222 236 255
222 236 255
222 236 255
222 236 255
222 236 255
222 236 255
222 236 255
222 236 255
222 236 255
222 236 255
222 236 255
222 236 255
222 236 255
222 236 255
222 236 255
222 236 255
222 236 255
222 236 255
222 236 255
222 236 255
222 236 255
222 236 255
222 236 255
222 236 255
222 236 255
222 236 255
222 236 255
222 236 255
222 236 255
222 236 255
222 236 255
222 236 255
222 236 255
222 236 255
222 236 255
222 236 255
222 236 255
222 236 255
222 236 255
222 236 255
222 236 255
222 236 255
222 236 255
222 236 255
222 236 255
222 236 255
222 236 255
222 236 255
222 236 255
222 236 255
222 236 255
222 236 255
222 236 255
222 236 255
222 236 255
222 236 255
222 236 255
222 236 255
222 236 255
222 236 255
222 236 255
222 236 255
222 236 255
222 236 255
222 236 255
222 236 255
222 236 255
222 236 255
222 236 255
222 236 255
222 236 255
222 236 255
222 236 255
222 236 255
222 236 255
222 236 255
222 236 255
222 236 255
222 236 255
222 236 255
222 236 255
222 236 255
222 236 255
222 236 255
222 236 255
222 236 255
222 236 255
222 236 255
222 236 255
222 236 255
222 236 255
222 236 255
222 236 255
222 236 255
222 236 255
222 236 255
222 236 255
222 236 255
222 236 255
222 236 255
222 236 255
222 236 255
222 236 255
222 236 255
222 236 255
222 236 255
222 236 255
222 236 255
222 236 255
222 236 255
222 236 255
222 236 255
222 236 255
222 236 255
222 236 255
222 236 255
222 236 255
222 236 255
222 236 255
222 236 255
222 236 255
222 236 255
222 236 255
222 236 255
222 236 255
222 236 255
222 236 255
222 236 255
222 236 255
213 225 243
167 165 172
113 92 79
114 89 71
109 86 70
109 86 70
109 85 69
110 87 71
116 91 74
115 91 73
115 91 74
114 89 71
112 88 71
115 91 74
109 86 70
114 91 74
109 86 69
114 90 72
113 90 72
114 90 73
103 82 67
127 114 110
133 133 155
141 151 174
144 159 183
137 149 172
133 147 167
132 146 167
123 137 160
132 148 170
132 145 166
129 146 168
133 146 167
126 138 159
125 137 157
120 131 149
114 126 143
127 140 162
132 146 170
123 137 161
120 134 154
128 143 162
120 130 148
112 123 142
131 146 168
114 124 143
122 137 157
109 119 136
131 146 168
148 154 186
146 151 188
164 168 209
162 167 207
165 165 206
169 172 216
163 166 208
162 162 201
160 162 203
161 162 204
167 170 212
142 142 176
175 174 177
176 178 181
174 177 181
172 176 181
170 174 181
168 174 181
167 173 181
165 172 181
164 172 181
163 171 181
162 171 181
161 170 181
160 170 181
159 169 181
158 169 181
158 169 181
157 168 181
156 168 181
156 168 181
155 167 181
155 167 181
154 167 181
154 167 181
153 167 181
153 166 181
153 166 181
152 166 181
152 166 181
152 166 181
152 166 181
151 166 181
151 166 181
151 165 181
151 165 181
151 165 181
151 165 181
151 165 181
151 165 181
151 165 181
151 166 181
151 166 181
152 166 181
152 166 181
152 166 181
152 166 181
153 166 181
153 166 181
153 166 181
154 167 181
154 167 181
155 167 181
155 167 181
156 168 181
156 168 181
157 168 181
157 168 181
158 169 181
159 169 181
160 170 181
161 170 181
162 171 181
163 171 181
164 171 181
165 172 181
166 173 181
167 173 181
169 174 181
171 175 181
173 176 181
175 177 181
178 179 181
197 202 211
218 230 248
222 236 255
222 236 255
222 236 255
222 236 255
222 236 255
222 236 255
222 236 255
222 236 255
222 236 255
222 236 255
222 236 255
222 236 255
222 236 255
222 236 255
222 236 255
222 236 255
222 236 255
222 236 255
222 236 255
222 236 255
222 236 255
222 236 255
222 236 255
222 236 255
222 236 255
222 236 255
222 236 255
222 236 255
222 236 255
222 236 255
222 236 255
222 236 255
222 236 255
222 236 255
222 236 255
222 236 255
222 236 255
222 236 255
222 236 255
222 236 255
222 236 255
222 236 255
222 236 255
222 236 255
222 236 255
222 236 255
222 236 255
222 236 255
222 236 255
222 236 255
222 236 255
222 236 255
222 236 255
222 236 255
222 236 255
222 236 255
222 236 255
222 236 255
222 236 255
222 236 255
222 236 255
222 236 255
222 236 255
222 236 255
222 236 255
222 236 255
222 236 255
222 236 255
222 236 255
222 236 255
222 236 255
222 236 255
222 236 255
222 236 255
222 236 255
222 236 255
222 236 255
222 236 255
222 236 255
222 236 255
222 236 255
222 236 255
222 236 255
222 236 255
222 236 255
222 236 255
222 236 255
222 236 255
222 236 255
222 236 255
222 236 255
222 236 255
222 236 255
222 236 255
222 236 255
222 236 255
222 236 255
222 236 255
222 236 255
222 236 255
222 236 255
222 236 255
222 236 255
222 236 255
222 236 255
222 236 255
222 236 255
222 236 255
222 236 255
222 236 255
222 236 255
222 236 255
222 236 255
222 236 255
222 236 255
222 236 255
222 236 255
222 236 255
222 236 255
222 236 255
222 236 255
222 236 255
222 236 255
222 236 255
222 236 255
222 236 255
222 236 255
222 236 255
222 236 255
222 236 255
222 236 255
222 236 255
222 236 255
222 236 255
222 236 255
222 236 255
222 236 255
222 236 255
222 236 255
222 236 255
222 236 255
222 236 255
222 236 255
222 236 255
222 236 255
222 236 255
222 236 255
222 236 255
222 236 255
222 236 255
222 236 255
222 236 255
222 236 255
222 236 255
222 236 255
222 236 255
222 236 255
222 236 255
222 236 255
222 236 255
222 236 255
222 236 255
222 236 255
222 236 255
222 236 255
222 236 255
199 207 221
146 139 140
113 88 72
109 86 70
117 92 73
117 92 74
105 83 67
118 94 75
116 92 75
106 86 69
116 92 74
104 84 66
112 88 71
113 90 72
113 88 72
112 89 71
114 90 72
112 88 72
111 88 71
111 88 71
121 98 83
137 128 141
140 146 170
139 152 176
135 149 172
138 155 177
130 145 166
135 150 171
129 144 168
132 144 167
123 136 160
123 137 155
129 146 169
119 131 152
121 131 148
123 135 156
125 139 160
116 126 142
120 132 151
118 130 149
119 128 147
115 129 148
125 137 156
120 134 153
122 134 153
116 130 150
123 136 155
115 128 148
118 131 149
120 133 150
120 129 151
133 136 165
156 161 199
155 158 196
163 166 205
158 159 198
166 166 206
165 167 206
152 153 191
157 157 191
174 174 175
177 178 181
174 177 181
172 176 181
170 175 181
169 174 181
167 173 181
166 173 181
165 172 181
164 171 181
162 171 181
161 170 181
161 170 181
160 170 181
159 169 181
158 169 181
157 168 181
157 168 181
156 168 181
156 168 181
155 167 181
154 167 181
154 167 181
154 167 181
153 166 181
153 166 181
153 166 181
152 166 181
152 166 181
152 166 181
152 166 181
151 166 181
151 166 181
151 165 181
151 165 181
151 165 181
151 165 181
151 165 181
151 165 181
151 165 181
151 166 181
151 166 181
151 166 181
152 166 181
152 166 181
152 166 181
152 166 181
153 166 181
153 166 181
153 167 181
154 167 181
154 167 181
155 167 181
155 167 181
156 168 181
156 168 181
157 168 181
158 169 181
158 169 181
159 169 181
160 170 181
161 170 181
162 171 181
163 171 181
164 172 181
165 172 181
166 173 181
168 174 181
169 174 181
171 175 181
173 176 181
175 177 181
178 179 181
197 202 211
222 235 254
222 236 255
222 236 255
222 236 255
222 236 255
222 236 255
222 236 255
222 236 255
222 236 255
222 236 255
222 236 255
222 236 255
222 236 255
222 236 255
222 236 255
222 236 255
222 236 255
222 236 255
222 236 255
222 236 255
222 236 255
222 236 255
222 236 255
222 236 255
222 236 255
222 236 255
222 236 255
222 236 255
222 236 255
222 236 255
222 236 255
222 236 255
222 236 255
222 236 255
222 236 255
222 236 255
222 236 255
222 236 255
222 236 255
222 236 255
222 236 255
222 236 255
222 236 255
222 236 255
222 236 255
222 236 255
222 236 255
222 236 255
222 236 255
222 236 255
222 236 255
222 236 255
222 236 255
222 236 255
222 236 255
222 236 255
222 236 255
222 236 255
222 236 255
222 236 255
222 236 255
222 236 255
222 236 255
222 236 255
222 236 255
222 236 255
222 236 255
222 236 255
222 236 255
222 236 255
222 236 255
222 236 255
222 236 255
222 236 255
222 236 255
222 236 255
222 236 255
222 236 255
222 236 255
222 236 255
222 236 255
222 236 255
222 236 255
222 236 255
222 236 255
222 236 255
222 236 255
222 236 255
222 236 255
222 236 255
222 236 255
222 236 255
222 236 255
222 236 255
222 236 255
222 236 255
222 236 255
222 236 255
222 236 255
222 236 255
222 236 255
222 236 255
222 236 255
222 236 255
222 236 255
222 236 255
222 236 255
222 236 255
222 236 255
222 236 255
222 236 255
222 236 255
222 236 255
222 236 255
222 236 255
222 236 255
222 236 255
222 236 255
222 236 255
222 236 255
222 236 255
222 236 255
222 236 255
222 236 255
222 236 255
222 236 255
222 236 255
222 236 255
222 236 255
222 236 255
222 236 255
222 236 255
222 236 255
222 236 255
222 236 255
223 236 255
222 236 255
222 236 255
222 236 255
222 236 255
222 236 255
222 236 255
222 236 255
222 236 255
222 236 255
222 236 255
222 236 255
222 236 255
222 236 255
222 236 255
222 236 255
222 236 255
222 236 255
222 236 255
222 236 255
222 236 255
222 236 255
222 236 255
222 236 255
222 236 255
222 236 255
222 236 255
222 236 255
222 236 255
222 236 255
212 224 241
164 164 170
127 110 101
116 91 74
103 82 67
109 85 69
111 88 71
114 91 72
112 88 72
108 86 70
112 88 71
110 87 70
112 86 70
105 84 69
109 85 69
106 85 69
110 88 71
109 85 69
102 79 64
112 88 71
111 91 77
131 125 133
150 147 177
145 153 184
139 152 176
134 145 167
135 148 174
131 142 169
137 153 178
134 149 170
118 132 152
121 133 153
115 126 143
122 137 157
113 122 138
114 124 142
117 126 144
125 137 157
111 122 140
127 142 163
121 133 153
109 119 136
123 137 157
128 141 162
101 110 122
126 142 162
108 117 133
121 134 153
105 114 129
122 135 155
112 127 146
108 116 134
113 124 142
109 118 134
119 129 149
126 133 156
140 144 175
137 142 173
146 150 182
147 147 179
177 176 179
177 178 181
175 177 181
172 176 181
170 175 181
169 174 181
168 173 181
166 173 181
165 172 181
164 172 181
163 171 181
162 171 181
161 170 181
160 170 181
159 169 181
159 169 181
158 169 181
157 168 181
157 168 181
156 168 181
155 168 181
155 167 181
154 167 181
154 167 181
154 167 181
153 166 181
153 166 181
153 166 181
152 166 181
152 166 181
152 166 181
152 166 181
151 166 181
151 166 181
151 166 181
151 165 181
151 165 181
151 165 181
151 165 181
151 165 181
151 166 181
151 166 181
151 166 181
152 166 181
152 166 181
152 166 181
152 166 181
152 166 181
153 166 181
153 166 181
153 167 181
154 167 181
154 167 181
155 167 181
155 167 181
156 168 181
156 168 181
157 168 181
158 169 181
158 169 181
159 169 181
160 170 181
161 170 181
161 170 181
162 171 181
163 171 181
164 172 181
166 172 181
167 173 181
168 174 181
170 174 181
171 175 181
173 176 181
176 178 181
179 179 181
196 200 207
220 233 252
222 236 255
222 236 255
222 236 255
222 236 255
222 236 255
222 236 255
222 236 255
222 236 255
222 236 255
222 236 255
222 236 255
222 236 255
222 236 255
222 236 255
222 236 255
222 236 255
222 236 255
222 236 255
222 236 255
222 236 255
222 236 255
222 236 255
222 236 255
222 236 255
222 236 255
222 236 255
222 236 255
222 236 255
222 236 255
222 236 255
222 236 255
222 236 255
222 236 255
222 236 255
222 236 255
222 236 255
222 236 255
222 236 255
222 236 255
222 236 255
222 236 255
222 236 255
222 236 255
222 236 255
222 236 255
222 236 255
222 236 255
222 236 255
222 236 255
222 236 255
222 236 255
222 236 255
222 236 255
222 236 255
222 236 255
222 236 255
222 236 255
222 236 255
222 236 255
222 236 255
222 236 255
222 236 255
222 236 255
222 236 255
222 236 255
222 236 255
223 236 255
222 236 255
223 236 255
223 236 255
222 236 255
223 236 255
222 236 255
223 236 255
223 236 255
223 236 255
222 236 255
223 236 255
223 236 255
223 236 255
223 236 255
222 236 255
223 236 255
223 236 255
222 236 255
222 236 255
222 236 255
223 236 255
223 236 255
223 236 255
222 236 255
223 236 255
223 236 255
223 236 255
223 236 255
223 236 255
223 236 255
223 236 255
223 236 255
223 236 255
223 236 255
223 236 255
223 236 255
223 236 255
223 236 255
223 236 255
223 236 255
223 236 255
223 236 255
223 236 255
223 236 255
223 236 255
223 236 255
223 236 255
223 236 255
223 236 255
223 236 255
223 236 255
223 236 255
223 236 255
223 236 255
223 236 255
223 236 255
223 236 255
223 236 255
223 236 255
223 236 255
223 236 255
223 236 255
223 236 255
222 236 255
223 236 255
223 236 255
223 236 255
223 236 255
223 236 255
223 236 255
223 236 255
223 236 255
223 236 255
223 236 255
223 236 255
223 236 255
223 236 255
223 236 255
223 236 255
223 236 255
223 236 255
223 236 255
223 236 255
223 236 255
223 236 255
223 236 255
223 236 255
223 236 255
223 236 255
223 236 255
223 236 255
223 236 255
223 236 255
223 236 255
223 236 255
223 236 255
202 211 226
130 121 120
110 92 76
107 84 68
101 81 64
111 87 70
111 89 72
109 86 70
105 82 67
104 82 66
118 93 75
110 87 70
112 89 71
111 88 71
106 84 68
105 83 66
110 86 70
109 86 69
122 95 75
109 87 71
110 91 81
142 132 155
151 156 184
144 160 184
132 146 169
139 153 184
137 151 181
126 139 160
129 141 164
130 144 164
123 133 156
116 125 149
111 119 138
109 119 136
106 115 132
108 114 129
102 109 124
112 122 140
120 134 155
133 147 168
113 124 140
113 126 146
112 124 142
115 127 146
113 124 141
112 126 146
119 131 150
116 126 145
117 129 149
106 116 133
117 129 148
126 140 159
116 127 144
118 130 149
109 118 136
114 126 144
113 126 144
118 131 152
118 128 144
158 156 158
178 179 181
175 177 181
173 176 181
171 175 181
170 174 181
168 174 181
167 173 181
166 172 181
164 172 181
163 171 181
162 171 181
162 170 181
161 170 181
160 170 181
159 169 181
158 169 181
158 169 181
157 168 181
156 168 181
156 168 181
155 167 181
155 167 181
154 167 181
154 167 181
154 167 181
153 166 181
153 166 181
153 166 181
152 166 181
152 166 181
152 166 181
152 166 181
152 166 181
151 166 181
151 166 181
151 166 181
151 166 181
151 166 181
151 166 181
151 166 181
151 166 181
151 166 181
152 166 181
152 166 181
152 166 181
152 166 181
152 166 181
153 166 181
153 166 181
153 166 181
153 167 181
154 167 181
154 167 181
155 167 181
155 167 181
156 168 181
156 168 181
157 168 181
157 168 181
158 169 181
159 169 181
159 169 181
160 170 181
161 170 181
162 171 181
163 171 181
164 172 181
165 172 181
166 173 181
167 173 181
169 174 181
170 175 181
172 176 181
174 177 181
176 178 181
179 179 181
202 208 218
223 236 255
223 236 255
223 236 255
223 236 255
223 236 255
223 236 255
223 236 255
223 236 255
223 236 255
223 236 255
223 236 255
223 236 255
223 236 255
223 236 255
223 236 255
223 236 255
223 236 255
223 236 255
223 236 255
223 236 255
223 236 255
223 236 255
223 236 255
223 236 255
223 236 255
223 236 255
223 236 255
223 236 255
223 236 255
223 236 255
223 236 255
223 236 255
223 236 255
223 236 255
223 236 255
223 236 255
223 236 255
223 236 255
223 236 255
223 236 255
223 236 255
223 236 255
223 236 255
223 236 255
223 236 255
223 236 255
223 236 255
223 236 255
223 236 255
222 236 255
223 236 255
223 236 255
223 236 255
223 236 255
223 236 255
223 236 255
223 236 255
222 236 255
223 236 255
223 236 255
223 236 255
223 236 255
223 236 255
223 236 255
223 236 255
223 236 255
223 236 255
223 236 255
223 236 255
223 236 255
223 236 255
223 236 255
223 236 255
223 236 255
223 236 255
223 236 255
223 236 255
223 236 255
223 236 255
223 236 255
223 236 255
223 236 255
223 236 255
223 236 255
223 236 255
223 236 255
223 236 255
223 236 255
223 236 255
223 236 255
223 236 255
223 236 255
223 236 255
223 236 255
223 236 255
223 236 255
223 236 255
223 236 255
223 236 255
223 236 255
223 236 255
223 236 255
223 236 255
223 236 255
223 236 255
223 236 255
223 236 255
223 236 255
223 236 255
223 236 255
223 236 255
223 236 255
223 236 255
223 236 255
223 236 255
223 236 255
223 236 255
223 236 255
223 236 255
223 236 255
223 236 255
223 236 255
223 236 255
223 236 255
223 236 255
223 236 255
223 236 255
223 236 255
223 236 255
223 236 255
223 236 255
223 236 255
223 236 255
223 236 255
223 236 255
223 236 255
223 236 255
223 236 255
223 236 255
223 236 255
223 236 255
223 236 255
223 236 255
223 236 255
223 236 255
223 236 255
223 236 255
223 236 255
223 236 255
223 236 255
223 236 255
223 236 255
223 236 255
223 236 255
223 236 255
223 236 255
223 236 255
223 236 255
223 236 255
223 236 255
223 236 255
223 236 255
220 234 253
174 175 184
131 120 116
106 83 67
115 91 73
106 81 66
114 89 72
112 87 70
110 87 70
113 90 72
110 86 69
111 88 71
111 87 70
107 86 68
105 83 68
110 86 70
111 87 69
104 81 65
106 82 66
109 87 70
111 88 69
146 143 149
153 153 181
146 155 180
140 154 176
138 151 173
139 155 183
135 146 167
131 144 166
132 144 166
123 133 154
117 129 147
112 118 136
99 90 106
84 75 83
92 99 110
109 118 133
109 116 131
114 122 139
109 120 134
111 123 137
118 129 147
118 130 146
121 135 156
110 121 136
112 125 144
119 133 152
115 126 144
120 132 150
122 134 152
115 126 145
111 123 141
113 125 143
112 126 144
112 124 142
120 133 153
102 113 130
116 128 149
105 115 131
157 156 161
178 179 181
176 178 181
174 177 181
172 176 181
170 175 181
169 174 181
167 173 181
166 173 181
165 172 181
164 172 181
163 171 181
162 171 181
161 170 181
160 170 181
160 170 181
159 169 181
158 169 181
158 169 181
157 168 181
156 168 181
156 168 181
155 168 181
155 167 181
155 167 181
154 167 181
154 167 181
153 167 181
153 166 181
153 166 181
153 166 181
152 166 181
152 166 181
152 166 181
152 166 181
152 166 181
152 166 181
152 166 181
152 166 181
151 166 181
151 166 181
152 166 181
152 166 181
152 166 181
152 166 181
152 166 181
152 166 181
152 166 181
152 166 181
153 166 181
153 166 181
153 167 181
154 167 181
154 167 181
154 167 181
155 167 181
155 167 181
156 168 181
156 168 181
157 168 181
157 168 181
158 169 181
159 169 181
159 169 181
160 170 181
161 170 181
162 171 181
163 171 181
164 171 181
165 172 181
166 172 181
167 173 181
168 174 181
169 174 181
171 175 181
173 176 181
174 177 181
177 178 181
181 181 182
206 214 226
223 236 255
223 236 255
223 236 255
223 236 255
223 236 255
223 236 255
223 236 255
223 236 255
223 236 255
223 236 255
223 236 255
223 236 255
223 236 255
223 236 255
223 236 255
223 236 255
223 236 255
223 236 255
223 236 255
223 236 255
223 236 255
223 236 255
223 236 255
223 236 255
223 236 255
223 236 255
223 236 255
223 236 255
223 236 255
223 236 255
223 236 255
223 236 255
223 236 255
223 236 255
223 236 255
223 236 255
223 236 255
223 236 255
223 236 255
223 236 255
223 236 255
223 236 255
223 236 255
223 236 255
223 236 255
223 236 255
223 236 255
223 236 255
223 236 255
223 236 255
223 236 255
223 236 255
223 236 255
223 236 255
223 236 255
223 236 255
223 236 255
223 236 255
223 236 255
223 236 255
223 236 255
223 236 255
223 236 255
223 236 255
223 236 255
223 236 255
223 236 255
223 236 255
223 236 255
223 236 255
223 236 255
223 236 255
223 236 255
223 236 255
223 236 255
223 236 255
223 236 255
223 236 255
223 236 255
223 236 255
223 236 255
223 236 255
223 236 255
223 236 255
223 236 255
223 236 255
223 236 255
223 236 255
223 236 255
223 236 255
223 236 255
223 236 255
223 236 255
223 236 255
223 236 255
223 236 255
223 236 255
223 236 255
223 236 255
223 236 255
223 236 255
223 236 255
223 236 255
223 236 255
223 236 255
223 236 255
223 236 255
223 236 255
223 236 255
223 236 255
223 236 255
223 236 255
223 236 255
223 236 255
223 236 255
223 236 255
223 236 255
223 236 255
223 236 255
223 236 255
223 236 255
223 236 255
223 236 255
223 236 255
223 236 255
223 236 255
223 236 255
223 236 255
223 236 255
223 236 255
223 236 255
223 236 255
223 236 255
223 236 255
223 236 255
223 236 255
223 236 255
223 236 255
223 236 255
223 236 255
223 236 255
223 236 255
223 236 255
223 236 255
223 236 255
223 236 255
223 236 255
223 236 255
223 236 255
223 236 255
223 236 255
223 236 255
223 236 255
223 236 255
223 236 255
223 236 255
223 236 255
223 236 255
223 236 255
223 236 255
223 236 255
214 226 243
167 167 174
110 91 82
108 85 68
109 84 68
109 85 68
119 93 74
106 84 68
118 93 74
102 80 64
102 81 67
112 88 70
107 84 67
117 93 74
114 91 72
108 85 67
112 88 71
111 88 71
113 88 71
105 83 66
121 107 101
148 138 166
164 171 197
142 153 175
133 146 167
133 147 168
127 140 165
121 134 159
128 142 162
126 141 163
128 140 160
110 104 117
98 66 74
93 58 64
95 67 70
95 92 102
107 117 132
110 121 136
126 141 162
125 139 157
118 132 150
125 139 157
125 140 160
117 130 150
116 128 148
114 128 147
123 135 156
113 125 143
127 143 164
111 122 139
108 119 138
120 134 155
119 133 151
111 121 136
110 122 140
115 128 150
108 121 143
96 107 126
129 128 144
177 177 178
176 178 181
174 177 181
173 176 181
171 175 181
169 174 181
168 174 181
167 173 181
166 173 181
165 172 181
164 172 181
163 171 181
162 171 181
161 170 181
160 170 181
160 170 181
159 169 181
158 169 181
158 169 181
157 168 181
157 168 181
156 168 181
156 168 181
155 167 181
155 167 181
154 167 181
154 167 181
154 167 181
153 167 181
153 166 181
153 166 181
153 166 181
152 166 181
152 166 181
152 166 181
152 166 181
152 166 181
152 166 181
152 166 181
152 166 181
152 166 181
152 166 181
152 166 181
152 166 181
152 166 181
152 166 181
152 166 181
153 166 181
153 166 181
153 166 181
153 167 181
154 167 181
154 167 181
154 167 181
155 167 181
155 167 181
155 168 181
156 168 181
156 168 181
157 168 181
157 168 181
158 169 181
159 169 181
159 169 181
160 170 181
161 170 181
162 170 181
162 171 181
163 171 181
164 172 181
165 172 181
166 173 181
167 173 181
169 174 181
170 175 181
172 175 181
173 176 181
175 177 181
178 179 181
184 184 186
217 228 245
223 236 255
223 236 255
223 236 255
223 236 255
223 236 255
223 236 255
223 236 255
223 236 255
223 236 255
223 236 255
223 236 255
223 236 255
223 236 255
223 236 255
223 236 255
223 236 255
223 236 255
223 236 255
223 236 255
223 236 255
223 236 255
223 236 255
223 236 255
223 236 255
223 236 255
223 236 255
223 236 255
223 236 255
223 236 255
223 236 255
223 236 255
223 236 255
223 236 255
223 236 255
223 236 255
223 236 255
223 236 255
223 236 255
223 236 255
223 236 255
223 236 255
223 236 255
223 236 255
223 236 255
223 236 255
223 236 255
223 236 255
223 236 255
223 236 255
223 236 255
223 236 255
223 236 255
223 236 255
223 236 255
223 236 255
223 236 255
223 236 255
223 236 255
223 236 255
223 236 255
223 236 255
223 236 255
223 236 255
223 236 255
223 236 255
223 236 255
223 236 255
223 236 255
223 236 255
223 236 255
223 236 255
223 236 255
223 236 255
223 236 255
223 236 255
223 236 255
223 236 255
223 236 255
223 236 255
223 236 255
223 236 255
223 236 255
223 236 255
223 236 255
223 236 255
223 236 255
223 236 255
223 236 255
223 236 255
223 236 255
223 236 255
223 236 255
223 236 255
223 236 255
223 236 255
223 236 255
223 236 255
223 236 255
223 236 255
223 236 255
223 236 255
223 236 255
223 236 255
223 236 255
223 236 255
223 236 255
223 236 255
223 236 255
223 236 255
223 236 255
223 236 255
223 236 255
223 236 255
223 236 255
223 236 255
223 236 255
223 236 255
223 236 255
223 236 255
223 236 255
223 236 255
223 236 255
223 236 255
223 236 255
223 236 255
223 236 255
223 236 255
223 236 255
223 236 255
223 236 255
223 236 255
223 236 255
223 236 255
223 236 255
223 236 255
223 236 255
223 236 255
223 236 255
223 236 255
223 236 255
223 236 255
223 236 255
223 236 255
223 236 255
223 236 255
223 236 255
223 236 255
223 236 255
223 236 255
223 236 255
223 236 255
223 236 255
223 236 255
223 236 255
223 236 255
223 236 255
223 236 255
223 236 255
223 236 255
223 236 255
207 217 233
146 142 146
116 91 73
107 85 69
108 85 68
111 86 69
103 82 66
112 88 71
104 82 66
114 91 72
116 91 72
105 84 67
112 87 70
110 87 69
106 85 68
109 87 69
107 85 67
103 82 66
101 81 65
106 83 65
137 131 143
161 163 192
157 165 191
135 149 170
141 154 174
137 151 172
125 138 157
124 136 155
134 148 170
132 145 168
121 124 138
120 94 107
112 82 89
103 59 66
97 48 42
112 102 113
118 130 145
122 136 154
115 128 146
115 127 144
119 133 153
122 136 157
119 132 149
128 143 164
122 135 155
118 132 150
111 125 143
118 133 152
120 132 150
110 120 138
120 135 155
125 140 161
110 124 143
105 116 132
107 117 133
106 118 135
102 114 137
106 111 129
177 177 179
177 178 181
175 177 181
173 176 181
172 175 181
170 175 181
169 174 181
168 173 181
167 173 181
165 172 181
164 172 181
163 171 181
163 171 181
162 171 181
161 170 181
160 170 181
160 170 181
159 169 181
158 169 181
158 169 181
157 168 181
157 168 181
156 168 181
156 168 181
155 168 181
155 167 181
155 167 181
154 167 181
154 167 181
154 167 181
153 167 181
153 166 181
153 166 181
153 166 181
153 166 181
153 166 181
152 166 181
152 166 181
152 166 181
152 166 181
152 166 181
152 166 181
152 166 181
152 166 181
152 166 181
152 166 181
153 166 181
153 166 181
153 166 181
153 166 181
153 167 181
154 167 181
154 167 181
154 167 181
155 167 181
155 167 181
155 167 181
156 168 181
156 168 181
157 168 181
157 168 181
158 169 181
158 169 181
159 169 181
159 169 181
160 170 181
161 170 181
161 170 181
162 171 181
163 171 181
164 172 181
165 172 181
166 173 181
167 173 181
168 174 181
169 174 181
171 175 181
172 176 181
174 177 181
176 178 181
179 179 181
186 187 189
221 233 252
223 236 255
223 236 255
223 236 255
223 236 255
223 236 255
223 236 255
223 236 255
223 236 255
223 236 255
223 236 255
223 236 255
223 236 255
223 236 255
223 236 255
223 236 255
223 236 255
223 236 255
223 236 255
223 236 255
223 236 255
223 236 255
223 236 255
223 236 255
223 236 255
223 236 255
223 236 255
223 236 255
223 236 255
223 236 255
223 236 255
223 236 255
223 236 255
223 236 255
223 236 255
223 236 255
223 236 255
223 236 255
223 236 255
223 236 255
223 236 255
223 236 255
223 236 255
223 236 255
223 236 255
223 236 255
223 236 255
223 236 255
223 236 255
223 236 255
223 236 255
223 236 255
223 236 255
223 236 255
223 236 255
223 236 255
223 236 255
223 236 255
223 236 255
223 236 255
223 236 255
223 236 255
223 236 255
223 236 255
223 236 255
223 236 255
223 236 255
223 236 255
223 236 255
223 236 255
223 236 255
223 236 255
223 236 255
223 236 255
223 236 255
223 236 255
223 236 255
223 236 255
223 236 255
223 236 255
223 236 255
223 236 255
223 236 255
223 236 255
223 236 255
223 236 255
223 236 255
223 236 255
223 236 255
223 236 255
223 236 255
223 236 255
223 236 255
223 236 255
223 236 255
223 236 255
223 236 255
223 236 255
223 236 255
223 236 255
223 236 255
223 236 255
223 236 255
223 236 255
223 236 255
223 236 255
223 236 255
223 236 255
223 236 255
223 236 255
223 236 255
223 236 255
223 236 255
223 236 255
223 236 255
223 236 255
223 236 255
223 236 255
223 236 255
223 236 255
223 236 255
223 236 255
223 236 255
223 236 255
223 236 255
223 236 255
223 236 255
223 236 255
223 236 255
223 236 255
223 236 255
223 236 255
223 236 255
223 236 255
223 236 255
223 236 255
223 236 255
223 236 255
223 236 255
223 236 255
223 236 255
223 236 255
223 236 255
223 236 255
223 236 255
223 236 255
223 236 255
223 236 255
223 236 255
223 236 255
223 236 255
223 236 255
223 236 255
223 236 255
223 236 255
223 236 255
223 236 255
223 236 255
223 236 255
223 236 255
192 198 211
132 121 118
109 86 69
116 91 72
105 81 66
102 81 65
104 83 68
104 82 66
110 88 71
105 83 66
101 82 65
110 85 69
104 82 66
103 81 64
96 77 64
105 83 67
104 82 66
101 80 65
110 88 71
121 104 94
149 147 166
144 150 176
141 157 175
141 156 176
134 149 170
139 149 170
130 142 162
125 138 155
129 144 164
114 121 137
120 97 104
114 80 82
115 69 66
109 73 75
103 65 64
109 97 105
117 131 149
124 139 162
118 131 151
133 150 172
126 141 164
124 141 160
127 142 162
126 139 158
121 135 155
125 139 160
123 137 156
124 140 162
115 127 145
117 128 146
115 126 146
119 131 148
119 130 147
104 114 133
110 122 138
110 122 140
81 89 121
155 155 159
178 179 181
176 178 181
174 177 181
172 176 181
171 175 181
170 174 181
168 174 181
167 173 181
166 173 181
165 172 181
164 172 181
163 171 181
163 171 181
162 171 181
161 170 181
160 170 181
160 170 181
159 169 181
159 169 181
158 169 181
158 169 181
157 168 181
157 168 181
156 168 181
156 168 181
155 168 181
155 167 181
155 167 181
154 167 181
154 167 181
154 167 181
154 167 181
154 167 181
153 167 181
153 166 181
153 166 181
153 166 181
153 166 181
153 166 181
153 166 181
153 166 181
153 166 181
153 166 181
153 166 181
153 166 181
153 166 181
153 166 181
153 166 181
153 167 181
154 167 181
154 167 181
154 167 181
154 167 181
155 167 181
155 167 181
155 167 181
156 168 181
156 168 181
156 168 181
157 168 181
157 168 181
158 169 181
158 169 181
159 169 181
160 170 181
160 170 181
161 170 181
162 170 181
162 171 181
163 171 181
164 172 181
165 172 181
166 173 181
167 173 181
168 174 181
169 174 181
170 175 181
172 176 181
173 176 181
175 177 181
177 178 181
180 180 181
201 206 215
223 236 255
223 236 255
223 236 255
223 236 255
223 236 255
223 236 255
223 236 255
223 236 255
223 236 255
223 236 255
223 236 255
223 236 255
223 236 255
223 236 255
223 236 255
223 236 255
223 236 255
223 236 255
223 236 255
223 236 255
223 236 255
223 236 255
223 236 255
223 236 255
223 236 255
223 236 255
223 236 255
223 236 255
223 236 255
223 236 255
223 236 255
223 236 255
223 236 255
223 236 255
223 236 255
223 236 255
223 236 255
223 236 255
223 236 255
223 236 255
223 236 255
223 236 255
223 236 255
223 236 255
223 236 255
223 236 255
223 236 255
223 236 255
223 236 255
223 236 255
223 236 255
223 236 255
223 236 255
223 236 255
223 236 255
223 236 255
223 236 255
223 236 255
223 236 255
223 236 255
223 236 255
223 236 255
223 236 255
223 236 255
223 236 255
223 236 255
223 236 255
223 236 255
223 236 255
223 236 255
223 236 255
223 236 255
223 236 255
223 236 255
223 236 255
223 236 255
223 236 255
223 236 255
223 236 255
223 236 255
223 236 255
223 236 255
223 236 255
223 236 255
223 236 255
223 236 255
223 236 255
223 236 255
223 236 255
223 236 255
223 236 255
223 236 255
223 236 255
223 236 255
223 236 255
223 236 255
223 236 255
223 236 255
223 236 255
223 236 255
223 236 255
223 236 255
223 236 255
223 236 255
223 236 255
223 236 255
223 236 255
223 236 255
223 236 255
223 236 255
223 236 255
223 236 255
223 236 255
223 236 255
223 236 255
223 236 255
223 236 255
223 236 255
222 235 254
223 236 255
223 236 255
223 236 255
223 236 255
223 236 255
223 236 255
223 236 255
223 236 255
222 235 254
223 236 255
223 236 255
223 236 255
223 236 255
223 237 255
223 236 255
223 236 255
222 235 254
223 236 255
222 235 254
223 236 255
222 235 254
222 235 254
223 237 255
223 236 255
223 237 255
221 235 254
223 237 255
222 235 254
223 236 255
223 237 255
223 237 255
223 236 255
223 236 255
220 234 253
223 236 255
223 236 255
220 234 253
222 235 254
223 237 255
218 232 250
182 186 197
126 114 109
111 88 70
107 85 68
109 86 69
109 86 70
108 85 68
104 81 66
110 86 70
107 84 68
100 79 64
105 83 66
100 80 66
107 85 67
109 86 69
105 82 66
107 85 68
107 84 68
112 89 71
136 128 123
152 156 183
146 159 177
138 154 171
131 144 159
131 145 163
138 150 171
121 133 150
140 154 174
134 149 169
115 108 118
118 86 89
119 81 83
114 75 75
99 55 52
115 73 70
137 147 166
123 139 160
124 138 156
124 138 156
129 145 166
131 148 170
127 143 165
116 130 150
124 139 157
127 143 162
116 129 148
106 118 139
118 131 149
125 138 155
116 130 148
117 131 152
107 120 139
110 122 139
112 122 138
112 123 141
105 115 135
129 131 144
179 179 181
177 178 181
175 177 181
173 176 181
172 176 181
171 175 181
169 174 181
168 174 181
167 173 181
166 173 181
165 172 181
164 172 181
164 171 181
163 171 181
162 171 181
161 170 181
161 170 181
160 170 181
159 169 181
159 169 181
158 169 181
158 169 181
157 168 181
157 168 181
157 168 181
156 168 181
156 168 181
156 168 181
155 167 181
155 167 181
155 167 181
154 167 181
154 167 181
154 167 181
154 167 181
154 167 181
154 167 181
153 167 181
153 167 181
153 167 181
153 167 181
153 167 181
153 167 181
153 167 181
153 167 181
153 167 181
154 167 181
154 167 181
154 167 181
154 167 181
154 167 181
154 167 181
155 167 181
155 167 181
155 167 181
155 168 181
156 168 181
156 168 181
156 168 181
157 168 181
157 168 181
158 169 181
158 169 181
159 169 181
159 169 181
160 170 181
160 170 181
161 170 181
162 171 181
162 171 181
163 171 181
164 172 181
165 172 181
166 172 181
167 173 181
167 173 181
169 174 181
170 175 181
171 175 181
173 176 181
174 177 181
176 178 181
178 179 181
181 180 181
210 218 231
223 236 255
223 236 255
223 236 255
223 236 255
223 236 255
223 236 255
223 236 255
222 235 254
223 236 255
223 236 255
223 236 255
223 236 255
223 236 255
223 236 255
223 236 255
223 236 255
223 236 255
223 236 255
223 236 255
223 236 255
223 236 255
223 236 255
223 236 255
223 236 255
223 236 255
223 236 255
223 236 255
223 236 255
223 236 255
223 236 255
223 236 255
223 236 255
223 236 255
223 236 255
223 236 255
223 236 255
223 236 255
223 236 255
223 236 255
223 236 255
223 236 255
223 236 255
223 236 255
223 236 255
223 236 255
223 236 255
223 236 255
223 236 255
223 236 255
223 236 255
223 236 255
223 236 255
223 236 255
223 236 255
223 236 255
223 236 255
223 236 255
223 236 255
223 236 255
223 236 255
223 236 255
223 236 255
223 237 255
223 236 255
223 237 255
223 236 255
223 237 255
223 236 255
220 234 253
222 235 254
223 236 255
223 237 255
222 235 254
222 235 254
223 237 255
220 234 253
222 235 254
223 237 255
223 237 255
222 235 254
222 235 254
222 235 254
223 236 255
220 234 253
222 235 254
216 230 249
222 235 254
223 237 255
220 234 253
220 234 253
221 234 253
220 234 253
222 235 254
223 237 255
222 235 254
222 235 254
218 231 250
219 232 252
222 235 254
223 237 255
222 235 254
219 233 252
218 231 250
218 232 250
219 232 252
215 229 248
219 233 252
217 230 249
219 233 252
215 229 248
216 230 249
222 235 254
220 234 253
216 230 249
212 226 245
218 231 250
219 233 252
222 235 254
216 230 249
212 226 245
212 226 245
213 227 246
215 229 248
217 231 250
215 229 248
219 232 252
213 227 246
216 230 249
219 233 252
219 232 252
212 226 245
220 234 253
214 228 246
216 230 249
215 229 248
220 234 253
219 233 252
209 223 242
208 222 241
213 227 246
210 223 242
209 222 241
208 222 241
216 230 249
213 227 246
207 220 240
216 230 249
212 226 245
216 230 249
203 217 237
213 226 245
211 225 244
213 226 245
205 219 238
205 219 238
201 215 234
202 216 236
202 214 232
164 168 179
108 90 77
107 85 68
105 82 66
103 82 65
106 82 65
103 83 67
105 83 66
111 88 70
101 80 63
111 87 70
107 84 67
105 83 66
113 91 72
111 88 71
107 85 69
113 89 71
106 83 67
106 88 68
148 159 167
153 165 187
140 152 172
125 136 145
113 122 136
124 137 152
134 145 166
133 140 159
124 137 154
128 143 162
125 109 117
119 85 87
114 69 67
118 77 76
114 69 65
106 82 77
121 134 153
136 153 174
126 143 162
130 146 163
113 128 146
127 142 163
118 131 151
121 137 159
117 130 149
123 139 159
114 129 147
111 127 146
106 123 141
121 137 159
113 128 148
120 133 152
118 131 152
124 137 155
120 134 154
117 129 146
129 138 154
177 177 178
178 179 181
176 178 181
174 177 181
173 176 181
172 175 181
170 175 181
169 174 181
168 174 181
167 173 181
166 173 181
165 172 181
164 172 181
164 171 181
163 171 181
162 171 181
162 170 181
161 170 181
160 170 181
160 170 181
159 169 181
159 169 181
158 169 181
158 169 181
157 168 181
157 168 181
157 168 181
156 168 181
156 168 181
156 168 181
155 168 181
155 167 181
155 167 181
155 167 181
155 167 181
154 167 181
154 167 181
154 167 181
154 167 181
154 167 181
154 167 181
154 167 181
154 167 181
154 167 181
154 167 181
154 167 181
154 167 181
154 167 181
154 167 181
154 167 181
155 167 181
155 167 181
155 167 181
155 167 181
155 167 181
156 168 181
156 168 181
156 168 181
157 168 181
157 168 181
157 168 181
158 169 181
158 169 181
159 169 181
159 169 181
160 170 181
160 170 181
161 170 181
161 170 181
162 171 181
163 171 181
163 171 181
164 172 181
165 172 181
166 172 181
167 173 181
167 173 181
169 174 181
170 174 181
171 175 181
172 176 181
173 176 181
175 177 181
177 178 181
179 179 181
193 196 201
212 225 244
214 227 246
219 233 252
219 233 252
220 234 253
215 228 248
211 225 244
219 233 252
220 234 253
215 229 248
220 234 253
220 234 253
217 231 250
222 235 254
214 228 246
218 231 250
216 230 249
222 235 254
219 233 252
218 232 250
216 230 249
220 234 253
219 233 252
222 235 254
218 231 250
220 234 253
220 234 253
219 233 252
220 234 253
219 233 252
220 234 253
223 237 255
222 235 254
222 235 254
222 235 254
220 234 253
218 231 250
220 234 253
219 233 252
223 237 255
223 237 255
222 235 254
223 237 255
222 235 254
222 235 254
220 234 253
223 237 255
223 237 255
223 237 255
222 235 254
223 237 255
222 235 254
223 236 255
223 236 255
223 236 255
223 236 255
222 235 254
223 236 255
223 236 255
223 236 255
223 237 255
220 234 253
213 227 246
218 231 250
216 230 249
211 225 244
213 227 246
217 230 249
210 224 242
215 229 248
211 225 244
215 229 248
213 227 246
207 220 240
215 229 248
205 220 240
206 220 240
208 222 241
199 212 231
217 230 249
207 220 240
207 221 240
210 224 244
206 219 238
211 225 244
209 223 242
205 219 238
213 226 245
202 216 236
206 220 240
209 222 241
204 218 237
204 218 237
210 223 242
214 228 246
202 216 236
198 212 231
203 217 236
205 218 237
199 212 231
206 220 240
201 215 234
207 220 240
195 209 228
190 204 224
202 216 236
198 212 231
210 224 244
200 214 234
201 215 234
199 212 231
194 208 227
213 226 245
192 206 226
195 209 228
200 214 233
189 203 223
195 209 228
201 215 236
202 216 236
204 218 237
190 204 224
194 208 228
199 213 233
197 211 230
197 211 230
196 210 230
185 200 220
186 200 220
193 206 226
192 206 226
199 213 233
188 202 221
199 213 233
186 201 221
193 207 227
198 212 231
192 206 226
190 204 224
196 210 230
189 203 223
197 210 230
188 203 223
193 206 226
186 201 221
188 203 223
198 212 231
192 206 226
193 207 227
185 199 218
189 203 223
179 194 214
197 212 231
194 208 227
186 200 220
181 196 217
181 196 215
182 195 213
135 131 136
114 90 71
105 82 66
103 81 65
108 85 68
103 82 65
101 79 64
104 82 67
112 88 71
110 86 69
109 84 67
102 79 65
107 86 69
104 82 64
107 85 67
109 87 70
103 81 65
104 83 67
121 118 112
148 156 172
144 152 175
130 144 157
117 132 122
129 144 163
129 144 166
130 139 159
131 139 156
123 134 152
124 138 158
126 96 102
125 73 68
121 68 62
120 72 70
122 95 93
109 115 116
121 137 156
118 134 152
123 139 157
124 140 160
113 128 147
119 135 157
117 130 150
112 123 141
106 121 136
116 130 148
124 142 163
123 138 158
113 129 148
118 136 156
120 136 154
114 129 150
113 125 142
119 132 152
109 119 137
111 122 138
159 157 159
180 180 181
177 178 181
175 177 181
174 177 181
172 176 181
171 175 181
170 175 181
169 174 181
168 174 181
167 173 181
166 173 181
165 172 181
165 172 181
164 172 181
163 171 181
162 171 181
162 171 181
161 170 181
161 170 181
160 170 181
160 170 181
159 169 181
159 169 181
158 169 181
158 169 181
158 169 181
157 168 181
157 168 181
157 168 181
156 168 181
156 168 181
156 168 181
156 168 181
155 168 181
155 167 181
155 167 181
155 167 181
155 167 181
155 167 181
155 167 181
155 167 181
155 167 181
155 167 181
155 167 181
155 167 181
155 167 181
155 167 181
155 167 181
155 167 181
155 167 181
155 167 181
155 167 181
155 168 181
156 168 181
156 168 181
156 168 181
156 168 181
157 168 181
157 168 181
157 168 181
158 169 181
158 169 181
159 169 181
159 169 181
159 169 181
160 170 181
160 170 181
161 170 181
162 170 181
162 171 181
163 171 181
163 171 181
164 172 181
165 172 181
166 173 181
167 173 181
168 173 181
168 174 181
169 174 181
171 175 181
172 176 181
173 176 181
175 177 181
176 178 181
178 179 181
181 180 181
193 199 209
199 212 231
197 212 231
194 208 227
194 209 228
200 214 233
200 214 234
193 207 227
200 214 233
195 209 228
196 210 230
200 214 234
189 204 224
210 223 242
205 219 238
191 206 226
196 210 230
201 215 234
207 221 240
207 221 240
201 215 234
209 223 242
195 209 228
203 216 236
207 221 240
201 215 234
197 211 230
208 222 241
199 213 233
209 223 242
212 226 245
199 213 233
210 223 242
201 215 234
202 216 236
206 219 238
205 219 238
206 219 238
210 223 242
199 213 233
216 230 249
208 222 241
205 219 238
212 226 245
215 229 248
211 225 244
213 227 246
210 223 242
212 226 245
209 223 242
211 224 244
213 227 246
212 226 245
207 221 240
210 224 244
216 230 249
209 223 242
213 226 245
216 230 249
211 225 244
214 227 246
193 207 227
196 210 230
194 208 227
199 212 231
195 209 228
198 212 231
200 214 234
187 202 221
195 209 228
195 209 228
196 210 230
185 200 220
191 205 226
192 206 226
184 198 218
190 204 224
179 193 212
189 204 224
186 200 220
196 210 230
183 197 217
181 195 215
178 193 212
195 209 228
190 204 223
190 204 224
188 203 223
183 198 218
193 207 227
191 205 224
177 192 212
191 205 224
178 192 212
191 206 226
181 195 215
170 185 206
188 202 221
172 186 206
177 192 212
181 196 217
179 194 214
177 191 211
178 193 214
178 192 212
178 192 211
172 186 206
176 190 211
171 186 206
184 198 218
169 185 206
171 186 206
169 183 203
170 185 206
173 188 207
164 179 199
185 200 220
182 196 217
177 192 212
171 185 204
171 186 206
173 187 207
175 190 211
165 180 201
173 188 209
171 186 207
166 181 201
176 191 211
172 187 207
165 181 201
163 178 198
170 185 206
175 189 209
182 197 217
179 194 214
167 182 203
175 188 207
172 187 207
174 189 209
172 187 207
171 185 206
163 178 199
178 192 212
167 182 203
181 195 215
174 189 209
164 180 201
157 172 193
172 186 206
167 182 203
171 186 206
167 182 203
170 185 206
151 167 188
167 182 201
165 179 199
159 174 194
159 171 189
129 125 129
107 87 72
109 86 68
106 83 66
109 85 67
105 82 66
104 82 66
97 76 64
106 84 69
100 79 64
105 82 66
108 85 68
101 81 64
112 89 70
102 83 66
101 80 64
106 84 68
100 79 62
142 139 145
149 159 178
129 136 159
132 145 144
113 132 116
127 142 157
125 135 157
132 148 169
126 136 159
126 139 160
128 142 163
125 93 93
120 66 59
127 79 76
122 82 76
117 116 115
125 139 156
129 145 165
123 141 154
119 134 157
100 114 134
105 118 139
88 101 115
116 130 150
111 125 144
114 128 148
117 133 155
115 131 152
124 141 162
122 139 163
112 129 151
116 127 145
123 136 156
116 128 148
125 139 161
127 142 162
131 136 144
176 176 176
178 179 181
176 178 181
175 177 181
174 176 181
172 176 181
171 175 181
170 175 181
169 174 181
168 174 181
167 173 181
166 173 181
166 172 181
165 172 181
164 172 181
164 171 181
163 171 181
162 171 181
162 171 181
161 170 181
161 170 181
160 170 181
160 170 181
159 169 181
159 169 181
159 169 181
158 169 181
158 169 181
158 169 181
157 168 181
157 168 181
157 168 181
157 168 181
156 168 181
156 168 181
156 168 181
156 168 181
156 168 181
156 168 181
155 168 181
155 168 181
155 167 181
155 167 181
155 167 181
155 167 181
155 167 181
155 167 181
155 168 181
156 168 181
156 168 181
156 168 181
156 168 181
156 168 181
156 168 181
156 168 181
157 168 181
157 168 181
157 168 181
157 168 181
158 169 181
158 169 181
158 169 181
159 169 181
159 169 181
159 169 181
160 170 181
160 170 181
161 170 181
161 170 181
162 171 181
163 171 181
163 171 181
164 172 181
165 172 181
165 172 181
166 173 181
167 173 181
168 173 181
168 174 181
169 174 181
171 175 181
171 175 181
173 176 181
174 177 181
176 177 181
177 178 181
179 179 181
180 180 182
176 190 209
171 186 206
181 195 214
175 189 209
175 189 209
175 189 209
160 176 198
172 187 207
172 187 207
175 190 211
166 182 203
174 189 209
179 194 214
173 187 207
186 200 220
181 195 215
178 192 212
169 184 204
171 186 206
176 191 211
189 203 223
180 194 214
179 194 214
185 200 220
181 195 215
177 192 212
185 199 218
175 190 211
187 202 221
186 200 220
184 199 218
179 194 214
176 191 211
192 206 226
175 189 209
187 201 221
181 195 215
185 199 218
185 200 220
187 201 221
188 203 223
193 207 227
189 203 223
193 207 226
187 201 220
185 200 220
184 199 218
187 201 221
198 212 231
179 193 212
197 211 230
195 209 228
197 211 230
191 205 224
189 204 224
197 211 230
191 205 224
190 203 223
190 205 224
186 200 220
167 182 203
161 177 198
178 193 214
180 194 214
160 175 196
174 189 209
168 183 203
160 175 196
171 185 206
175 189 209
159 174 194
162 177 198
164 180 201
165 180 201
168 183 203
169 183 203
168 183 203
158 174 194
164 180 201
169 183 203
150 165 184
169 184 204
159 175 196
159 174 194
154 170 191
148 163 184
164 179 199
152 168 189
150 166 188
153 169 191
158 174 194
162 177 198
150 166 188
166 179 198
155 171 191
157 172 193
157 172 193
150 165 186
161 176 196
154 169 189
161 176 198
156 171 191
154 169 189
152 167 188
150 166 188
151 166 186
154 170 191
151 167 188
153 168 189
157 172 193
151 167 190
148 163 184
152 167 188
147 163 184
153 168 189
158 174 194
146 162 184
154 169 189
152 166 186
150 165 186
154 169 189
144 160 182
145 161 182
146 161 182
141 158 181
151 166 188
147 163 184
153 168 188
149 165 186
145 161 182
148 165 188
150 165 186
151 166 188
153 168 189
144 161 182
144 160 182
143 159 181
158 174 194
152 167 188
151 167 188
151 166 188
149 165 186
146 162 184
148 164 186
154 170 191
149 165 186
146 162 184
149 164 184
147 163 184
144 160 182
151 167 188
144 160 182
147 164 186
147 164 186
146 162 184
147 163 184
138 150 168
125 122 129
110 87 70
104 81 66
105 82 66
105 82 66
100 80 64
101 80 66
100 79 64
102 80 64
108 84 69
104 82 67
100 79 64
101 79 63
107 84 67
106 84 66
106 84 67
95 75 61
104 82 66
149 152 161
163 173 194
133 142 157
132 151 140
131 149 138
131 148 167
121 135 155
129 144 163
102 103 124
108 117 136
123 138 161
119 109 99
121 81 68
124 82 68
114 105 74
121 135 143
141 159 185
138 156 183
129 146 167
115 131 157
84 107 140
82 102 134
92 113 146
109 125 147
114 129 148
120 136 158
118 133 151
116 135 154
106 119 141
115 127 149
120 134 155
108 120 137
100 106 122
111 122 143
113 124 143
116 125 145
171 170 171
180 180 181
178 179 181
176 178 181
175 177 181
173 176 181
172 176 181
171 175 181
170 175 181
169 174 181
168 174 181
167 173 181
167 173 181
166 173 181
165 172 181
164 172 181
164 172 181
163 171 181
163 171 181
162 171 181
162 171 181
161 170 181
161 170 181
160 170 181
160 170 181
159 169 181
159 169 181
159 169 181
158 169 181
158 169 181
158 169 181
158 169 181
157 168 181
157 168 181
157 168 181
157 168 181
157 168 181
157 168 181
156 168 181
156 168 181
156 168 181
156 168 181
156 168 181
156 168 181
156 168 181
156 168 181
156 168 181
156 168 181
156 168 181
156 168 181
156 168 181
156 168 181
157 168 181
157 168 181
157 168 181
157 168 181
157 168 181
158 169 181
158 169 181
158 169 181
158 169 181
159 169 181
159 169 181
159 169 181
160 170 181
160 170 181
161 170 181
161 170 181
161 170 181
162 171 181
162 171 181
163 171 181
164 171 181
164 172 181
165 172 181
166 172 181
166 173 181
167 173 181
168 174 181
169 174 181
170 174 181
170 175 181
171 175 181
173 176 181
174 177 181
175 177 181
177 178 181
178 179 181
181 180 181
166 172 181
150 167 189
151 167 188
151 166 188
157 171 191
153 169 189
158 173 194
143 160 182
147 164 186
152 168 189
147 162 183
151 167 188
156 171 193
154 170 191
160 175 194
153 169 191
146 163 184
154 170 191
152 168 189
147 164 186
153 169 191
153 168 189
151 167 188
155 171 193
159 174 194
163 178 199
163 178 198
151 166 186
160 175 196
145 160 181
150 166 188
157 172 193
156 171 191
157 172 193
164 179 199
167 182 201
156 171 191
159 174 194
174 189 209
161 177 198
158 173 194
157 172 193
159 174 195
161 177 198
154 170 193
164 179 199
160 174 194
165 180 199
162 178 199
172 187 207
171 186 206
166 181 201
166 181 201
163 178 198
173 187 207
172 187 207
156 172 193
172 187 208
174 190 211
172 187 207
149 166 188
149 166 188
145 160 181
152 167 188
140 157 179
151 166 188
141 157 179
144 161 182
146 161 182
152 168 189
148 164 184
147 163 184
144 159 181
146 162 182
147 163 184
141 157 179
146 161 182
142 158 181
143 160 182
150 165 186
141 158 181
142 158 179
143 159 181
142 158 181
141 158 181
143 159 181
142 159 181
143 160 182
147 163 184
141 157 179
140 156 178
143 159 181
143 159 181
143 159 181
142 158 181
142 158 179
140 157 179
142 159 181
143 159 181
138 155 177
141 157 179
141 157 179
141 157 179
143 158 179
139 156 179
143 159 181
142 158 179
139 156 177
140 156 179
142 158 181
142 158 179
143 159 181
143 159 181
142 157 179
137 153 175
142 158 179
141 158 181
143 159 181
143 159 181
143 157 177
142 159 181
141 157 179
138 155 179
141 158 181
141 157 179
141 158 181
142 159 181
141 157 179
141 158 181
141 156 177
141 157 179
142 157 179
143 159 181
139 156 177
140 156 177
139 155 177
140 156 179
139 156 179
141 156 179
140 156 177
138 154 175
140 156 177
141 157 179
143 159 181
141 157 179
140 157 179
140 157 179
142 157 177
142 158 179
140 157 179
142 159 181
143 158 179
140 157 179
143 159 181
143 159 181
143 159 181
141 153 171
115 104 102
101 80 64
100 78 62
98 77 63
99 78 62
101 80 64
106 82 66
99 78 61
101 81 66
105 82 66
109 87 69
104 82 66
101 79 63
100 81 64
104 83 66
110 87 69
99 77 63
110 93 82
145 150 164
170 174 203
141 152 164
126 148 113
128 147 149
127 141 159
107 123 135
112 123 141
110 111 136
124 132 157
137 152 172
122 136 143
111 119 86
124 131 104
116 126 122
145 161 183
191 209 236
200 218 249
169 192 223
94 120 157
86 107 140
99 123 156
93 117 148
116 134 155
120 135 153
120 137 161
126 140 158
127 144 165
122 138 159
115 131 151
123 135 154
112 118 146
88 88 113
90 88 115
123 134 154
137 139 145
181 180 181
179 179 181
177 178 181
176 177 181
174 177 181
173 176 181
172 176 181
171 175 181
170 175 181
169 174 181
168 174 181
168 174 181
167 173 181
166 173 181
166 172 181
165 172 181
164 172 181
164 172 181
163 171 181
163 171 181
162 171 181
162 171 181
161 170 181
161 170 181
161 170 181
160 170 181
160 170 181
160 170 181
159 169 181
159 169 181
159 169 181
158 169 181
158 169 181
158 169 181
158 169 181
158 169 181
157 169 181
157 168 181
157 168 181
157 168 181
157 168 181
157 168 181
157 168 181
157 168 181
157 168 181
157 168 181
157 168 181
157 168 181
157 168 181
157 168 181
157 168 181
157 168 181
157 168 181
158 169 181
158 169 181
158 169 181
158 169 181
158 169 181
159 169 181
159 169 181
159 169 181
159 169 181
160 170 181
160 170 181
160 170 181
161 170 181
161 170 181
162 170 181
162 171 181
162 171 181
163 171 181
164 171 181
164 172 181
165 172 181
165 172 181
166 173 181
167 173 181
167 173 181
168 174 181
169 174 181
170 174 181
171 175 181
172 175 181
173 176 181
174 177 181
175 177 181
176 178 181
178 179 181
180 180 181
183 181 181
149 162 181
141 157 179
142 158 181
140 156 179
142 159 181
143 158 179
142 158 179
140 156 177
142 158 179
141 156 177
138 155 177
141 158 181
144 161 182
140 156 179
139 156 179
142 157 179
141 157 179
141 157 179
141 158 181
145 161 182
141 158 181
144 159 179
141 158 181
141 158 181
142 159 181
141 158 181
142 158 179
142 158 181
143 159 181
144 160 182
147 163 184
142 158 179
144 161 182
144 160 181
138 154 175
142 158 179
144 160 182
144 160 182
146 162 182
143 159 181
144 160 181
144 159 181
148 164 186
145 160 181
143 159 181
147 163 184
146 162 184
146 161 182
146 161 182
145 161 182
144 160 181
143 159 181
146 161 182
145 162 184
160 174 194
146 162 183
138 154 177
145 162 184
145 162 185
139 156 179
140 157 179
145 160 181
142 159 181
143 159 181
142 159 181
143 159 181
140 157 178
140 158 181
142 159 181
138 154 175
143 159 181
141 158 181
141 158 181
140 157 179
143 158 179
141 158 181
143 159 181
142 159 181
139 155 177
142 157 179
144 159 181
137 154 177
141 157 179
140 156 177
139 155 177
141 158 181
141 157 179
144 159 179
138 155 177
144 159 181
145 160 181
141 157 179
142 158 179
139 155 177
143 159 181
141 158 181
139 155 177
140 156 179
143 159 181
139 155 177
143 159 181
141 158 180
141 157 179
141 157 179
138 154 175
143 159 181
146 160 181
140 156 177
142 158 179
140 157 179
142 159 181
144 160 181
142 158 179
142 159 181
141 157 179
141 158 181
143 159 181
143 159 181
145 160 181
142 158 179
142 158 179
142 158 181
141 157 179
142 159 181
140 156 179
137 154 177
144 160 181
143 159 181
142 159 181
143 159 181
140 156 179
140 156 178
142 159 181
140 157 179
144 160 181
144 160 181
140 157 179
144 159 179
142 159 181
142 158 181
139 155 177
140 158 181
141 158 181
145 160 181
141 157 179
141 157 179
143 159 181
142 158 180
140 157 179
138 155 177
141 157 179
140 156 178
138 155 177
140 157 179
143 159 181
140 152 170
113 105 105
107 85 69
95 76 61
103 81 66
101 81 65
101 80 64
96 74 60
105 83 67
109 86 69
107 83 67
102 80 64
110 85 69
104 82 65
100 78 64
99 78 64
103 83 66
101 80 64
114 101 104
151 157 176
165 164 205
150 162 176
139 160 136
133 150 157
130 146 164
126 141 143
118 116 139
126 121 152
127 134 160
131 146 168
132 148 168
127 143 164
136 150 169
131 145 164
148 177 184
152 154 174
168 165 191
144 163 195
103 127 164
100 122 154
90 108 135
90 109 129
112 127 152
123 139 158
129 145 166
124 137 158
123 136 152
140 158 181
130 143 168
107 108 141
104 97 136
97 92 126
106 103 137
100 97 130
158 158 159
180 180 181
178 179 181
177 178 181
175 177 181
174 177 181
173 176 181
172 176 181
171 175 181
170 175 181
170 174 181
169 174 181
168 174 181
167 173 181
167 173 181
166 173 181
165 172 181
165 172 181
164 172 181
164 172 181
163 171 181
163 171 181
162 171 181
162 171 181
162 171 181
161 170 181
161 170 181
161 170 181
160 170 181
160 170 181
160 170 181
159 169 181
159 169 181
159 169 181
159 169 181
159 169 181
158 169 181
158 169 181
158 169 181
158 169 181
158 169 181
158 169 181
158 169 181
158 169 181
158 169 181
158 169 181
158 169 181
158 169 181
158 169 181
158 169 181
158 169 181
158 169 181
158 169 181
158 169 181
158 169 181
158 169 181
159 169 181
159 169 181
159 169 181
159 169 181
160 169 181
160 170 181
160 170 181
160 170 181
161 170 181
161 170 181
161 170 181
162 171 181
162 171 181
163 171 181
163 171 181
164 171 181
164 172 181
165 172 181
165 172 181
166 172 181
166 173 181
167 173 181
168 173 181
168 174 181
169 174 181
170 175 181
171 175 181
172 175 181
173 176 181
174 177 181
175 177 181
176 178 181
178 178 181
179 179 181
181 180 181
170 174 181
139 156 179
140 158 181
139 155 177
138 155 177
141 156 177
142 159 181
141 158 181
140 157 179
141 157 179
142 158 181
143 159 181
141 158 181
143 159 181
140 157 179
142 158 179
144 159 181
140 156 179
143 158 179
137 153 175
141 158 181
141 158 181
138 156 179
137 153 173
143 159 181
145 160 181
142 158 181
140 156 178
143 159 181
141 156 177
142 158 181
142 157 179
137 153 175
137 156 177
140 156 173
133 151 169
132 149 168
132 149 168
143 159 179
140 157 179
143 159 181
141 158 181
142 158 179
143 158 180
144 159 181
143 159 181
144 160 181
143 159 181
142 158 181
140 157 179
141 157 179
143 159 181
143 159 181
142 158 181
127 143 170
124 140 168
109 125 160
127 144 174
132 147 170
141 158 181
142 158 181
140 157 179
140 156 179
142 159 181
141 157 177
141 158 181
140 156 177
143 159 181
140 157 179
142 158 181
139 155 177
143 159 181
143 159 181
145 160 181
141 157 179
141 157 179
143 159 181
145 160 181
142 158 179
140 156 177
140 156 177
140 157 181
144 160 181
142 159 181
140 157 179
142 157 177
140 157 179
142 159 181
143 159 181
138 155 175
141 157 179
140 157 179
141 157 179
143 158 179
139 156 179
139 156 177
144 160 181
143 159 181
140 158 181
136 153 175
143 159 181
143 158 179
140 157 181
142 159 181
141 157 179
139 156 179
139 155 177
143 159 181
142 159 181
141 157 179
140 156 179
143 159 181
143 159 181
137 153 175
142 158 181
143 159 181
141 157 179
140 156 176
142 159 181
144 159 181
144 159 181
144 160 181
142 159 181
137 154 175
143 159 181
141 157 179
141 157 179
142 158 179
138 155 177
141 157 179
140 158 181
143 159 181
140 157 179
140 157 179
142 158 180
141 157 179
138 155 177
144 159 181
139 154 175
141 157 179
142 158 181
141 157 179
143 159 181
140 156 177
140 158 181
142 158 179
139 156 179
141 157 179
143 159 181
143 159 181
144 160 181
141 157 179
143 159 181
142 158 179
144 159 181
137 151 171
119 116 123
109 85 68
107 85 68
99 77 62
111 86 69
100 79 62
108 84 67
108 86 69
98 77 63
98 79 63
112 88 70
101 80 65
112 87 69
102 80 64
111 87 70
102 80 65
105 81 64
123 118 121
148 156 174
166 174 203
118 134 139
119 141 127
130 147 163
125 142 150
130 141 135
122 117 147
125 119 155
143 154 179
133 148 169
140 155 176
132 149 169
134 148 168
128 143 163
117 138 149
119 132 149
138 153 177
121 149 191
148 185 238
142 179 234
104 115 136
134 162 203
134 152 180
123 141 158
122 136 154
129 143 164
131 146 167
128 145 164
120 130 155
115 107 149
116 113 156
109 97 133
95 84 111
141 139 150
182 181 181
180 180 181
178 179 181
177 178 181
175 177 181
174 177 181
173 176 181
172 176 181
171 175 181
171 175 181
170 175 181
169 174 181
168 174 181
168 174 181
167 173 181
167 173 181
166 173 181
165 172 181
165 172 181
164 172 181
164 172 181
163 171 181
163 171 181
163 171 181
162 171 181
162 171 181
162 171 181
161 170 181
161 170 181
161 170 181
161 170 181
160 170 181
160 170 181
160 170 181
160 170 181
159 169 181
159 169 181
159 169 181
159 169 181
159 169 181
159 169 181
159 169 181
159 169 181
159 169 181
159 169 181
159 169 181
159 169 181
159 169 181
159 169 181
159 169 181
159 169 181
159 169 181
159 169 181
159 169 181
159 169 181
159 169 181
160 170 181
160 170 181
160 170 181
160 170 181
160 170 181
161 170 181
161 170 181
161 170 181
162 170 181
162 171 181
162 171 181
162 171 181
163 171 181
163 171 181
164 172 181
164 172 181
165 172 181
165 172 181
166 172 181
166 173 181
167 173 181
167 173 181
168 174 181
169 174 181
169 174 181
170 175 181
171 175 181
172 176 181
173 176 181
174 177 181
175 177 181
176 178 181
177 178 181
179 179 181
181 180 181
183 181 181
153 164 181
144 159 181
137 153 173
142 159 181
143 159 181
143 164 187
139 156 177
140 158 179
143 159 181
145 160 181
142 158 179
140 157 179
142 158 179
143 159 181
141 157 178
145 160 181
146 161 181
141 157 179
141 157 179
140 156 179
143 159 181
140 157 179
138 155 177
142 158 179
140 156 177
138 154 175
142 160 183
142 159 182
145 163 189
144 160 183
140 157 180
134 152 171
128 147 164
116 141 149
106 132 139
111 137 143
122 140 154
132 149 167
143 159 181
141 157 177
143 159 181
138 154 176
142 158 179
143 159 181
140 157 179
140 157 179
141 157 179
142 158 179
141 160 176
141 163 177
137 155 174
137 154 177
128 142 168
112 127 158
102 117 155
86 101 143
89 104 152
90 106 147
142 158 179
142 158 179
138 155 177
142 159 181
141 158 181
139 156 178
141 157 179
142 159 181
141 158 181
141 158 181
140 157 179
140 156 177
142 157 177
140 157 181
143 159 181
143 158 179
140 157 179
141 158 181
142 158 181
140 157 178
142 158 179
140 157 179
140 156 177
142 159 181
140 155 176
139 156 179
142 159 181
141 157 179
138 154 176
142 158 181
143 158 179
142 157 179
144 160 181
144 160 181
137 154 175
144 160 181
143 159 181
140 158 181
140 156 179
140 156 177
143 159 181
140 156 179
141 157 179
139 155 177
143 159 181
142 158 179
141 157 179
142 159 181
140 157 179
141 158 181
143 159 181
142 158 181
143 159 180
143 159 181
141 157 179
143 159 181
140 157 179
142 158 180
141 156 178
138 155 177
141 157 179
141 157 179
143 159 181
141 158 181
141 157 179
140 156 177
139 155 177
142 158 181
139 156 177
141 157 179
140 157 179
142 159 181
143 159 181
143 159 181
141 157 179
139 156 179
141 158 179
141 156 177
141 157 179
140 157 179
140 158 181
140 157 179
142 158 179
142 158 179
143 159 181
141 157 178
142 158 179
142 159 181
142 159 181
142 159 181
140 156 177
144 159 181
142 159 181
139 154 175
138 155 177
140 156 177
139 152 171
121 116 120
111 93 80
104 81 65
97 77 61
108 85 69
104 83 66
101 82 65
98 78 63
97 77 62
100 78 63
107 84 67
95 74 60
104 82 66
107 85 67
99 78 62
102 80 64
103 81 64
143 142 148
141 152 184
153 167 192
102 124 125
91 117 126
91 129 141
121 140 139
133 148 137
133 124 162
132 129 162
136 147 170
141 157 177
138 151 173
141 156 176
141 155 178
137 151 171
123 139 157
136 153 175
138 154 175
130 159 197
138 178 237
133 176 237
134 178 240
144 180 228
116 132 147
120 135 147
123 137 151
120 134 152
129 143 161
129 141 163
118 128 149
162 150 209
165 152 214
148 134 183
105 86 107
166 164 168
181 180 181
179 179 181
178 179 181
177 178 181
175 177 181
174 177 181
173 176 181
173 176 181
172 176 181
171 175 181
170 175 181
170 174 181
169 174 181
168 174 181
168 173 181
167 173 181
167 173 181
166 173 181
166 172 181
165 172 181
165 172 181
164 172 181
164 172 181
164 171 181
163 171 181
163 171 181
163 171 181
162 171 181
162 171 181
162 170 181
161 170 181
161 170 181
161 170 181
161 170 181
161 170 181
160 170 181
160 170 181
160 170 181
160 170 181
160 170 181
160 170 181
160 170 181
160 170 181
160 170 181
160 170 181
160 170 181
160 170 181
160 170 181
159 169 181
160 170 181
160 170 181
160 170 181
160 170 181
160 170 181
160 170 181
160 170 181
160 170 181
161 170 181
161 170 181
161 170 181
161 170 181
161 170 181
162 171 181
162 171 181
162 171 181
163 171 181
163 171 181
163 171 181
164 171 181
164 172 181
164 172 181
165 172 181
165 172 181
166 173 181
166 173 181
167 173 181
167 173 181
168 174 181
168 174 181
169 174 181
170 175 181
170 175 181
171 175 181
172 176 181
173 176 181
174 177 181
175 177 181
176 178 181
177 178 181
178 179 181
180 180 181
182 181 181
160 167 179
139 155 177
142 158 181
141 157 177
143 164 187
144 170 194
140 169 192
143 173 198
132 162 186
135 155 176
146 163 184
142 159 181
140 157 179
141 157 179
138 154 175
142 158 180
141 158 180
143 158 179
142 158 181
140 156 177
140 157 179
141 158 180
142 159 181
139 155 176
137 153 175
148 165 189
146 167 200
148 171 207
147 173 207
136 162 192
133 154 180
123 148 164
96 127 134
84 119 117
77 113 105
82 118 109
86 116 113
111 135 145
123 144 160
142 159 181
143 158 179
142 158 179
143 159 181
142 158 179
139 156 179
142 158 181
138 156 177
135 163 174
132 160 168
127 168 168
133 164 171
126 153 165
105 121 159
61 77 132
40 58 121
22 47 123
19 45 122
54 72 136
138 155 177
142 158 179
143 159 181
142 158 181
141 156 177
140 158 181
138 154 175
142 159 181
139 156 179
142 158 179
142 159 181
142 158 179
140 157 181
140 156 177
141 157 179
143 159 181
143 158 179
142 160 181
142 158 181
141 158 180
144 159 179
140 157 179
141 158 181
143 158 179
144 160 181
142 159 181
142 158 179
145 160 181
143 159 181
142 158 179
142 158 179
141 157 179
142 158 179
140 157 179
143 159 181
143 159 181
144 160 181
143 159 181
139 156 179
142 158 181
143 159 181
138 156 179
138 155 177
143 159 181
144 160 181
140 156 177
144 159 179
142 159 181
142 158 179
143 159 179
139 156 179
144 159 179
141 158 181
141 156 177
140 157 179
143 159 179
141 157 177
143 159 179
141 157 179
142 158 181
140 156 177
142 158 179
141 157 179
142 159 181
141 158 180
139 154 178
139 154 177
141 157 179
141 157 179
139 156 179
140 156 179
141 158 179
140 157 179
142 158 181
141 157 179
142 158 181
138 154 176
140 156 179
142 158 179
143 159 181
140 158 181
139 155 177
142 157 177
144 160 181
140 157 179
141 157 179
141 157 179
142 158 181
141 157 179
142 158 179
141 158 181
140 157 179
141 158 181
144 161 182
142 162 184
136 156 179
138 160 183
128 135 146
102 84 73
101 79 62
107 84 68
95 73 58
99 78 63
94 73 58
106 81 65
97 77 61
100 79 64
102 80 64
104 81 65
103 79 63
100 78 63
107 84 67
95 74 59
101 82 67
131 132 139
139 149 182
135 149 172
122 139 151
85 126 129
73 134 143
125 146 140
141 161 143
144 151 178
142 153 178
148 164 185
129 142 164
133 148 170
130 141 161
134 149 170
134 145 166
137 150 171
142 160 180
139 155 176
113 117 129
144 184 226
139 182 240
145 186 227
138 179 181
110 139 107
127 143 153
119 138 149
128 144 159
129 146 165
112 132 142
124 138 154
169 156 218
171 164 232
158 150 217
134 122 162
181 179 179
181 180 181
179 179 181
178 179 181
177 178 181
176 178 181
175 177 181
174 177 181
173 176 181
172 176 181
171 175 181
171 175 181
170 175 181
169 174 181
169 174 181
168 174 181
168 174 181
167 173 181
167 173 181
166 173 181
166 173 181
165 172 181
165 172 181
165 172 181
164 172 181
164 172 181
164 171 181
163 171 181
163 171 181
163 171 181
162 171 181
162 171 181
162 171 181
162 171 181
162 171 181
161 170 181
161 170 181
161 170 181
161 170 181
161 170 181
161 170 181
161 170 181
161 170 181
161 170 181
161 170 181
161 170 181
161 170 181
160 170 181
160 170 181
161 170 181
161 170 181
161 170 181
161 170 181
161 170 181
161 170 181
161 170 181
161 170 181
161 170 181
162 170 181
162 171 181
162 171 181
162 171 181
162 171 181
163 171 181
163 171 181
163 171 181
163 171 181
164 172 181
164 172 181
164 172 181
165 172 181
165 172 181
166 172 181
166 173 181
166 173 181
167 173 181
167 173 181
168 174 181
168 174 181
169 174 181
170 174 181
170 175 181
171 175 181
172 175 181
172 176 181
173 176 181
174 177 181
175 177 181
176 178 181
177 178 181
178 179 181
180 180 181
181 180 181
178 178 181
141 156 176
137 154 175
141 161 182
147 180 205
120 161 183
127 172 197
105 145 165
105 136 154
124 153 172
128 152 171
143 158 179
142 158 179
142 159 181
139 157 179
144 158 180
143 155 184
144 157 186
142 158 179
141 156 179
142 159 181
143 158 179
139 155 177
140 158 181
143 160 183
156 177 209
161 186 224
155 183 223
134 169 207
100 134 158
108 142 165
95 131 149
85 125 132
63 105 98
57 97 80
58 100 83
53 92 77
89 120 119
119 140 150
130 147 164
137 153 166
132 149 155
129 146 157
137 153 171
136 153 172
137 159 173
126 152 159
113 166 150
92 179 128
106 174 145
96 168 131
99 159 140
75 119 130
54 76 133
5 40 117
5 37 112
49 58 121
73 74 126
140 156 177
141 157 179
141 157 179
142 159 181
141 158 181
142 158 179
138 155 177
139 154 175
140 157 179
144 160 181
138 154 175
137 154 177
139 155 177
143 159 181
145 162 182
154 177 189
153 176 190
151 175 188
146 166 184
143 159 179
141 158 181
139 155 175
136 153 173
135 150 168
131 146 162
138 154 177
143 159 181
142 158 180
141 156 177
138 154 176
140 157 179
145 160 181
143 159 181
137 153 174
137 154 177
144 160 181
142 158 179
140 156 177
140 156 177
140 157 179
141 158 181
141 158 181
141 158 181
141 158 181
141 158 179
140 157 179
141 157 179
140 157 179
142 159 181
143 159 181
141 158 181
143 159 181
142 157 179
143 159 181
144 160 181
139 155 176
143 159 181
142 160 181
142 161 182
136 154 176
142 161 180
143 160 179
137 151 179
129 140 174
125 136 169
128 139 175
117 128 166
138 151 179
137 152 178
142 158 179
144 159 181
139 157 178
141 159 179
139 156 176
142 159 180
140 158 181
143 158 179
140 157 180
138 153 174
144 160 181
141 158 181
142 158 179
139 154 175
144 160 181
141 156 180
132 144 179
139 152 179
138 151 179
141 157 179
143 158 179
142 159 181
142 157 179
137 154 175
143 162 184
141 172 197
144 179 206
144 189 218
128 156 176
114 108 106
98 77 60
103 81 65
97 77 62
102 81 64
97 77 62
105 81 66
93 74 60
99 79 63
96 75 60
101 80 64
95 74 61
101 78 64
103 80 64
97 78 61
101 79 63
134 132 153
143 152 172
136 151 167
120 139 176
95 133 136
86 143 154
98 125 143
158 177 185
149 165 188
136 150 169
135 142 164
116 116 136
114 123 144
121 129 145
118 115 123
136 138 163
160 151 187
152 148 177
135 118 140
96 46 46
147 186 184
142 196 200
145 197 195
141 187 163
111 146 72
121 148 120
118 136 154
113 126 146
121 137 154
114 141 146
79 137 98
84 130 108
155 161 208
167 156 231
167 162 183
182 181 181
180 180 181
179 179 181
178 179 181
177 178 181
176 178 181
175 177 181
174 177 181
173 176 181
173 176 181
172 176 181
171 175 181
171 175 181
170 175 181
169 174 181
169 174 181
168 174 181
168 174 181
167 173 181
167 173 181
167 173 181
166 173 181
166 173 181
165 172 181
165 172 181
165 172 181
164 172 181
164 172 181
164 172 181
164 172 181
163 171 181
163 171 181
163 171 181
163 171 181
163 171 181
162 171 181
162 171 181
162 171 181
162 171 181
162 171 181
162 171 181
162 171 181
162 170 181
161 170 181
161 170 181
161 170 181
161 170 181
161 170 181
162 170 181
162 170 181
162 170 181
162 171 181
162 171 181
162 171 181
162 171 181
162 171 181
162 171 181
162 171 181
162 171 181
163 171 181
163 171 181
163 171 181
163 171 181
163 171 181
164 172 181
164 172 181
164 172 181
165 172 181
165 172 181
165 172 181
165 172 181
166 173 181
166 173 181
167 173 181
167 173 181
168 173 181
168 174 181
169 174 181
169 174 181
170 174 181
170 175 181
171 175 181
171 175 181
172 176 181
173 176 181
174 176 181
174 177 181
175 177 181
176 178 181
177 178 181
178 179 181
180 180 181
181 180 181
183 181 181
153 162 176
145 164 185
134 164 185
130 169 190
90 135 150
79 133 150
62 114 126
68 119 134
83 121 134
104 131 147
125 147 165
143 159 181
144 158 183
146 157 186
155 164 203
157 163 211
165 167 219
148 158 194
150 159 195
144 159 182
139 156 178
141 156 177
142 158 181
153 171 198
155 175 206
152 179 218
125 159 192
119 157 191
88 131 155
80 121 142
78 120 136
82 121 134
84 115 121
63 104 100
54 94 78
54 94 77
66 100 83
97 120 116
114 133 134
115 133 125
110 130 108
111 130 117
121 137 141
127 143 150
130 151 166
116 147 150
83 167 117
67 174 102
67 179 105
65 170 100
67 161 108
57 140 110
28 84 105
5 38 114
63 67 125
99 96 142
135 126 162
141 157 179
137 154 177
144 160 181
140 156 178
143 159 181
140 156 177
139 155 177
139 156 179
139 156 178
139 155 177
139 155 177
142 159 181
147 163 182
150 169 184
150 172 186
164 197 205
163 196 205
167 200 207
162 190 199
156 180 191
134 150 162
121 136 150
109 122 126
99 109 107
104 116 120
123 135 148
130 145 162
141 151 177
140 157 180
143 159 181
141 157 179
140 157 179
143 159 181
140 157 177
140 157 179
140 156 177
142 158 179
142 159 181
136 154 177
142 158 181
142 159 181
142 158 179
137 154 177
143 159 181
138 152 174
141 158 181
140 156 177
141 157 179
142 158 181
142 158 179
141 158 181
139 155 177
141 157 179
141 154 183
140 152 179
141 155 180
139 156 181
146 170 186
147 177 188
152 187 197
145 183 192
145 177 189
133 154 178
109 115 162
98 100 154
96 95 156
97 100 153
114 123 160
129 142 172
134 153 171
128 153 165
128 156 167
124 154 162
131 161 172
126 154 169
138 155 174
139 156 176
141 157 179
139 157 181
142 158 179
137 154 177
140 157 179
140 157 179
135 148 173
138 149 185
124 128 182
118 118 177
126 128 186
132 141 183
138 152 181
141 157 179
140 157 178
141 163 186
148 191 218
148 205 236
141 206 243
141 205 241
134 186 216
104 108 112
104 82 66
99 77 62
92 73 59
93 72 58
105 82 66
100 78 63
108 84 66
101 80 63
99 78 62
100 80 64
91 72 58
94 72 58
108 83 67
107 84 66
102 81 65
127 125 140
124 115 133
135 154 154
143 166 164
110 133 138
115 134 145
116 135 170
122 141 171
119 133 150
134 151 167
144 148 172
119 51 95
126 123 147
126 127 142
142 104 94
142 143 163
181 175 222
185 181 233
129 93 116
120 85 89
122 131 140
138 182 184
131 173 126
131 171 88
123 161 95
126 153 119
119 135 155
117 128 145
127 138 157
82 142 104
73 147 88
58 161 80
67 128 88
125 94 141
176 174 175
182 181 181
180 180 181
179 179 181
178 179 181
177 178 181
176 178 181
175 177 181
174 177 181
174 176 181
173 176 181
172 176 181
172 175 181
171 175 181
171 175 181
170 175 181
170 174 181
169 174 181
169 174 181
168 174 181
168 174 181
167 173 181
167 173 181
167 173 181
166 173 181
166 173 181
166 172 181
165 172 181
165 172 181
165 172 181
165 172 181
164 172 181
164 172 181
164 172 181
164 172 181
164 171 181
163 171 181
163 171 181
163 171 181
163 171 181
163 171 181
163 171 181
163 171 181
163 171 181
163 171 181
163 171 181
163 171 181
162 171 181
162 171 181
163 171 181
162 171 181
162 171 181
163 171 181
163 171 181
163 171 181
163 171 181
163 171 181
163 171 181
163 171 181
163 171 181
164 171 181
164 172 181
164 172 181
164 172 181
164 172 181
164 172 181
165 172 181
165 172 181
165 172 181
166 173 181
166 173 181
166 173 181
167 173 181
167 173 181
167 173 181
168 174 181
168 174 181
169 174 181
169 174 181
170 175 181
170 175 181
171 175 181
171 175 181
172 176 181
173 176 181
173 176 181
174 177 181
175 177 181
175 177 181
176 178 181
177 178 181
178 179 181
180 179 181
181 180 181
183 181 181
161 164 173
137 156 177
113 147 164
90 127 141
51 101 111
22 83 92
31 92 105
34 93 108
50 93 107
66 102 118
124 145 165
138 154 175
152 161 195
161 164 209
165 166 222
168 167 232
169 169 231
171 169 232
162 165 211
156 163 199
143 157 182
144 160 181
145 161 185
144 161 187
151 173 206
130 158 189
126 159 189
86 132 152
87 126 143
97 128 147
114 139 158
107 134 155
107 132 147
90 116 121
83 113 110
52 90 74
66 97 77
86 112 86
98 119 91
100 120 81
94 113 67
99 118 79
107 108 115
117 108 144
108 118 139
109 108 142
88 149 124
72 134 102
59 168 95
59 169 94
55 154 89
52 152 97
34 100 96
4 32 97
102 96 134
139 131 159
177 161 184
137 154 178
140 157 179
141 158 181
143 157 177
141 157 179
137 153 175
139 156 180
143 159 181
144 159 179
138 154 177
139 156 177
139 154 176
150 170 184
159 184 192
172 206 209
173 214 217
172 212 215
174 212 215
171 208 212
146 174 174
121 141 137
76 87 70
75 84 57
89 77 89
104 87 114
125 111 152
139 120 170
144 121 179
141 143 179
139 150 179
139 156 178
142 159 181
139 156 179
144 159 179
140 157 179
142 158 181
139 156 179
138 154 175
139 155 178
142 158 179
144 160 181
142 158 179
140 156 177
141 157 179
139 156 177
142 159 181
142 158 181
141 158 181
140 156 177
142 158 179
141 157 177
142 159 181
140 143 187
140 131 192
140 126 196
142 126 200
147 152 199
153 175 204
153 185 205
156 204 208
156 206 210
152 199 205
139 171 187
117 138 168
96 109 151
80 73 150
77 72 145
81 79 139
107 119 155
119 147 159
113 146 152
101 148 140
100 158 140
110 161 151
111 154 150
124 159 165
136 156 175
140 156 177
142 159 181
144 159 179
143 159 181
141 159 182
143 157 182
125 131 181
112 105 186
109 94 187
104 82 195
94 70 185
111 98 186
119 122 182
129 137 182
142 162 184
150 181 203
147 201 228
150 214 247
148 217 253
147 216 253
141 199 230
122 141 153
103 81 65
104 81 65
91 72 58
102 79 64
109 85 68
91 72 57
100 78 62
100 78 63
102 80 65
105 82 65
102 80 64
102 79 62
95 75 61
94 73 58
104 82 65
135 141 156
146 153 173
133 151 164
127 141 154
148 145 170
122 113 132
123 137 162
111 120 142
141 163 170
123 150 151
116 112 137
142 80 127
163 161 197
142 104 103
161 111 96
100 85 94
131 134 167
156 156 192
125 107 121
126 116 129
187 204 228
156 173 193
142 170 146
129 165 102
156 186 153
162 183 182
137 157 180
113 125 139
111 107 121
86 124 77
74 170 99
49 155 76
85 158 111
128 133 145
182 180 179
182 181 181
180 180 181
179 179 181
178 179 181
177 178 181
176 178 181
176 177 181
175 177 181
174 177 181
174 176 181
173 176 181
172 176 181
172 176 181
171 175 181
171 175 181
170 175 181
170 174 181
169 174 181
169 174 181
168 174 181
168 174 181
168 174 181
167 173 181
167 173 181
167 173 181
167 173 181
166 173 181
166 173 181
166 173 181
165 172 181
165 172 181
165 172 181
165 172 181
165 172 181
165 172 181
164 172 181
164 172 181
164 172 181
164 172 181
164 172 181
164 172 181
164 172 181
164 172 181
164 172 181
164 171 181
163 171 181
164 171 181
164 171 181
164 171 181
164 171 181
164 171 181
164 172 181
164 172 181
164 172 181
164 172 181
164 172 181
164 172 181
164 172 181
164 172 181
164 172 181
165 172 181
165 172 181
165 172 181
165 172 181
166 172 181
166 173 181
166 173 181
166 173 181
167 173 181
167 173 181
167 173 181
168 173 181
168 174 181
168 174 181
169 174 181
169 174 181
169 174 181
170 175 181
170 175 181
171 175 181
171 175 181
172 176 181
172 176 181
173 176 181
174 176 181
174 177 181
175 177 181
176 178 181
177 178 181
178 178 181
178 179 181
180 180 181
181 180 181
182 181 181
176 174 174
133 147 163
107 136 151
74 115 127
39 94 107
36 92 108
45 103 125
48 100 125
43 95 116
70 112 130
110 137 153
136 153 176
153 161 199
161 161 207
175 170 234
172 170 238
175 171 238
175 171 237
180 173 236
161 164 206
147 159 186
142 158 179
139 155 178
144 161 187
142 162 192
127 152 181
100 135 158
88 122 138
100 126 143
117 138 158
120 140 161
128 144 168
129 147 169
114 135 148
96 120 128
78 105 99
67 94 71
83 104 74
92 109 71
92 111 73
96 115 86
100 106 100
100 92 114
105 77 130
109 70 139
107 91 140
98 87 131
89 111 121
64 131 92
58 155 90
50 145 79
49 145 91
36 98 89
64 83 106
125 119 143
170 154 171
189 169 188
117 141 191
135 152 181
140 157 179
138 153 175
141 156 179
142 158 179
142 159 181
142 159 181
143 159 181
140 157 179
141 158 181
136 152 173
155 175 188
174 201 200
183 217 215
182 219 218
180 218 218
170 205 204
155 186 184
145 168 168
128 139 144
91 97 95
105 86 109
116 84 133
138 72 163
147 75 177
158 89 188
155 100 191
148 127 182
143 135 179
143 158 181
141 155 178
139 156 179
143 159 181
144 160 181
140 156 179
139 156 179
141 157 179
137 154 175
140 157 180
141 157 179
141 158 181
140 157 181
141 157 179
140 157 179
139 156 177
144 159 181
142 158 179
140 157 180
144 159 181
134 151 174
141 146 185
135 115 193
136 85 211
135 52 220
142 61 229
134 85 205
142 122 217
153 186 215
159 208 214
161 213 214
163 211 210
153 197 199
126 157 173
96 106 151
75 73 137
69 64 131
75 72 139
87 103 140
85 126 125
96 149 134
85 150 124
86 155 129
82 147 125
86 151 128
93 142 132
119 152 160
137 154 174
142 159 181
141 156 177
148 165 188
145 159 181
139 155 178
130 142 178
127 131 189
96 70 186
83 42 182
84 37 184
86 52 180
105 94 183
121 129 173
141 159 184
142 178 202
148 203 230
142 201 234
153 219 250
138 197 226
148 213 242
117 141 151
97 88 84
96 75 61
89 69 54
92 72 58
97 77 62
98 76 61
95 74 58
96 75 61
95 75 60
96 74 60
93 74 60
103 81 66
95 76 61
104 82 65
111 92 82
156 163 175
187 201 220
161 179 197
136 150 164
163 175 191
121 115 141
150 157 188
124 128 154
115 141 140
114 141 155
93 115 140
148 128 157
146 150 183
133 137 150
164 155 164
100 108 135
87 99 121
122 144 150
126 145 162
147 160 182
141 155 175
151 165 183
142 158 181
150 168 180
166 188 201
156 181 216
148 175 220
93 125 128
99 105 114
129 90 107
106 148 104
83 175 114
126 157 154
149 153 156
183 181 181
182 181 181
180 180 181
179 179 181
178 179 181
178 179 181
177 178 181
176 178 181
175 177 181
175 177 181
174 177 181
173 176 181
173 176 181
172 176 181
172 176 181
171 175 181
171 175 181
170 175 181
170 175 181
170 175 181
169 174 181
169 174 181
169 174 181
168 174 181
168 174 181
168 174 181
167 173 181
167 173 181
167 173 181
167 173 181
167 173 181
166 173 181
166 173 181
166 173 181
166 173 181
166 172 181
165 172 181
165 172 181
165 172 181
165 172 181
165 172 181
165 172 181
165 172 181
165 172 181
165 172 181
165 172 181
165 172 181
165 172 181
165 172 181
165 172 181
165 172 181
165 172 181
165 172 181
165 172 181
165 172 181
165 172 181
165 172 181
165 172 181
165 172 181
165 172 181
166 172 181
166 173 181
166 173 181
166 173 181
166 173 181
166 173 181
167 173 181
167 173 181
167 173 181
167 173 181
168 174 181
168 174 181
168 174 181
169 174 181
169 174 181
169 174 181
170 175 181
170 175 181
171 175 181
171 175 181
171 175 181
172 176 181
173 176 181
173 176 181
174 176 181
174 177 181
175 177 181
175 177 181
176 178 181
177 178 181
178 179 181
179 179 181
180 180 181
181 180 181
182 181 181
184 182 181
125 133 147
91 117 130
59 100 115
37 86 103
44 93 116
48 97 123
50 101 128
55 99 115
66 108 121
99 143 141
115 146 150
143 161 179
156 170 199
170 167 219
171 166 222
175 168 230
179 171 233
166 158 212
159 158 202
139 150 178
142 159 181
139 155 176
131 147 171
134 152 178
105 129 154
84 119 139
88 115 131
125 144 162
125 142 160
127 142 162
126 143 164
136 155 179
141 160 180
113 130 145
93 115 119
85 103 92
82 99 74
105 123 115
115 136 150
115 132 140
115 114 145
118 114 162
114 95 151
96 62 124
98 64 128
97 68 125
90 77 118
82 119 112
53 146 82
55 155 86
65 158 100
78 136 116
90 105 121
108 107 133
141 126 139
148 126 148
92 120 186
119 137 188
129 137 177
134 135 188
141 146 186
135 144 176
140 152 177
141 158 181
140 158 181
141 156 177
142 158 181
146 163 181
159 182 190
175 202 198
176 201 196
175 204 201
165 194 192
160 180 185
146 161 168
126 134 145
141 144 166
129 128 155
137 120 158
144 122 171
144 91 176
156 74 189
138 65 170
147 70 181
148 81 180
145 131 179
144 142 181
139 152 176
138 155 177
138 155 177
142 158 179
142 159 181
141 157 179
139 156 179
141 157 179
139 154 175
138 156 179
141 158 181
140 156 177
138 155 177
138 154 175
142 158 179
139 156 179
136 153 176
139 155 178
142 158 179
141 152 182
142 123 205
131 60 207
140 27 228
138 16 225
131 16 220
122 16 219
122 86 211
111 125 195
125 155 202
138 177 199
155 201 202
142 189 181
124 157 164
88 102 139
81 85 138
67 61 126
67 61 124
71 86 127
80 134 127
70 120 107
79 141 118
79 145 120
80 146 123
75 136 122
82 144 127
110 149 152
135 155 173
140 156 177
144 161 183
136 153 177
147 164 190
138 155 179
129 142 173
123 133 170
121 124 179
86 65 167
82 42 172
83 36 181
89 53 184
105 99 179
131 148 181
130 160 181
129 174 198
118 165 198
123 175 203
116 163 194
134 188 214
125 157 183
108 105 116
109 85 68
93 73 58
107 84 66
88 68 53
102 79 64
101 80 64
89 69 54
93 72 58
92 71 56
86 69 54
92 73 58
92 73 57
94 73 58
95 79 74
155 162 182
201 211 236
211 224 242
208 222 241
201 216 231
187 200 224
188 198 225
186 201 217
153 178 188
161 178 201
166 184 214
161 175 195
153 176 198
162 185 206
151 167 188
139 153 173
101 114 130
120 133 154
147 163 185
117 131 159
141 158 182
142 157 176
146 162 184
143 159 181
146 162 184
132 157 175
108 155 126
104 127 130
97 134 141
125 115 135
145 131 156
146 160 181
141 149 172
165 164 163
183 181 181
181 180 181
180 180 181
180 179 181
179 179 181
178 179 181
177 178 181
177 178 181
176 178 181
175 177 181
175 177 181
174 177 181
174 176 181
173 176 181
173 176 181
172 176 181
172 176 181
171 175 181
171 175 181
171 175 181
170 175 181
170 175 181
170 174 181
169 174 181
169 174 181
169 174 181
168 174 181
168 174 181
168 174 181
168 173 181
167 173 181
167 173 181
167 173 181
167 173 181
167 173 181
167 173 181
166 173 181
166 173 181
166 173 181
166 173 181
166 173 181
166 173 181
166 173 181
166 173 181
166 173 181
166 173 181
166 172 181
166 172 181
166 173 181
166 172 181
166 173 181
166 173 181
166 173 181
166 173 181
166 173 181
166 173 181
166 173 181
166 173 181
166 173 181
167 173 181
167 173 181
167 173 181
167 173 181
167 173 181
167 173 181
167 173 181
168 174 181
168 174 181
168 174 181
168 174 181
169 174 181
169 174 181
169 174 181
170 174 181
170 175 181
170 175 181
171 175 181
171 175 181
171 175 181
172 176 181
172 176 181
173 176 181
173 176 181
174 176 181
174 177 181
175 177 181
175 177 181
176 178 181
177 178 181
177 178 181
178 179 181
179 179 181
180 180 181
181 180 181
182 181 181
183 182 181
151 152 158
107 125 145
83 114 132
40 85 104
48 93 117
48 94 117
48 91 110
65 107 115
90 134 127
100 144 128
108 153 135
116 155 143
123 159 152
130 152 166
139 142 177
157 154 199
158 148 201
162 152 205
148 143 187
129 138 163
138 152 174
139 155 177
131 149 172
121 137 160
103 124 146
98 118 138
108 127 145
127 141 162
127 144 164
128 144 165
139 154 175
123 139 161
131 148 168
133 150 172
116 132 149
116 133 138
120 138 145
140 160 192
148 172 210
154 180 223
158 181 230
150 164 214
129 132 178
111 98 148
97 63 125
95 62 122
102 69 131
82 94 112
54 135 86
56 141 84
78 142 107
107 137 136
109 129 144
121 117 137
123 109 127
123 87 122
72 98 192
108 106 181
129 124 184
129 114 186
126 110 185
131 124 186
132 132 181
139 152 179
141 158 181
136 153 176
144 159 179
143 159 179
145 164 171
157 180 176
139 156 155
143 166 168
145 164 166
154 163 173
150 149 177
153 151 187
160 158 197
155 154 193
158 153 194
162 147 192
143 104 170
149 82 181
133 63 163
148 70 182
145 68 178
140 89 175
145 118 182
143 155 181
141 157 179
144 159 181
146 163 186
147 164 186
137 153 177
142 158 181
139 155 177
141 157 180
141 157 179
138 154 175
135 152 175
139 155 177
140 156 178
143 159 181
142 158 179
140 156 177
137 155 178
135 153 174
134 137 182
127 99 189
124 41 206
122 27 201
116 22 198
95 18 190
95 15 192
64 16 178
58 54 163
76 87 181
97 119 176
124 159 180
121 165 160
133 174 162
104 127 148
66 67 121
65 61 124
60 65 110
68 105 117
72 129 110
78 141 116
74 133 118
74 130 129
68 123 141
60 104 158
71 121 148
78 116 155
119 141 171
138 157 180
132 148 169
135 153 176
133 151 172
124 139 165
124 139 169
136 153 175
119 132 160
107 105 172
83 57 164
82 36 180
78 34 168
98 89 167
125 137 170
132 156 179
110 147 168
101 141 168
106 146 179
107 143 178
118 157 196
125 154 212
112 115 146
104 84 72
104 81 65
108 83 67
98 76 61
99 78 63
102 79 63
100 78 62
97 77 61
97 77 61
85 67 54
96 77 62
95 75 60
87 68 54
93 74 61
144 146 168
186 196 219
212 226 244
215 228 247
217 231 249
220 234 253
220 234 254
221 235 255
218 234 251
220 235 253
215 230 247
219 233 253
219 234 254
220 234 253
208 223 242
213 227 246
209 223 240
208 222 241
202 216 236
203 217 235
202 215 234
191 206 226
199 212 231
181 196 216
195 209 228
195 210 227
184 202 217
182 193 215
186 201 220
180 194 214
180 194 214
188 201 220
167 176 190
183 181 180
183 181 181
182 181 181
181 180 181
180 180 181
179 179 181
178 179 181
178 179 181
177 178 181
176 178 181
176 178 181
175 177 181
175 177 181
174 177 181
174 177 181
173 176 181
173 176 181
173 176 181
172 176 181
172 176 181
171 175 181
171 175 181
171 175 181
170 175 181
170 175 181
170 175 181
170 174 181
169 174 181
169 174 181
169 174 181
169 174 181
168 174 181
168 174 181
168 174 181
168 174 181
168 174 181
168 173 181
167 173 181
167 173 181
167 173 181
167 173 181
167 173 181
167 173 181
167 173 181
167 173 181
167 173 181
167 173 181
167 173 181
167 173 181
167 173 181
167 173 181
167 173 181
167 173 181
167 173 181
167 173 181
167 173 181
167 173 181
167 173 181
167 173 181
167 173 181
168 173 181
168 173 181
168 174 181
168 174 181
168 174 181
168 174 181
168 174 181
169 174 181
169 174 181
169 174 181
169 174 181
170 174 181
170 175 181
170 175 181
170 175 181
171 175 181
171 175 181
171 175 181
172 176 181
172 176 181
172 176 181
173 176 181
173 176 181
174 177 181
174 177 181
175 177 181
175 177 181
176 178 181
176 178 181
177 178 181
178 179 181
178 179 181
179 179 181
180 180 181
181 180 181
182 181 181
184 182 181
162 162 164
100 115 134
75 102 121
44 80 101
42 83 104
51 97 121
63 98 113
85 123 122
93 119 116
105 143 131
110 156 138
95 136 116
101 146 125
105 142 127
110 130 142
131 126 168
132 124 170
132 127 173
130 134 168
135 146 173
137 153 173
137 155 177
136 153 174
120 136 154
129 146 168
125 142 164
118 134 151
134 150 169
136 153 175
123 138 158
138 155 178
126 142 162
156 173 196
149 168 188
136 153 173
133 149 173
156 175 211
167 189 232
163 189 238
162 188 238
161 188 238
166 191 238
161 180 224
120 122 165
104 105 146
70 76 103
73 79 109
53 92 91
70 123 110
64 121 93
93 137 124
119 144 154
125 146 162
115 115 137
100 70 103
93 43 98
89 82 170
118 84 181
117 84 175
118 84 182
117 82 179
126 94 188
128 109 187
124 121 173
138 150 178
140 157 180
142 159 181
139 155 176
136 154 170
123 140 145
118 140 139
120 139 138
125 141 151
146 144 167
165 159 194
164 160 197
164 161 199
161 158 197
163 159 198
165 157 198
171 153 198
150 96 179
145 78 176
134 63 163
137 64 168
147 83 178
135 101 170
137 141 174
142 158 181
142 157 181
149 166 190
136 154 179
137 151 175
137 153 179
134 149 173
137 154 176
140 158 180
137 154 177
138 154 175
143 158 179
139 155 176
144 160 181
142 158 181
139 155 177
142 158 179
135 151 176
114 109 171
94 77 160
97 56 174
87 51 161
84 48 163
79 39 171
46 22 166
40 18 160
38 15 160
41 16 173
51 47 159
57 67 154
81 106 143
83 107 128
79 99 121
56 55 108
54 50 102
67 72 121
59 93 97
70 127 110
69 138 102
64 123 132
54 104 133
49 79 161
40 64 166
48 79 166
61 82 176
86 105 175
118 130 174
130 149 174
121 133 165
119 133 167
109 121 151
136 153 177
116 132 154
131 148 165
122 133 172
84 63 164
85 49 179
80 40 170
99 92 167
130 141 175
138 152 179
142 158 196
116 137 173
119 148 179
124 148 193
127 154 211
135 158 234
118 126 181
99 83 83
95 76 60
93 72 58
94 72 58
96 76 60
102 79 63
97 76 62
99 78 62
97 74 59
92 72 58
96 76 60
90 72 57
92 72 58
95 74 59
148 151 161
200 215 237
207 224 244
205 217 236
218 232 252
215 230 251
213 229 248
217 231 251
219 233 253
216 231 251
220 234 254
217 231 251
218 231 251
213 227 245
216 230 248
219 234 253
218 232 252
218 233 252
219 232 252
222 236 255
219 233 252
219 232 252
215 227 247
216 229 249
222 236 255
218 232 251
213 227 248
217 230 250
215 229 248
216 230 251
219 233 252
217 230 249
177 184 192
184 182 181
183 181 181
182 181 181
181 180 181
180 180 181
179 179 181
179 179 181
178 179 181
178 178 181
177 178 181
176 178 181
176 178 181
175 177 181
175 177 181
175 177 181
174 177 181
174 177 181
173 176 181
173 176 181
173 176 181
172 176 181
172 176 181
172 175 181
171 175 181
171 175 181
171 175 181
171 175 181
170 175 181
170 175 181
170 175 181
170 175 181
169 174 181
169 174 181
169 174 181
169 174 181
169 174 181
169 174 181
169 174 181
168 174 181
168 174 181
168 174 181
168 174 181
168 174 181
168 174 181
168 174 181
168 174 181
168 174 181
168 174 181
168 174 181
168 174 181
168 174 181
168 174 181
168 174 181
168 174 181
168 174 181
168 174 181
168 174 181
168 174 181
168 174 181
168 174 181
169 174 181
169 174 181
169 174 181
169 174 181
169 174 181
169 174 181
169 174 181
170 174 181
170 175 181
170 175 181
170 175 181
171 175 181
171 175 181
171 175 181
171 175 181
172 175 181
172 176 181
172 176 181
173 176 181
173 176 181
173 176 181
174 177 181
174 177 181
175 177 181
175 177 181
175 177 181
176 178 181
176 178 181
177 178 181
178 179 181
178 179 181
179 179 181
180 180 181
180 180 181
181 180 181
182 181 181
184 182 181
176 175 174
123 137 153
102 126 147
55 88 109
42 82 103
61 91 114
81 104 121
88 103 120
91 103 117
94 113 121
93 116 117
95 124 120
93 128 114
105 148 128
107 137 133
103 115 132
114 109 149
114 114 150
124 129 160
134 147 171
133 149 169
136 153 174
130 147 169
135 152 174
135 152 171
120 136 155
130 145 165
135 152 174
144 156 180
139 152 176
131 143 166
149 167 192
152 170 195
166 182 206
132 149 171
139 156 182
157 174 209
168 190 234
163 187 233
165 189 236
163 188 236
165 187 231
160 181 221
130 148 179
76 105 123
57 90 102
41 100 101
34 98 96
59 95 96
81 113 111
109 117 137
123 132 156
129 134 159
105 97 123
93 65 104
83 38 86
80 89 127
102 77 154
114 82 176
114 81 174
115 83 180
119 86 184
123 91 187
121 102 176
132 138 177
139 155 177
137 151 173
141 157 179
138 155 172
128 146 156
128 149 150
115 133 132
134 143 150
141 138 163
156 147 182
159 152 185
160 154 188
165 158 193
160 153 187
163 155 188
160 144 183
136 107 159
138 92 161
129 60 159
130 60 158
129 77 161
138 121 174
140 152 175
138 154 176
131 148 170
139 155 178
132 148 176
135 151 174
131 146 170
140 154 178
140 157 181
143 159 183
138 154 176
142 158 179
138 155 177
142 158 181
143 159 181
142 157 181
140 156 180
130 144 178
119 130 168
92 97 148
71 64 141
66 61 138
69 60 138
64 58 139
56 49 141
46 35 141
40 24 148
34 13 148
37 14 157
34 13 146
38 22 156
69 83 149
85 102 131
75 89 116
63 61 119
53 54 101
57 87 100
58 124 95
47 129 71
49 138 73
51 133 95
47 133 109
38 78 160
39 77 161
37 57 167
40 60 173
55 71 166
91 106 178
116 130 163
123 129 175
93 88 152
102 106 153
146 162 186
144 165 180
102 130 141
118 143 162
98 100 151
74 50 146
81 51 166
118 115 171
147 148 200
164 167 217
160 165 217
160 166 218
164 167 219
153 163 217
151 163 226
141 162 242
128 144 212
104 98 125
99 78 62
92 72 58
100 78 62
86 68 54
101 80 64
97 76 61
88 67 53
95 74 60
102 81 64
102 81 64
87 70 56
94 73 59
93 73 59
153 163 174
189 204 226
213 229 249
209 225 243
218 232 253
218 233 254
218 232 253
210 224 245
218 233 253
216 231 251
217 232 252
212 226 246
220 234 254
217 232 251
216 231 251
212 228 249
217 232 252
219 234 255
218 232 252
221 236 255
221 236 255
213 227 245
214 227 247
215 229 249
212 226 245
216 229 250
213 227 247
214 228 249
219 233 253
214 228 248
206 220 238
216 229 249
170 174 178
184 182 181
183 181 181
182 181 181
181 180 181
181 180 181
180 180 181
179 179 181
179 179 181
178 179 181
178 179 181
177 178 181
177 178 181
176 178 181
176 178 181
175 177 181
175 177 181
175 177 181
174 177 181
174 177 181
173 176 181
173 176 181
173 176 181
173 176 181
172 176 181
172 176 181
172 176 181
172 175 181
171 175 181
171 175 181
171 175 181
171 175 181
170 175 181
170 175 181
170 175 181
170 175 181
170 175 181
170 175 181
170 175 181
170 174 181
169 174 181
169 174 181
169 174 181
169 174 181
169 174 181
169 174 181
169 174 181
169 174 181
169 174 181
169 174 181
169 174 181
169 174 181
169 174 181
169 174 181
169 174 181
169 174 181
169 174 181
169 174 181
169 174 181
170 174 181
170 174 181
170 174 181
170 175 181
170 175 181
170 175 181
170 175 181
170 175 181
171 175 181
171 175 181
171 175 181
171 175 181
171 175 181
171 175 181
172 176 181
172 176 181
172 176 181
173 176 181
173 176 181
173 176 181
173 176 181
174 177 181
174 177 181
174 177 181
175 177 181
175 177 181
176 178 181
176 178 181
177 178 181
177 178 181
178 179 181
178 179 181
179 179 181
179 179 181
180 180 181
181 180 181
182 181 181
182 181 181
184 182 181
185 182 181
132 145 157
102 119 137
60 90 109
51 78 98
74 90 114
86 95 117
89 93 117
90 93 117
81 83 105
88 98 114
86 102 111
88 118 113
94 132 113
95 124 112
106 109 120
101 94 119
112 95 121
116 115 136
118 127 147
127 143 162
127 144 166
127 144 164
127 144 166
127 144 164
130 146 166
145 157 179
145 155 177
159 166 191
160 166 193
164 171 199
151 160 185
156 167 190
160 172 194
137 154 177
139 155 181
150 168 201
155 173 209
154 171 211
156 175 215
156 177 217
154 172 210
131 153 181
89 123 138
29 98 93
25 95 90
44 92 94
58 78 92
86 66 103
97 82 118
109 59 116
111 90 131
131 114 154
101 82 118
90 54 96
88 41 93
76 91 122
103 83 160
115 81 174
109 78 166
104 74 159
111 77 171
115 80 175
118 75 179
127 127 176
137 147 177
139 154 177
139 154 173
134 151 172
137 157 173
126 144 157
123 141 149
126 132 142
140 128 161
133 121 152
143 133 165
148 141 170
147 138 167
140 131 163
125 119 148
140 128 161
130 107 152
129 78 156
131 70 165
138 104 186
141 107 186
137 136 193
138 151 190
136 152 181
129 142 168
137 153 176
129 144 167
138 151 177
132 146 172
132 144 167
134 150 171
139 151 174
137 152 171
137 153 174
138 154 177
138 154 181
137 154 195
137 153 194
136 152 204
132 148 198
117 128 184
94 99 156
79 76 145
65 60 135
62 58 130
61 57 130
64 59 132
48 41 128
45 34 139
38 17 158
34 13 143
35 14 150
35 13 146
64 68 146
90 103 142
84 94 126
83 88 122
68 97 105
59 110 97
40 136 61
39 141 53
37 138 51
38 138 58
37 137 60
38 124 97
36 92 131
39 76 165
36 55 160
40 61 179
53 70 159
115 131 186
124 134 185
119 117 187
134 130 200
173 185 214
163 186 197
115 155 145
103 145 131
93 120 137
89 98 140
96 91 151
120 115 175
173 172 223
167 170 222
167 171 228
166 170 228
168 171 228
170 171 227
167 170 231
148 158 222
135 151 220
110 107 143
95 79 74
90 70 56
87 68 55
94 74 59
102 81 65
98 76 61
92 72 58
91 71 56
76 61 51
102 79 63
102 79 63
94 75 60
97 76 61
126 128 134
187 198 224
208 222 245
206 222 239
207 220 239
215 230 251
209 223 244
216 231 252
219 235 255
220 235 255
220 235 255
216 230 251
217 231 252
216 231 251
215 230 250
218 234 254
214 230 250
215 230 250
216 232 253
216 231 252
214 229 249
214 229 245
215 229 249
216 231 251
219 233 253
216 229 249
214 228 248
214 227 249
218 232 254
217 232 252
217 232 252
215 229 248
175 173 172
184 182 181
183 181 181
182 181 181
182 181 181
181 180 181
180 180 181
180 180 181
179 179 181
179 179 181
178 179 181
178 179 181
177 178 181
177 178 181
176 178 181
176 178 181
176 178 181
175 177 181
175 177 181
175 177 181
174 177 181
174 177 181
174 177 181
174 176 181
173 176 181
173 176 181
173 176 181
173 176 181
172 176 181
172 176 181
172 176 181
172 176 181
172 175 181
171 175 181
171 175 181
171 175 181
171 175 181
171 175 181
171 175 181
171 175 181
171 175 181
170 175 181
170 175 181
170 175 181
170 175 181
170 175 181
170 175 181
170 175 181
170 175 181
170 175 181
170 175 181
170 175 181
170 175 181
170 175 181
170 175 181
170 175 181
170 175 181
170 175 181
170 175 181
171 175 181
171 175 181
171 175 181
171 175 181
171 175 181
171 175 181
171 175 181
171 175 181
172 175 181
172 175 181
172 176 181
172 176 181
172 176 181
173 176 181
173 176 181
173 176 181
173 176 181
173 176 181
174 177 181
174 177 181
174 177 181
175 177 181
175 177 181
175 177 181
176 178 181
176 178 181
176 178 181
177 178 181
177 178 181
178 179 181
178 179 181
179 179 181
179 179 181
180 180 181
180 180 181
181 180 181
182 181 181
183 181 181
184 182 181
185 182 181
134 141 152
98 116 135
82 100 119
70 84 105
76 81 103
83 88 112
83 87 110
80 83 105
88 92 116
82 86 109
85 93 111
93 111 118
91 106 99
92 91 79
91 50 53
90 39 46
96 47 50
101 69 78
106 92 104
115 117 133
123 133 152
132 148 170
120 137 157
122 138 157
130 143 164
147 151 175
167 171 198
176 180 211
172 177 209
171 176 209
181 182 212
162 167 194
158 165 189
139 151 173
139 157 184
128 139 167
126 139 173
136 151 183
128 146 177
131 147 178
131 145 172
104 128 148
39 96 94
58 114 104
73 121 112
91 127 123
95 99 112
116 84 122
111 40 113
116 35 117
112 26 112
112 52 116
102 52 110
94 36 97
80 36 84
64 98 110
82 83 132
99 76 156
103 75 160
105 64 164
114 68 172
108 56 166
111 59 168
119 83 178
124 108 171
129 135 171
136 148 171
132 143 166
124 138 157
131 148 165
131 145 161
114 121 143
114 110 136
95 87 115
118 110 136
126 117 144
122 118 143
110 103 128
112 105 132
124 114 145
121 99 144
138 113 182
133 144 208
141 151 223
134 157 225
142 172 232
141 167 226
138 161 209
135 151 185
135 151 176
131 143 166
136 150 174
138 150 178
129 136 166
128 129 162
128 140 162
127 137 159
135 149 174
136 151 181
134 150 191
137 153 207
136 155 217
133 153 216
135 155 219
131 148 209
114 126 186
87 91 146
77 76 146
59 56 125
58 54 122
63 58 132
57 51 131
51 42 143
34 18 134
33 13 138
33 13 140
35 13 146
63 61 147
93 104 149
113 125 148
110 123 145
76 122 107
53 137 69
38 141 53
37 138 52
40 144 53
35 129 48
39 143 53
38 135 64
34 112 91
37 86 145
35 57 158
37 56 166
34 52 155
115 128 178
161 171 223
160 167 220
171 180 221
176 195 215
156 186 181
117 170 134
94 158 103
85 144 92
79 135 94
109 137 145
144 152 181
175 175 221
176 175 228
174 174 228
165 165 217
163 162 213
172 171 224
178 174 223
150 152 204
108 116 169
103 108 154
100 90 113
97 74 59
95 75 59
92 70 56
87 68 55
99 77 62
96 76 60
91 70 57
88 69 56
88 69 56
85 66 53
98 77 61
98 77 61
95 92 84
184 196 218
192 205 231
202 218 241
209 223 246
208 224 244
214 230 252
206 222 241
216 231 253
216 229 251
219 234 255
214 228 250
213 227 248
214 229 250
217 232 253
220 235 255
214 231 252
217 231 251
212 226 245
218 233 254
218 233 254
214 229 249
217 232 253
217 230 250
216 230 249
216 230 250
219 233 253
216 230 250
217 231 252
218 232 253
209 222 241
199 207 219
185 183 181
184 182 181
184 182 181
183 181 181
182 181 181
181 181 181
181 180 181
180 180 181
180 180 181
179 179 181
179 179 181
178 179 181
178 179 181
178 179 181
177 178 181
177 178 181
177 178 181
176 178 181
176 178 181
176 178 181
175 177 181
175 177 181
175 177 181
175 177 181
174 177 181
174 177 181
174 177 181
174 176 181
173 176 181
173 176 181
173 176 181
173 176 181
173 176 181
173 176 181
172 176 181
172 176 181
172 176 181
172 176 181
172 176 181
172 176 181
172 176 181
172 175 181
171 175 181
172 175 181
171 175 181
171 175 181
171 175 181
171 175 181
171 175 181
171 175 181
171 175 181
171 175 181
171 175 181
171 175 181
171 175 181
171 175 181
171 175 181
172 175 181
172 175 181
172 175 181
172 176 181
172 176 181
172 176 181
172 176 181
172 176 181
172 176 181
173 176 181
173 176 181
173 176 181
173 176 181
173 176 181
173 176 181
173 176 181
174 177 181
174 177 181
174 177 181
174 177 181
175 177 181
175 177 181
175 177 181
176 177 181
176 178 181
176 178 181
177 178 181
177 178 181
177 178 181
178 178 181
178 179 181
178 179 181
179 179 181
179 179 181
180 180 181
180 180 181
181 180 181
182 181 181
182 181 181
183 181 181
184 182 181
185 182 181
133 145 154
107 143 161
87 122 140
85 109 129
78 80 102
80 82 103
85 87 111
78 81 102
79 81 103
83 87 110
76 79 101
84 88 102
80 85 67
79 65 47
78 53 21
76 55 21
80 36 23
91 30 25
90 43 43
108 90 101
116 121 138
126 138 158
134 152 173
140 155 178
153 166 186
176 174 199
181 182 210
177 180 212
174 179 212
173 178 212
177 180 212
181 182 212
171 174 199
154 161 183
120 131 157
117 133 160
117 132 162
110 123 152
104 118 146
106 120 149
102 119 143
73 110 114
88 132 121
114 158 143
143 193 173
129 168 159
137 158 156
144 165 161
127 109 134
120 80 123
103 24 104
109 26 108
108 27 110
98 29 102
90 34 91
51 94 90
80 82 127
86 62 138
105 64 159
111 50 171
103 30 161
107 34 168
102 23 162
109 45 164
105 46 138
116 91 144
110 97 126
115 106 130
113 100 125
121 122 143
124 131 152
118 128 145
115 118 135
99 93 114
110 103 118
109 103 118
107 99 117
113 107 127
113 107 130
105 97 130
119 115 162
140 156 216
140 162 228
139 174 244
136 172 244
137 172 244
137 170 239
138 164 221
142 163 212
166 182 212
174 188 211
168 183 204
163 170 201
146 138 176
144 139 177
144 154 177
133 144 169
134 149 171
134 148 181
133 147 193
137 154 202
136 154 206
139 157 201
139 159 207
129 145 201
142 158 216
116 125 181
83 86 143
59 59 117
77 73 128
78 74 135
92 90 144
66 60 134
55 46 144
36 14 147
32 12 135
38 26 142
79 83 151
100 111 144
112 130 147
108 127 134
78 133 103
35 127 48
36 133 49
35 131 48
35 128 47
37 138 51
35 128 48
37 132 49
33 117 58
35 106 107
29 57 124
34 52 150
50 67 165
111 126 183
162 179 221
191 208 244
156 182 199
143 183 167
108 161 114
78 146 70
79 149 70
80 151 71
74 134 72
97 147 101
137 157 164
144 151 176
172 169 215
168 164 211
145 139 177
155 146 186
166 160 204
163 156 203
145 143 185
110 118 167
92 102 151
95 97 135
97 80 76
88 68 54
90 69 56
101 79 62
95 73 57
90 71 56
95 74 58
98 76 60
94 72 58
103 79 63
96 73 58
86 68 54
98 86 84
167 177 198
196 210 235
198 213 235
211 227 250
211 226 247
214 231 251
209 228 245
213 229 250
214 229 251
218 234 255
213 227 250
215 230 252
211 223 247
216 232 253
217 232 253
219 234 255
217 232 253
211 225 245
217 233 254
218 232 253
215 230 250
216 232 253
218 232 253
219 234 255
217 231 251
214 230 252
217 232 253
211 225 245
219 234 255
217 232 253
189 198 211
185 182 180
185 182 181
184 182 181
183 181 181
183 181 181
182 181 181
181 180 181
181 180 181
181 180 181
180 180 181
180 180 181
179 179 181
179 179 181
179 179 181
178 179 181
178 179 181
178 178 181
177 178 181
177 178 181
177 178 181
176 178 181
176 178 181
176 178 181
176 177 181
175 177 181
175 177 181
175 177 181
175 177 181
174 177 181
174 177 181
174 177 181
174 177 181
174 177 181
174 176 181
173 176 181
173 176 181
173 176 181
173 176 181
173 176 181
173 176 181
173 176 181
173 176 181
173 176 181
173 176 181
173 176 181
173 176 181
173 176 181
173 176 181
172 176 181
172 176 181
172 176 181
172 176 181
173 176 181
172 176 181
173 176 181
173 176 181
173 176 181
173 176 181
173 176 181
173 176 181
173 176 181
173 176 181
173 176 181
173 176 181
173 176 181
173 176 181
174 176 181
174 176 181
174 177 181
174 177 181
174 177 181
174 177 181
175 177 181
175 177 181
175 177 181
175 177 181
175 177 181
176 178 181
176 178 181
176 178 181
176 178 181
177 178 181
177 178 181
177 178 181
178 179 181
178 179 181
178 179 181
179 179 181
179 179 181
180 179 181
180 180 181
180 180 181
181 180 181
181 180 181
182 181 181
183 181 181
183 181 181
184 182 181
185 182 181
133 150 156
70 153 165
56 157 168
63 128 140
60 119 134
77 101 120
80 83 105
75 77 98
71 75 93
74 76 96
72 85 93
68 84 77
53 80 42
43 85 12
47 80 13
53 79 14
65 72 18
72 47 20
82 33 23
91 52 56
108 101 116
128 141 162
132 145 168
145 155 178
176 178 196
184 179 203
179 177 203
186 184 212
181 182 212
183 183 212
185 184 212
187 185 212
190 185 210
157 156 177
119 131 155
115 131 157
103 116 144
103 118 146
99 112 139
108 122 151
108 126 150
115 151 142
147 195 173
154 206 185
155 210 191
151 205 188
155 210 191
157 204 186
148 182 171
132 137 142
107 50 104
105 25 108
108 25 107
99 24 99
92 38 93
49 85 85
78 82 119
87 59 135
99 50 153
110 35 172
102 23 158
107 24 169
102 24 157
97 25 135
96 27 119
95 29 91
94 36 82
83 26 68
87 27 73
96 56 87
102 85 106
101 107 127
110 118 133
103 103 104
101 103 104
105 99 98
106 96 90
106 98 106
104 98 116
115 114 144
128 136 186
145 171 234
144 177 244
140 174 244
139 173 244
139 174 244
140 174 244
143 176 243
155 182 239
177 196 233
200 216 240
207 224 246
199 210 238
190 194 228
189 194 226
180 195 218
155 170 195
136 151 178
136 150 183
139 155 191
137 153 183
135 150 174
146 165 198
130 146 175
142 159 196
145 161 208
128 141 189
109 116 169
130 128 177
147 147 201
160 162 216
160 162 215
136 134 188
120 118 176
79 73 146
42 30 135
60 58 137
88 93 145
117 130 157
116 128 153
91 125 119
46 121 61
35 127 48
34 125 47
36 131 49
35 130 49
34 122 46
36 133 50
35 129 49
31 116 42
32 101 81
30 51 132
33 51 146
46 62 152
102 118 171
159 179 212
176 200 225
146 186 178
97 154 103
85 159 75
80 150 70
75 140 66
71 133 62
74 138 65
78 146 69
89 132 93
118 144 145
151 151 186
129 132 158
104 108 132
119 110 139
106 104 134
136 129 171
131 128 163
104 109 153
87 99 151
84 90 134
91 84 107
84 68 61
98 77 61
97 76 61
96 75 59
74 57 46
95 76 60
99 76 61
90 70 55
91 72 56
85 65 53
86 68 54
89 76 66
156 168 182
189 205 224
205 222 248
202 218 240
213 229 252
210 227 248
212 231 250
216 232 254
216 232 254
212 227 249
216 231 253
213 229 250
212 226 249
217 231 254
215 231 253
218 234 255
216 231 253
213 229 250
215 229 251
213 227 248
215 230 252
211 226 247
217 231 251
218 234 255
216 232 253
215 230 252
212 228 251
217 233 255
214 231 253
212 228 250
184 193 205
182 180 178
185 182 181
184 182 181
184 182 181
183 181 181
183 181 181
182 181 181
182 181 181
181 180 181
181 180 181
180 180 181
180 180 181
180 180 181
179 179 181
179 179 181
179 179 181
178 179 181
178 179 181
178 179 181
178 178 181
177 178 181
177 178 181
177 178 181
177 178 181
176 178 181
176 178 181
176 178 181
176 178 181
176 177 181
175 177 181
175 177 181
175 177 181
175 177 181
175 177 181
175 177 181
174 177 181
174 177 181
174 177 181
174 177 181
174 177 181
174 177 181
174 177 181
174 177 181
174 177 181
174 177 181
174 177 181
174 177 181
174 176 181
174 177 181
174 176 181
174 176 181
174 177 181
174 176 181
174 177 181
174 177 181
174 177 181
174 177 181
174 177 181
174 177 181
174 177 181
174 177 181
174 177 181
174 177 181
174 177 181
174 177 181
175 177 181
175 177 181
175 177 181
175 177 181
175 177 181
175 177 181
175 177 181
176 177 181
176 178 181
176 178 181
176 178 181
176 178 181
177 178 181
177 178 181
177 178 181
177 178 181
178 178 181
178 179 181
178 179 181
179 179 181
179 179 181
179 179 181
179 179 181
180 180 181
180 180 181
181 180 181
181 180 181
182 181 181
182 181 181
183 181 181
183 181 181
184 182 181
184 182 181
185 182 181
157 158 161
24 149 157
19 163 170
27 166 175
37 142 151
66 113 131
74 92 122
68 74 97
76 80 101
67 77 88
45 84 47
40 87 33
33 87 9
31 85 8
30 83 8
33 89 8
41 84 11
45 84 12
78 43 21
88 44 43
95 76 85
122 133 154
132 147 168
132 145 165
138 139 154
149 138 154
159 152 171
168 163 183
167 164 184
182 177 200
173 173 191
175 175 188
169 160 183
147 140 162
123 133 152
115 129 154
102 114 139
102 114 140
99 110 134
109 123 150
120 145 147
157 202 179
160 210 186
159 212 191
156 210 191
155 210 191
155 210 191
158 211 189
158 204 184
142 170 158
113 68 115
105 51 106
108 25 106
101 27 100
105 68 113
50 80 82
89 79 130
94 55 146
97 38 151
101 23 159
100 22 153
96 22 148
90 23 119
89 27 95
85 27 72
88 27 71
87 27 71
84 26 68
82 25 68
85 33 75
72 73 102
84 110 132
82 115 128
71 123 143
65 111 128
66 120 141
89 107 110
95 97 97
106 99 99
111 115 137
133 152 205
151 178 240
142 169 232
142 172 234
146 178 244
146 177 243
139 166 227
137 164 222
147 173 230
155 179 231
201 219 248
211 229 254
207 223 251
209 227 255
200 219 246
175 193 219
150 165 189
139 149 178
138 152 175
126 143 167
119 135 158
126 140 163
128 143 167
125 140 163
140 158 183
135 151 184
134 145 178
160 165 214
169 171 223
181 185 241
177 184 241
176 183 241
178 184 242
166 169 223
150 147 205
87 87 152
102 111 153
103 114 150
122 132 159
127 138 168
116 138 152
69 129 93
33 119 44
30 113 41
32 118 44
34 127 47
33 122 45
33 123 46
31 113 42
34 124 46
34 109 85
30 55 123
33 47 128
66 80 145
108 122 163
128 145 171
136 159 176
104 149 123
74 139 65
71 135 63
69 127 59
75 141 66
72 137 65
74 140 68
62 128 76
39 99 75
70 110 101
73 107 112
68 100 111
86 101 116
97 96 128
100 99 134
115 112 146
109 110 143
79 86 128
85 97 147
75 87 138
83 90 131
85 79 90
77 63 54
97 75 60
88 67 53
84 64 51
86 65 53
100 76 61
84 66 52
88 69 54
84 66 53
94 73 58
91 74 64
149 157 169
191 206 227
204 221 249
202 219 245
213 230 253
209 227 248
214 232 253
212 230 250
212 228 250
214 230 253
211 227 250
216 232 254
212 226 249
213 229 250
215 231 253
210 226 247
218 233 255
216 232 254
218 234 255
216 231 253
213 229 250
215 230 252
216 232 253
216 231 253
214 229 251
213 229 250
214 230 252
216 231 253
218 234 255
211 228 250
159 170 180
177 175 173
185 182 181
185 182 181
184 182 181
184 182 181
183 181 181
183 181 181
182 181 181
182 181 181
181 180 181
181 180 181
181 180 181
180 180 181
180 180 181
180 180 181
180 180 181
179 179 181
179 179 181
179 179 181
178 179 181
178 179 181
178 179 181
178 179 181
178 178 181
177 178 181
177 178 181
177 178 181
177 178 181
177 178 181
176 178 181
176 178 181
176 178 181
176 178 181
176 178 181
176 178 181
176 177 181
176 177 181
175 177 181
175 177 181
175 177 181
175 177 181
175 177 181
175 177 181
175 177 181
175 177 181
175 177 181
175 177 181
175 177 181
175 177 181
175 177 181
175 177 181
175 177 181
175 177 181
175 177 181
175 177 181
175 177 181
175 177 181
175 177 181
175 177 181
175 177 181
175 177 181
175 177 181
175 177 181
175 177 181
176 177 181
176 177 181
176 178 181
176 178 181
176 178 181
176 178 181
176 178 181
176 178 181
177 178 181
177 178 181
177 178 181
177 178 181
177 178 181
177 178 181
178 179 181
178 179 181
178 179 181
179 179 181
179 179 181
179 179 181
179 179 181
180 180 181
180 180 181
180 180 181
181 180 181
181 180 181
181 180 181
182 181 181
182 181 181
183 181 181
183 181 181
184 182 181
184 182 181
185 182 181
185 183 181
142 142 142
27 136 144
27 153 166
41 140 167
59 131 179
64 114 171
77 101 168
74 87 144
69 82 134
57 81 92
42 79 50
28 83 8
28 81 8
30 84 8
31 85 8
30 84 8
29 80 7
36 84 10
54 64 15
75 44 21
87 65 71
117 121 138
125 139 159
106 116 133
112 114 131
101 92 99
91 79 87
115 115 127
135 135 152
155 151 170
148 146 157
138 135 146
145 137 154
113 102 123
118 130 150
120 135 155
114 128 150
115 127 148
120 134 156
120 139 151
132 163 152
157 198 175
163 211 184
163 212 190
162 212 189
163 215 191
163 215 191
166 216 191
167 217 189
158 199 175
114 119 122
96 50 97
93 22 92
102 39 98
100 68 98
78 102 110
96 102 131
109 76 162
99 37 155
96 21 147
91 20 137
93 22 135
85 24 94
89 28 74
76 24 63
84 26 69
79 25 67
82 25 68
82 25 69
71 70 95
65 98 127
56 128 157
32 123 154
37 129 161
32 121 152
46 128 157
40 121 151
72 104 115
83 96 96
109 108 127
114 117 158
120 133 190
129 150 204
123 143 192
124 148 198
142 167 227
129 152 206
121 141 185
122 143 196
133 153 204
173 193 229
196 218 248
200 222 251
192 214 244
184 203 232
159 176 201
144 158 183
130 145 167
122 136 158
121 136 158
129 144 168
124 140 163
125 141 164
125 140 163
115 132 152
136 151 177
163 168 205
175 178 226
185 188 244
179 185 244
177 184 244
177 185 244
179 185 244
181 184 239
171 170 219
152 154 195
127 138 168
113 126 152
121 135 163
120 134 160
115 136 152
78 123 102
48 121 66
32 119 44
30 110 41
31 115 42
29 110 40
33 118 44
32 118 43
30 111 49
28 86 88
35 63 121
49 62 138
87 96 141
125 138 161
126 134 160
121 148 150
88 130 97
68 129 60
72 134 63
73 137 64
76 143 67
72 134 63
49 112 81
38 102 81
16 93 91
12 94 95
16 88 91
24 83 86
18 75 79
55 79 90
100 101 130
107 108 141
98 100 135
102 113 150
92 105 139
84 96 128
103 115 147
108 113 130
92 87 91
90 75 67
92 71 57
89 69 54
89 68 53
85 66 53
89 67 53
94 74 57
90 69 55
88 69 55
77 60 47
131 134 143
166 181 200
201 219 248
200 217 244
208 225 248
210 228 250
202 221 240
209 228 248
213 230 253
212 229 252
212 228 251
213 230 253
215 231 254
214 231 253
212 228 250
215 231 253
215 231 253
214 230 253
215 231 253
210 225 247
209 225 246
214 230 253
215 231 253
214 230 252
216 231 253
216 232 254
212 229 251
212 229 252
213 231 253
215 232 255
155 163 170
161 159 159
186 183 181
185 182 181
185 182 181
184 182 181
184 182 181
183 181 181
183 181 181
183 181 181
182 181 181
182 181 181
182 181 181
181 180 181
181 180 181
181 180 181
180 180 181
180 180 181
180 180 181
180 180 181
179 179 181
179 179 181
179 179 181
179 179 181
179 179 181
178 179 181
178 179 181
178 179 181
178 179 181
178 179 181
178 179 181
177 178 181
177 178 181
177 178 181
177 178 181
177 178 181
177 178 181
177 178 181
177 178 181
176 178 181
176 178 181
176 178 181
176 178 181
176 178 181
176 178 181
176 178 181
176 178 181
176 178 181
176 178 181
176 178 181
176 178 181
176 178 181
176 178 181
176 178 181
176 178 181
176 178 181
176 178 181
176 178 181
176 178 181
176 178 181
176 178 181
176 178 181
176 178 181
176 178 181
176 178 181
177 178 181
177 178 181
177 178 181
177 178 181
177 178 181
177 178 181
177 178 181
177 178 181
178 179 181
178 179 181
178 179 181
178 179 181
178 179 181
179 179 181
179 179 181
179 179 181
179 179 181
179 179 181
180 180 181
180 180 181
180 180 181
180 180 181
181 180 181
181 180 181
181 180 181
182 181 181
182 181 181
182 181 181
183 181 181
183 181 181
184 182 181
184 182 181
185 182 181
185 182 181
186 183 181
126 127 126
69 133 156
48 125 161
64 116 175
72 104 179
75 96 182
70 90 170
72 93 173
70 91 166
59 90 133
32 76 57
28 82 8
28 80 8
29 82 8
28 78 7
29 81 8
29 79 8
31 86 8
39 75 10
76 53 21
93 80 89
121 129 148
133 148 168
122 133 154
109 111 129
113 111 127
91 79 88
105 106 121
111 109 122
109 108 121
111 111 124
117 118 131
116 111 127
119 125 144
120 133 153
132 148 169
122 138 158
120 134 154
108 121 140
110 124 140
139 162 162
149 184 165
159 193 185
150 185 178
147 185 177
164 201 191
159 202 182
159 204 179
157 202 171
140 177 151
123 138 131
93 51 91
85 19 73
94 20 59
88 29 52
90 109 120
108 113 148
104 97 144
92 37 144
90 21 145
87 19 137
84 21 115
84 25 86
83 26 69
79 25 65
87 27 73
76 23 61
75 23 62
74 48 80
58 82 108
31 118 147
32 124 156
32 124 156
32 122 153
31 116 145
31 117 149
33 125 154
38 119 148
64 105 122
86 91 90
96 92 120
87 89 139
69 70 104
86 95 123
106 126 163
97 117 159
102 119 164
84 98 141
92 110 149
100 120 161
152 172 203
166 187 217
174 196 227
169 191 221
158 177 204
135 153 178
131 147 173
137 151 175
121 137 155
125 137 162
110 123 148
98 108 131
127 138 166
121 133 163
152 165 205
140 151 191
153 162 208
177 182 235
184 187 243
184 188 243
184 188 244
183 187 244
180 182 234
163 160 204
176 169 209
168 165 204
139 145 175
115 128 151
119 133 158
111 124 153
115 130 152
105 123 142
69 123 93
41 114 54
30 111 40
30 110 41
33 120 43
29 108 39
37 115 49
52 97 77
68 88 113
86 97 133
100 102 140
116 106 141
127 119 148
125 114 143
126 123 145
107 116 119
89 114 93
74 130 69
72 135 64
62 117 58
56 116 72
35 99 85
3 91 94
3 89 91
3 87 90
3 84 85
3 79 80
2 73 74
21 78 81
71 87 105
94 100 124
106 115 140
109 121 150
114 126 153
110 126 149
116 130 151
122 135 158
100 104 119
91 84 85
101 80 67
90 70 55
88 67 55
82 64 52
87 68 53
90 70 56
95 74 58
91 70 56
93 72 57
108 98 97
155 168 186
199 216 244
196 214 242
206 224 248
210 228 252
200 217 240
208 225 248
208 225 248
211 228 252
208 225 248
207 224 247
210 226 249
208 223 245
212 228 250
214 230 253
212 228 250
210 226 249
215 231 254
215 231 254
214 230 253
211 228 250
210 226 248
212 228 250
213 229 252
213 229 252
212 228 250
217 233 255
212 229 251
207 226 248
138 148 159
136 127 137
184 181 178
185 183 181
185 182 181
185 182 181
184 182 181
184 182 181
184 182 181
183 181 181
183 181 181
183 181 181
182 181 181
182 181 181
182 181 181
182 181 181
181 180 181
181 180 181
181 180 181
181 180 181
180 180 181
180 180 181
180 180 181
180 180 181
180 180 181
179 179 181
179 179 181
179 179 181
179 179 181
179 179 181
179 179 181
178 179 181
178 179 181
178 179 181
178 179 181
178 179 181
178 179 181
178 179 181
178 179 181
178 178 181
178 179 181
178 178 181
177 178 181
177 178 181
177 178 181
177 178 181
177 178 181
177 178 181
177 178 181
177 178 181
177 178 181
177 178 181
177 178 181
177 178 181
177 178 181
177 178 181
177 178 181
177 178 181
177 178 181
177 178 181
177 178 181
177 178 181
178 178 181
178 179 181
178 179 181
178 179 181
178 179 181
178 179 181
178 179 181
178 179 181
178 179 181
178 179 181
179 179 181
179 179 181
179 179 181
179 179 181
179 179 181
179 179 181
179 179 181
180 180 181
180 180 181
180 180 181
180 180 181
181 180 181
181 180 181
181 180 181
181 180 181
182 181 181
182 181 181
182 181 181
182 181 181
183 181 181
183 181 181
183 181 181
184 182 181
184 182 181
185 182 181
185 182 181
185 183 181
183 180 178
103 114 111
69 127 162
63 100 163
70 92 172
71 92 176
64 83 159
70 92 173
75 96 181
74 95 180
73 97 177
45 82 102
34 82 54
26 77 7
28 79 7
27 76 7
29 79 7
30 81 8
30 84 8
31 75 8
67 53 30
90 70 75
126 140 161
127 143 165
119 134 162
106 113 144
109 107 136
86 86 131
103 102 141
106 103 124
111 110 126
113 111 128
107 106 121
116 117 134
119 126 144
118 133 150
130 147 164
119 133 154
125 139 160
125 142 165
118 134 151
138 159 165
133 151 166
146 165 185
142 163 181
143 163 182
129 148 163
153 180 188
144 172 172
125 161 142
123 159 134
103 117 112
94 52 83
93 20 64
87 18 42
83 17 36
105 114 131
119 131 155
104 98 143
91 20 141
84 19 128
86 19 134
89 22 121
69 20 76
82 25 67
77 23 62
71 22 58
71 22 59
72 41 73
64 76 104
41 108 138
31 118 149
33 128 161
31 117 150
31 119 149
32 121 151
31 119 149
32 123 155
31 118 148
45 119 145
79 91 95
86 88 109
76 86 118
78 90 128
85 102 140
84 101 140
82 100 138
88 106 152
87 105 147
83 100 141
88 104 139
126 144 173
144 165 193
135 152 179
145 163 189
129 144 170
126 143 165
127 142 164
109 131 148
119 137 159
118 130 163
116 128 153
101 109 142
123 133 172
157 170 220
154 168 221
158 173 232
159 174 234
163 176 234
172 180 236
182 186 239
191 191 243
191 188 238
182 175 220
154 144 178
131 120 143
154 151 188
141 146 178
110 126 149
104 117 142
113 126 153
116 133 157
112 127 147
87 113 122
61 103 82
42 103 56
33 98 43
28 104 38
47 111 62
60 102 83
73 97 105
85 100 121
89 88 120
123 111 143
123 101 136
119 98 131
119 97 130
116 96 130
117 101 128
106 104 113
78 109 78
71 108 65
61 122 68
44 107 78
23 92 86
3 90 94
3 88 91
3 83 86
2 78 79
3 80 82
2 77 78
2 62 64
38 72 80
81 102 116
118 131 152
116 127 153
119 132 151
121 137 160
112 127 148
118 131 158
115 125 146
104 106 112
79 77 87
93 76 65
74 66 55
79 69 58
69 64 55
89 75 62
80 63 52
84 66 51
77 61 48
77 61 48
146 159 179
186 203 227
201 219 247
201 219 243
207 225 250
209 227 251
207 225 248
214 231 255
211 229 253
213 230 254
212 229 253
211 228 252
209 226 249
205 222 244
213 230 253
213 230 253
211 227 250
210 227 250
212 229 252
214 231 254
216 232 255
212 228 251
216 232 255
206 222 245
212 230 253
216 232 255
211 227 250
214 231 253
214 230 253
100 108 116
109 101 120
148 143 144
185 181 180
186 183 181
185 182 181
185 182 181
185 182 181
184 182 181
184 182 181
184 182 181
183 181 181
183 181 181
183 181 181
183 181 181
182 181 181
182 181 181
182 181 181
182 181 181
181 181 181
181 180 181
181 180 181
181 180 181
181 180 181
181 180 181
181 180 181
180 180 181
180 180 181
180 180 181
180 180 181
180 180 181
180 180 181
179 179 181
179 179 181
179 179 181
179 179 181
179 179 181
179 179 181
179 179 181
179 179 181
179 179 181
179 179 181
179 179 181
179 179 181
179 179 181
178 179 181
178 179 181
178 179 181
178 179 181
178 179 181
178 179 181
178 179 181
178 179 181
178 179 181
178 179 181
178 179 181
178 179 181
178 179 181
178 179 181
178 179 181
179 179 181
179 179 181
179 179 181
179 179 181
179 179 181
179 179 181
179 179 181
179 179 181
179 179 181
179 179 181
179 179 181
180 179 181
180 179 181
180 180 181
180 180 181
180 180 181
180 180 181
180 180 181
180 180 181
181 180 181
181 180 181
181 180 181
181 180 181
181 180 181
182 181 181
182 181 181
182 181 181
182 181 181
183 181 181
183 181 181
183 181 181
183 181 181
184 182 181
184 182 181
184 182 181
185 182 181
185 182 181
185 183 181
186 183 181
161 160 160
91 99 94
75 95 147
69 89 168
66 86 162
74 96 180
65 84 161
71 92 174
70 90 167
73 94 179
71 91 171
64 90 153
43 81 88
26 75 7
26 72 7
28 79 7
28 77 7
29 79 7
29 79 7
44 81 37
69 85 71
116 122 138
115 131 156
104 112 163
91 98 169
81 87 170
82 85 167
78 83 175
81 84 167
81 82 140
110 107 135
111 107 123
111 113 127
114 121 139
128 141 162
125 141 162
132 147 168
125 140 161
111 128 148
108 123 141
136 151 170
120 135 155
125 141 161
121 134 153
114 128 151
133 149 170
131 148 171
121 138 155
136 154 167
125 150 144
106 134 120
94 96 98
92 29 57
83 17 39
87 18 38
84 17 36
110 124 143
99 113 131
101 105 140
98 75 140
84 19 131
80 17 120
80 20 112
75 22 76
79 25 65
77 24 64
78 24 65
73 22 59
66 34 62
50 88 114
33 116 144
30 116 146
28 107 136
31 117 145
30 113 140
29 114 142
27 105 133
29 113 140
29 113 143
30 114 143
69 109 103
93 122 86
91 132 108
93 137 113
94 133 128
83 112 128
91 113 154
88 106 149
86 104 146
90 110 150
107 123 151
128 145 168
128 143 166
129 146 169
127 143 167
128 143 166
130 145 170
129 145 170
128 142 166
139 159 173
133 148 176
131 142 171
142 149 193
163 173 227
160 173 231
156 172 233
153 171 233
152 170 233
155 172 233
159 174 233
170 178 232
177 178 227
161 153 206
139 130 179
127 112 171
109 90 156
128 119 173
110 113 159
121 137 162
119 134 158
113 131 149
107 121 144
124 140 163
106 125 134
87 117 114
80 110 102
62 94 82
48 90 62
74 106 96
102 123 134
105 119 139
115 124 143
131 130 148
139 139 148
126 119 134
130 117 140
111 91 123
109 89 121
111 90 121
115 93 125
96 79 101
73 96 78
51 104 63
29 91 79
3 90 93
3 83 86
3 84 86
3 81 82
3 83 85
2 67 69
2 77 80
2 69 70
19 77 78
76 100 113
118 131 152
125 135 159
105 117 138
121 132 156
123 138 160
124 137 161
117 131 150
131 146 168
102 111 123
83 97 99
44 86 84
41 81 79
42 85 83
39 72 70
52 76 72
62 67 60
70 59 49
89 69 56
114 120 131
184 202 227
190 209 239
203 222 249
198 217 242
208 227 252
202 220 243
211 229 253
213 231 255
210 227 252
209 227 251
211 229 253
213 230 254
209 226 249
207 224 246
211 228 252
210 226 249
210 227 250
212 229 253
210 227 250
204 221 243
211 228 251
211 227 250
213 230 253
213 230 253
214 229 253
213 228 253
215 232 255
214 230 254
126 130 138
95 94 113
103 97 77
121 120 129
173 175 170
186 183 181
185 183 181
185 182 181
185 182 181
185 182 181
184 182 181
184 182 181
184 182 181
184 182 181
183 182 181
183 181 181
183 181 181
183 181 181
183 181 181
182 181 181
182 181 181
182 181 181
182 181 181
182 181 181
182 181 181
181 180 181
181 180 181
181 180 181
181 180 181
181 180 181
181 180 181
181 180 181
181 180 181
180 180 181
180 180 181
180 180 181
180 180 181
180 180 181
180 180 181
180 180 181
180 180 181
180 180 181
180 180 181
180 180 181
180 180 181
180 180 181
180 179 181
179 179 181
179 179 181
180 180 181
179 179 181
179 179 181
180 179 181
180 180 181
179 179 181
179 179 181
180 179 181
180 180 181
180 180 181
180 180 181
180 180 181
180 180 181
180 180 181
180 180 181
180 180 181
180 180 181
180 180 181
180 180 181
180 180 181
180 180 181
181 180 181
180 180 181
181 180 181
181 180 181
181 180 181
181 180 181
181 180 181
181 180 181
181 180 181
182 181 181
182 181 181
182 181 181
182 181 181
182 181 181
183 181 181
183 181 181
183 181 181
183 181 181
183 181 181
184 182 181
184 182 181
184 182 181
184 182 181
185 182 181
185 182 181
185 182 181
186 183 181
186 183 181
165 164 163
117 118 122
102 74 72
66 82 146
59 78 147
69 90 168
63 82 156
73 94 176
66 86 164
65 85 165
63 82 158
71 91 173
66 86 160
37 68 79
24 66 7
26 71 7
27 74 7
27 76 7
27 75 7
25 68 6
54 82 59
91 108 111
125 139 165
104 118 165
78 82 164
74 79 173
75 79 174
74 79 173
73 78 168
78 83 180
78 82 169
85 85 153
106 109 141
109 114 128
123 133 152
128 143 165
122 134 156
125 138 157
126 140 160
132 150 172
129 144 165
125 139 160
119 131 152
131 146 165
127 144 165
125 140 161
119 131 150
134 151 174
128 144 168
131 148 172
127 142 155
103 120 123
82 85 89
82 27 45
85 17 36
83 17 35
79 16 34
115 128 148
129 144 165
121 136 160
106 105 147
91 71 130
85 29 132
72 15 107
74 21 87
72 22 59
73 22 60
72 22 58
65 20 52
64 43 72
46 94 119
34 112 141
29 112 141
28 108 136
31 117 146
27 102 128
30 118 150
27 106 131
29 113 140
35 117 140
64 134 109
81 146 92
103 168 58
103 173 61
110 174 76
115 177 89
112 159 113
113 150 129
98 121 150
91 108 142
96 113 148
121 137 162
123 138 164
128 145 166
117 134 154
120 133 153
129 144 167
120 135 158
140 154 180
170 191 207
188 208 227
189 205 230
161 173 208
152 159 206
167 178 233
162 175 233
158 173 233
156 172 233
156 172 233
157 173 233
159 173 231
148 155 203
131 126 186
121 107 179
89 53 168
89 51 169
86 49 172
93 61 173
90 67 165
104 99 163
105 115 146
109 124 142
118 134 154
110 130 143
118 135 151
115 131 149
103 120 134
83 107 108
111 127 145
102 127 131
119 138 145
138 163 157
153 178 169
160 188 170
163 193 171
154 178 161
150 166 154
127 130 130
109 95 121
112 92 125
105 84 110
110 89 117
97 96 108
65 93 85
16 88 86
3 89 92
3 82 85
2 75 77
3 81 84
2 75 77
2 69 70
2 73 75
2 63 65
2 63 63
60 85 92
111 124 146
119 136 154
111 122 145
114 130 149
114 128 149
126 143 164
123 136 159
94 114 130
80 110 123
50 89 89
8 94 95
7 87 88
8 92 94
7 85 87
21 89 90
55 84 82
61 69 63
76 60 48
99 93 92
168 183 203
190 208 233
194 213 238
209 228 254
208 226 252
206 224 250
204 222 247
206 224 248
204 222 247
208 226 251
209 226 250
211 228 253
206 224 248
207 224 248
213 231 255
212 230 254
210 228 252
210 228 252
210 227 250
205 222 246
212 229 253
212 229 253
208 223 248
213 230 254
212 229 253
213 230 253
207 221 246
213 229 253
106 105 109
91 96 110
90 90 67
79 88 78
95 120 108
146 144 143
179 176 174
186 183 181
186 183 181
185 183 181
185 182 181
185 182 181
185 182 181
185 182 181
184 182 181
184 182 181
184 182 181
184 182 181
184 182 181
183 182 181
183 181 181
183 181 181
183 181 181
183 181 181
183 181 181
183 181 181
182 181 181
182 181 181
182 181 181
182 181 181
182 181 181
182 181 181
182 181 181
182 181 181
181 180 181
181 180 181
181 180 181
181 180 181
181 180 181
181 180 181
181 180 181
181 180 181
181 180 181
181 180 181
181 180 181
181 180 181
181 180 181
181 180 181
181 180 181
181 180 181
181 180 181
181 180 181
181 180 181
181 180 181
181 180 181
181 180 181
181 180 181
181 180 181
181 180 181
181 180 181
181 180 181
181 180 181
181 180 181
181 180 181
181 180 181
181 180 181
181 180 181
181 180 181
181 180 181
181 180 181
182 181 181
182 181 181
182 181 181
182 181 181
182 181 181
182 181 181
182 181 181
182 181 181
182 181 181
183 181 181
183 181 181
183 181 181
183 181 181
183 181 181
183 181 181
184 182 181
184 182 181
184 182 181
184 182 181
184 182 181
185 182 181
185 182 181
185 182 181
185 182 181
186 183 181
186 183 181
182 179 177
143 144 146
116 120 125
104 99 106
86 75 96
74 86 145
67 87 161
64 83 156
66 87 163
61 79 148
63 82 155
70 90 170
60 78 147
60 79 146
56 74 130
45 68 86
36 62 31
32 63 12
26 65 8
27 74 7
25 67 6
27 73 7
70 95 87
104 118 132
93 102 153
76 84 161
68 72 161
70 74 161
72 77 168
72 76 167
75 80 174
75 79 174
72 77 168
70 74 159
94 99 159
111 121 146
107 117 134
124 136 156
127 140 160
120 133 154
124 138 157
120 131 150
130 139 156
110 114 134
127 142 158
120 132 152
127 144 165
132 149 171
132 147 169
132 149 169
129 145 165
126 142 163
130 145 165
120 135 152
94 85 99
79 21 40
72 14 31
80 16 35
80 16 35
137 162 175
129 143 163
123 136 158
124 136 161
112 107 152
93 61 134
86 51 124
68 35 92
69 20 71
62 19 50
68 21 55
66 20 54
49 27 44
44 85 109
30 114 142
28 108 135
27 105 130
30 114 142
28 108 138
28 107 133
27 104 129
29 111 139
56 132 122
86 159 79
100 175 45
98 171 33
119 183 80
136 179 122
151 186 151
165 192 173
154 184 164
158 180 175
155 176 175
138 155 166
132 149 170
117 130 153
118 135 162
114 129 150
124 139 164
117 135 153
119 135 157
130 146 167
164 181 209
200 220 247
200 219 248
183 196 231
169 177 227
171 180 233
166 177 233
166 177 233
163 176 233
163 176 233
163 175 231
160 169 221
135 133 189
95 68 161
87 53 168
81 44 159
86 47 169
86 46 167
82 44 163
82 45 161
87 55 165
99 93 159
109 125 145
117 133 149
117 133 149
119 135 152
120 137 156
105 123 138
108 126 143
119 135 153
126 144 154
137 159 154
168 198 175
171 209 185
169 208 185
168 207 185
167 205 183
161 194 170
148 172 149
129 134 128
104 94 106
107 88 117
100 81 108
99 87 106
70 77 85
24 79 77
3 83 86
3 83 87
2 77 79
2 69 71
2 75 77
2 65 66
2 74 77
2 66 65
5 67 68
69 87 100
117 133 151
112 127 145
123 138 157
115 130 149
126 140 160
119 136 156
122 140 162
85 112 125
20 91 93
8 89 90
8 90 92
8 89 91
8 89 90
8 91 91
9 91 93
8 77 78
38 103 114
61 128 147
62 127 148
131 167 188
180 198 222
192 211 237
200 219 245
193 212 237
206 225 250
202 221 245
209 228 253
211 230 255
208 226 252
207 226 250
208 227 252
207 225 249
208 226 250
211 228 253
210 228 253
204 221 245
210 227 252
211 229 253
211 229 253
209 227 251
211 229 253
209 225 250
213 230 254
213 229 254
213 230 254
210 225 250
206 221 245
123 127 128
93 100 110
109 114 96
87 100 88
59 83 94
100 95 93
93 106 96
143 142 143
158 157 158
169 167 166
186 183 181
186 183 181
186 183 181
185 183 181
185 182 181
185 182 181
185 182 181
185 182 181
185 182 181
184 182 181
184 182 181
184 182 181
184 182 181
184 182 181
184 182 181
184 182 181
183 182 181
183 181 181
183 181 181
183 181 181
183 181 181
183 181 181
183 181 181
183 181 181
183 181 181
183 181 181
183 181 181
182 181 181
182 181 181
182 181 181
182 181 181
182 181 181
182 181 181
182 181 181
182 181 181
182 181 181
182 181 181
182 181 181
182 181 181
182 181 181
182 181 181
182 181 181
182 181 181
182 181 181
182 181 181
182 181 181
182 181 181
182 181 181
182 181 181
182 181 181
182 181 181
182 181 181
182 181 181
182 181 181
182 181 181
182 181 181
182 181 181
182 181 181
182 181 181
183 181 181
183 181 181
183 181 181
183 181 181
183 181 181
183 181 181
183 181 181
183 181 181
183 181 181
183 182 181
184 182 181
184 182 181
184 182 181
184 182 181
184 182 181
184 182 181
184 182 181
185 182 181
185 182 181
185 182 181
185 182 181
185 182 181
186 183 181
186 183 181
186 183 181
181 178 176
155 155 155
123 126 130
118 121 128
98 112 100
94 113 104
85 88 110
65 76 124
65 84 158
59 76 145
66 86 161
61 80 151
65 84 157
64 82 156
67 73 121
70 78 124
72 75 103
76 76 96
59 64 67
37 52 16
34 53 14
31 64 11
41 72 45
64 85 79
104 117 128
104 116 146
81 87 151
72 76 163
64 68 147
70 74 163
68 73 160
67 71 158
70 74 159
70 75 166
70 74 163
69 73 158
77 82 158
113 126 162
125 138 159
117 130 147
130 145 164
127 140 152
138 152 163
131 143 153
100 92 104
97 99 113
129 144 167
126 141 166
128 146 161
131 148 164
131 144 164
131 145 162
124 141 160
133 148 168
105 117 138
114 122 142
88 85 101
74 28 43
77 16 33
75 15 32
81 16 35
158 201 197
138 163 172
121 135 156
122 137 157
125 134 161
95 92 127
100 93 135
90 83 117
89 81 103
80 66 86
71 44 68
57 17 46
64 29 54
44 64 85
29 108 136
28 105 131
30 114 141
28 107 135
25 97 122
26 100 121
28 105 131
45 109 107
83 150 74
93 162 31
101 171 42
117 181 76
157 188 153
167 192 176
167 195 184
163 193 184
164 193 184
166 193 184
171 196 184
163 184 174
141 158 166
130 148 171
110 123 144
114 129 151
120 134 156
114 127 154
125 143 167
110 126 147
143 161 183
173 193 221
181 203 232
153 163 198
148 153 191
166 174 218
161 173 211
164 175 219
169 176 228
161 169 222
154 159 213
149 155 211
107 96 170
84 46 161
80 43 159
86 47 169
86 47 174
84 45 164
87 47 170
82 44 158
81 44 156
81 55 151
105 105 161
115 130 152
126 143 164
120 137 153
120 136 156
127 143 162
126 144 164
118 135 147
142 162 159
177 208 180
175 211 185
170 208 185
168 207 185
168 207 185
169 208 185
169 204 179
152 175 149
139 156 135
107 101 108
108 91 114
95 76 101
93 79 100
96 99 116
47 96 99
2 78 80
2 77 79
3 81 83
2 73 75
2 69 71
2 71 73
2 67 68
2 54 55
2 52 50
75 96 109
103 122 141
112 128 145
120 136 157
122 138 161
113 128 144
112 125 145
105 120 137
66 98 105
8 89 91
7 81 83
7 86 86
7 85 86
7 84 87
7 85 86
15 100 113
23 133 156
27 138 166
28 144 173
28 144 176
68 156 185
155 185 212
189 210 236
187 207 231
194 214 240
204 224 250
209 229 255
204 222 248
205 224 249
209 228 254
208 227 253
206 225 250
208 226 252
208 226 251
210 228 253
209 227 252
209 228 252
210 228 253
211 229 254
210 228 253
205 222 247
204 222 246
208 226 250
209 227 251
210 225 251
213 231 255
208 224 250
208 225 250
110 116 115
111 117 121
118 121 103
93 92 90
62 83 93
106 92 103
84 93 83
112 116 108
107 121 111
117 118 121
114 115 118
143 144 145
156 156 156
173 171 169
176 174 172
185 182 180
186 183 181
186 183 181
185 183 181
185 183 181
185 182 181
185 182 181
185 182 181
185 182 181
185 182 181
185 182 181
184 182 181
184 182 181
184 182 181
184 182 181
184 182 181
184 182 181
184 182 181
184 182 181
184 182 181
184 182 181
184 182 181
184 182 181
183 182 181
183 182 181
183 181 181
183 181 181
183 181 181
183 181 181
183 181 181
183 181 181
183 181 181
183 181 181
183 181 181
183 181 181
183 181 181
183 181 181
183 181 181
183 181 181
183 181 181
183 181 181
183 181 181
183 181 181
183 181 181
183 181 181
183 181 181
183 181 181
183 181 181
183 181 181
183 182 181
183 181 181
183 182 181
184 182 181
184 182 181
184 182 181
184 182 181
184 182 181
184 182 181
184 182 181
184 182 181
184 182 181
184 182 181
184 182 181
185 182 181
185 182 181
185 182 181
185 182 181
185 182 181
185 182 181
185 182 181
185 183 181
186 183 181
186 183 181
186 183 181
186 183 181
183 180 178
168 166 165
163 162 161
133 135 138
112 119 124
105 116 121
125 124 132
104 108 101
86 109 90
79 95 91
80 89 121
84 96 135
59 77 144
60 78 147
52 68 127
64 79 147
67 79 146
92 93 158
106 98 154
122 110 171
126 112 176
121 107 163
109 99 150
68 68 85
46 55 44
36 54 15
41 59 38
91 110 119
114 127 141
98 110 156
73 78 154
63 66 143
60 64 140
61 65 140
63 67 145
62 66 144
71 76 167
67 71 156
70 74 160
65 70 152
71 77 163
100 111 158
139 154 167
150 165 167
169 187 182
169 189 184
181 202 194
173 192 185
144 153 151
134 136 140
110 125 130
139 154 171
135 156 162
114 139 140
129 153 156
131 137 153
124 135 156
112 112 128
113 124 140
109 133 145
91 89 102
90 75 87
71 14 30
74 15 32
66 13 28
164 213 205
162 203 197
121 142 150
113 123 148
103 113 131
120 131 154
107 112 135
103 110 133
88 92 115
86 84 103
80 76 96
78 67 87
78 66 82
67 61 76
53 105 129
27 104 130
27 104 129
26 97 120
26 101 124
27 103 127
23 91 113
67 131 88
97 170 37
97 169 32
107 161 63
163 178 149
165 166 151
159 152 139
162 172 161
157 169 159
160 187 179
165 194 184
168 195 184
173 197 183
163 181 167
136 149 163
129 145 166
118 132 154
117 132 154
114 128 152
127 143 166
126 140 164
123 141 163
130 147 171
154 174 202
132 146 174
110 114 141
118 130 151
121 142 143
135 149 180
137 141 181
131 143 205
125 139 199
135 148 213
115 125 199
92 89 171
86 66 167
82 45 163
81 44 159
81 44 156
81 44 163
77 42 152
77 42 152
74 40 141
80 59 143
114 124 161
131 145 166
127 144 165
125 142 163
126 139 157
129 147 166
128 146 157
165 188 174
182 215 184
179 214 185
172 208 187
166 203 189
154 190 195
159 194 193
158 190 186
167 199 173
143 163 140
111 117 95
97 83 103
88 71 94
88 75 96
91 96 113
71 97 104
35 77 79
3 79 81
2 67 70
2 66 67
2 64 66
2 67 68
2 65 66
2 63 63
48 76 81
106 119 137
118 132 150
114 128 147
116 129 148
109 122 140
117 127 145
114 128 144
95 119 131
19 86 88
7 83 83
8 87 87
7 82 83
7 82 83
7 84 86
14 98 108
23 128 155
27 143 173
27 144 170
28 143 175
28 143 173
28 143 176
107 154 179
179 199 224
193 213 240
189 209 235
202 221 248
200 219 245
202 222 248
205 224 250
200 219 245
207 226 252
206 225 251
202 220 245
206 225 251
206 225 250
207 226 252
211 230 255
209 227 253
211 230 255
209 228 253
205 223 248
210 228 253
210 228 253
208 226 250
209 226 252
207 222 248
206 224 249
211 229 254
97 109 124
83 94 103
94 88 76
117 111 119
60 82 65
101 95 81
99 108 111
90 91 98
108 133 115
98 82 81
98 82 108
87 85 92
98 107 103
107 115 112
123 132 128
124 127 130
136 138 141
154 154 154
158 157 157
169 167 165
166 164 163
180 177 175
183 180 178
185 182 180
186 183 181
186 183 181
186 183 181
185 183 181
185 183 181
185 182 181
185 182 181
185 182 181
185 182 181
185 182 181
185 182 181
185 182 181
185 182 181
185 182 181
185 182 181
185 182 181
185 182 181
184 182 181
184 182 181
184 182 181
184 182 181
184 182 181
184 182 181
184 182 181
184 182 181
184 182 181
184 182 181
184 182 181
184 182 181
184 182 181
184 182 181
184 182 181
184 182 181
184 182 181
184 182 181
184 182 181
184 182 181
184 182 181
184 182 181
184 182 181
185 182 181
185 182 181
185 182 181
185 182 181
185 182 181
185 182 181
185 182 181
185 182 181
185 182 181
185 182 181
185 182 181
185 182 181
185 182 181
185 183 181
185 183 181
185 183 181
186 183 181
186 183 181
186 183 181
186 183 181
181 179 177
174 172 170
170 168 167
150 150 151
146 147 149
118 122 124
113 119 121
111 123 120
109 114 113
101 103 103
106 117 120
81 102 104
65 76 104
77 94 91
90 111 93
59 80 91
69 77 78
91 101 141
55 70 129
55 70 134
55 71 135
84 88 156
108 102 170
128 113 183
133 117 188
133 117 188
133 118 189
135 118 188
133 116 185
121 107 166
96 89 128
61 62 71
45 57 39
76 88 93
112 126 144
96 109 147
68 72 145
67 71 154
63 68 150
63 66 145
69 73 157
60 64 142
65 69 152
64 69 151
66 70 155
68 72 155
69 75 155
128 139 166
180 198 191
189 211 199
189 214 203
185 212 203
184 212 203
185 213 203
185 208 197
188 209 197
187 205 202
180 191 202
169 188 196
139 165 155
156 180 175
169 178 195
167 176 196
162 171 188
160 174 193
131 147 158
123 137 153
88 87 97
81 42 53
68 14 29
71 14 30
165 212 203
165 209 198
130 158 157
122 137 153
105 114 136
102 112 134
102 108 131
104 112 134
112 119 140
105 111 129
95 101 118
92 102 114
104 110 128
80 86 100
85 106 122
53 97 116
31 89 110
22 87 105
23 91 113
23 90 113
26 90 106
63 120 76
102 159 44
117 151 62
142 125 92
158 127 109
152 118 100
150 118 102
151 121 104
147 122 107
155 150 138
158 170 158
172 196 183
168 189 174
160 175 158
143 155 148
129 144 159
125 140 162
114 127 152
127 143 166
124 141 162
124 137 161
124 139 163
127 143 165
118 133 156
112 124 153
100 107 140
95 107 132
96 114 141
114 133 180
121 142 207
117 138 202
120 141 207
119 139 207
117 136 203
112 132 200
98 107 181
87 70 161
80 48 160
80 43 153
82 45 161
78 43 152
79 44 157
78 44 153
92 73 157
106 108 153
121 136 157
112 124 143
126 140 163
124 140 159
131 146 166
129 145 152
143 161 148
169 196 172
165 193 188
123 152 206
103 133 216
92 121 215
95 124 205
105 135 203
134 164 195
133 156 173
121 138 119
82 74 85
95 79 103
83 73 90
116 123 142
103 120 135
86 105 119
33 70 73
2 67 68
2 68 69
2 66 69
2 65 66
4 58 58
55 80 83
91 108 122
101 116 133
117 133 147
125 138 157
117 129 145
113 124 138
114 127 144
109 122 140
68 99 110
7 83 82
7 80 82
7 78 78
7 79 80
7 78 79
8 81 83
20 114 135
27 145 170
28 144 174
27 141 170
27 140 170
28 143 174
28 144 175
66 157 187
154 184 211
187 208 235
196 216 244
197 218 245
202 222 250
203 222 249
205 225 252
202 221 248
198 217 243
209 229 255
204 223 249
207 227 253
208 227 253
207 226 252
209 228 254
209 228 254
204 223 249
208 227 253
211 230 255
209 227 253
209 227 253
207 225 250
210 229 254
208 226 251
209 228 253
210 229 254
114 119 136
76 100 112
88 90 74
110 81 103
92 55 51
83 78 59
98 109 113
85 83 93
120 127 122
95 99 103
70 67 95
77 79 117
88 95 83
77 88 80
87 94 58
106 109 103
84 103 103
68 77 76
109 113 117
90 95 114
124 125 128
107 132 112
121 125 117
112 123 128
135 136 139
135 137 140
139 141 147
157 156 156
155 155 156
157 158 157
165 162 160
176 174 172
175 173 171
177 175 173
176 174 172
184 181 179
183 180 178
183 181 179
185 182 180
186 183 181
186 183 181
186 183 181
186 183 181
186 183 181
185 183 181
186 183 181
186 183 181
186 183 181
185 183 181
185 183 181
185 182 181
185 183 181
185 183 181
185 183 181
185 183 181
185 183 181
185 183 181
185 183 181
185 183 181
185 183 181
186 183 181
186 183 181
185 183 181
185 183 181
186 183 181
186 183 181
186 183 181
186 183 181
186 183 181
186 183 181
186 183 181
186 183 181
184 181 179
183 180 178
178 176 174
173 171 169
177 175 173
165 164 163
163 162 161
159 158 158
153 153 153
149 149 149
131 133 135
123 127 128
117 121 126
102 120 94
115 107 111
117 104 115
116 116 119
67 77 78
94 111 103
90 56 118
85 72 58
72 70 77
107 111 111
111 105 107
70 76 100
108 121 124
80 116 74
68 83 91
67 72 71
97 111 139
65 81 130
45 57 110
67 74 134
106 98 162
123 109 176
133 116 188
133 117 188
129 112 180
122 107 173
137 120 192
129 112 180
132 117 187
127 113 179
98 90 133
43 51 43
52 65 53
106 123 137
110 122 159
65 71 136
60 65 141
58 61 132
62 66 141
62 66 145
64 68 149
64 68 148
63 67 146
68 73 158
62 65 139
101 107 157
161 175 181
197 219 203
188 214 203
184 212 203
181 210 203
180 210 203
182 211 203
186 213 203
194 217 203
194 205 193
195 197 209
169 155 164
157 145 145
149 121 124
165 149 163
180 171 187
184 189 210
177 186 207
153 169 188
125 144 162
106 111 128
78 54 68
70 35 45
61 11 24
164 207 194
148 196 172
138 173 165
131 156 167
126 141 164
116 132 149
106 118 134
110 124 142
112 123 144
114 128 147
113 124 144
107 119 139
110 123 141
101 112 130
99 113 127
84 102 118
70 104 119
54 97 115
46 95 116
32 83 104
37 80 90
84 132 62
119 128 70
139 126 86
150 114 97
151 116 98
148 113 96
156 118 99
145 112 95
153 118 99
143 112 94
146 123 108
165 170 154
176 194 176
150 163 143
124 130 122
122 136 152
117 131 148
120 134 154
123 139 159
128 144 166
120 134 154
125 141 164
121 136 157
124 138 160
122 136 160
109 119 151
110 119 157
106 122 177
110 128 188
116 133 198
116 139 204
115 134 201
115 134 199
114 135 201
110 129 195
112 135 197
108 122 190
88 85 168
77 42 152
69 37 131
73 40 142
76 42 150
70 38 138
73 44 139
90 87 138
122 136 154
115 128 149
124 137 157
127 141 161
121 134 153
117 129 140
117 129 130
141 168 178
98 123 197
73 100 206
62 90 202
67 97 215
64 92 207
64 92 204
62 90 203
74 99 198
82 96 125
89 91 94
83 69 86
94 90 111
122 135 154
109 125 144
99 115 133
82 104 114
30 64 67
36 69 70
38 73 74
36 70 72
47 68 77
67 85 96
91 102 116
105 115 130
101 113 128
99 109 123
111 124 140
95 107 121
105 117 134
100 111 123
71 95 106
7 83 82
7 81 82
7 78 78
7 82 83
7 83 83
15 98 111
25 130 157
27 137 167
25 131 160
26 134 163
27 142 172
28 142 171
26 133 160
28 141 170
105 159 188
168 189 215
190 211 239
192 212 240
196 216 244
203 224 252
198 219 246
205 226 253
208 228 255
208 228 255
205 224 251
207 227 254
209 229 255
207 226 253
207 226 253
208 227 254
206 226 252
209 228 254
206 225 250
205 224 250
209 228 254
209 228 254
208 227 253
207 226 252
206 225 251
209 228 254
131 137 147
59 99 74
85 84 81
92 76 97
87 47 65
96 86 85
88 108 106
93 118 114
120 123 124
46 59 118
47 85 103
99 90 97
66 73 83
74 86 87
56 59 53
92 40 28
97 99 95
108 110 115
104 109 113
90 93 82
99 101 93
117 127 126
89 67 106
82 90 97
117 122 126
112 134 137
72 103 91
75 101 88
118 136 131
127 134 130
95 80 82
106 70 72
90 104 93
109 123 115
127 131 141
131 127 134
126 115 124
128 130 135
123 124 134
127 129 134
134 135 140
148 148 149
141 142 144
148 149 150
144 144 145
147 148 149
156 155 155
154 154 154
155 155 155
149 149 150
152 152 153
162 162 161
160 159 159
154 154 154
153 152 153
153 153 153
147 147 149
156 156 156
153 153 153
145 145 147
144 145 147
152 152 153
146 146 148
146 147 148
138 140 142
149 150 151
142 143 144
136 138 142
138 139 141
131 133 136
123 126 130
130 132 135
121 125 129
125 128 133
120 124 129
120 123 128
121 128 135
121 130 129
119 121 128
118 121 123
118 121 125
118 97 97
93 107 117
103 100 98
81 97 103
61 110 58
84 83 78
96 77 62
88 96 79
52 83 92
77 95 89
83 69 72
80 61 57
81 85 89
91 86 91
65 93 102
88 96 120
85 101 116
74 101 74
76 86 86
85 85 89
95 107 124
105 122 144
77 90 132
92 89 149
123 107 169
119 104 166
124 108 174
122 108 172
124 110 178
127 112 182
124 108 172
124 107 170
127 111 177
129 111 176
111 98 154
63 65 80
46 57 46
84 97 105
113 125 153
75 82 145
61 64 140
64 68 144
65 69 151
64 68 150
65 69 151
64 66 146
62 65 145
65 69 150
78 84 144
158 169 178
190 207 191
178 200 192
158 183 183
171 198 193
181 208 201
185 212 203
185 212 203
188 214 203
183 200 189
159 145 139
152 110 112
133 71 75
139 76 80
137 74 77
134 72 75
133 77 81
146 99 107
143 120 134
144 156 177
123 138 159
115 124 141
111 117 132
80 70 84
71 47 57
146 185 170
113 151 118
126 169 141
118 140 148
127 143 164
104 118 135
111 123 141
122 135 155
119 133 150
113 127 147
115 128 148
115 131 153
106 120 138
118 133 153
112 124 143
110 127 144
86 103 119
87 99 115
80 98 115
85 102 118
81 108 103
102 110 79
141 116 90
143 110 93
155 118 99
139 108 92
143 110 94
147 112 95
141 108 93
140 107 93
140 108 92
144 112 96
148 130 114
166 175 155
134 145 134
116 118 120
119 132 139
125 141 161
120 136 157
123 139 161
125 140 161
125 142 166
121 135 156
127 145 167
124 141 161
118 133 155
122 133 163
113 128 183
117 137 202
111 133 196
111 131 194
112 132 193
112 132 200
107 127 188
112 133 197
109 129 192
108 128 190
110 130 193
109 122 194
69 38 139
74 41 147
75 41 144
67 36 133
67 37 125
78 54 146
105 106 156
128 144 163
119 132 153
122 138 159
119 134 153
120 136 154
103 113 132
89 106 144
68 94 193
55 81 182
62 90 200
65 93 211
62 92 203
61 91 197
60 88 194
64 93 209
62 90 200
61 85 186
66 75 129
92 91 109
96 100 116
114 130 148
106 120 139
98 113 129
100 114 132
84 97 106
75 93 102
51 70 78
52 69 75
65 71 79
87 102 114
84 93 103
94 104 116
90 99 111
94 104 117
106 116 132
97 105 117
108 120 134
89 99 110
74 96 105
7 86 86
7 80 81
7 78 78
6 72 74
6 76 76
15 98 112
27 136 160
25 131 158
26 135 164
27 140 170
26 135 165
27 138 167
28 141 168
26 133 160
46 135 162
133 167 196
175 196 224
191 212 240
194 215 243
199 220 248
198 219 246
202 223 252
206 227 255
198 218 245
206 226 254
202 221 248
201 221 248
202 222 249
205 225 252
203 222 249
205 225 252
207 227 254
209 229 255
205 224 250
206 225 252
204 224 250
208 228 254
206 225 252
207 226 253
207 227 253
129 137 146
55 81 60
92 79 92
87 81 94
92 72 83
113 79 49
94 110 109
51 115 104
111 115 119
48 63 112
56 127 142
99 104 106
88 81 81
86 103 99
39 75 84
69 70 87
97 101 105
107 110 115
105 107 113
88 72 97
92 63 77
92 93 102
81 60 101
143 130 151
125 123 127
75 84 91
78 62 114
103 108 131
121 131 149
98 99 102
67 44 62
77 76 74
68 84 68
76 99 85
96 100 106
123 114 121
101 87 100
68 68 77
82 74 94
101 104 119
61 57 110
114 117 124
119 123 128
120 123 128
111 114 120
106 114 113
116 120 123
117 121 125
115 119 124
121 108 114
119 118 123
120 124 128
119 123 128
119 122 126
119 122 126
112 117 127
116 121 126
119 122 126
119 123 128
118 122 127
110 118 127
119 123 128
121 124 128
118 122 126
125 113 119
119 122 126
117 121 125
119 120 123
119 120 124
119 122 126
118 122 127
119 122 126
121 125 128
121 131 127
104 108 103
116 120 123
115 131 143
79 99 99
89 91 105
105 106 113
87 113 106
86 94 98
55 96 116
107 104 101
81 42 50
95 99 103
62 62 51
59 91 75
58 101 96
33 72 73
45 85 61
41 54 78
99 72 76
101 92 97
57 65 75
24 88 62
119 121 130
73 94 114
76 96 83
101 108 114
93 85 95
109 124 140
106 120 140
93 109 129
116 108 165
118 103 165
121 106 171
120 107 171
119 104 167
118 103 163
103 90 147
126 109 174
119 105 169
132 114 182
127 110 178
120 105 168
85 79 110
33 47 30
79 89 98
119 134 159
97 106 154
59 63 130
61 64 141
57 60 131
60 63 139
63 66 143
65 69 150
56 59 127
56 63 134
47 62 118
90 113 144
71 100 128
75 106 136
73 104 134
89 120 146
107 136 155
162 187 184
190 214 202
180 194 183
147 133 128
128 75 78
130 70 74
135 73 77
130 70 74
124 67 71
127 69 74
131 70 74
129 70 74
132 77 82
134 105 117
114 122 140
114 125 144
128 141 161
92 95 110
90 96 110
121 153 136
105 145 117
103 143 117
114 143 143
120 136 155
119 134 153
124 138 153
113 130 148
117 134 150
112 129 149
124 136 157
119 131 150
106 121 138
113 129 148
112 132 152
104 122 139
108 122 142
116 129 147
103 117 136
98 116 132
111 124 141
131 113 99
145 113 96
140 108 91
155 117 99
141 110 92
142 112 94
130 100 86
135 104 89
137 106 89
129 99 83
138 106 91
143 110 92
134 123 112
104 119 105
95 97 111
115 126 143
131 147 167
128 141 162
125 142 163
125 143 163
126 140 162
119 134 155
131 147 168
118 132 152
118 133 154
117 130 161
116 133 191
113 132 197
116 135 196
112 130 193
108 131 187
103 135 180
87 149 151
80 151 136
75 174 130
91 159 155
96 135 166
98 128 169
79 72 149
75 41 149
65 36 130
65 35 126
66 36 128
77 73 119
115 125 155
131 146 167
130 145 166
131 146 167
123 136 157
123 138 157
102 115 150
73 92 182
59 87 195
61 88 196
60 88 192
62 90 202
61 89 197
56 83 185
57 84 186
59 87 196
55 80 176
63 91 205
69 88 170
89 98 133
97 107 123
99 110 126
110 125 142
108 121 139
97 107 122
93 102 114
94 104 120
106 118 134
97 106 119
93 107 120
98 110 125
109 119 136
102 112 124
101 110 123
109 117 133
105 116 132
109 122 138
99 110 123
104 114 130
93 108 122
32 79 80
6 71 72
7 77 79
6 73 74
6 72 74
18 107 123
26 137 164
25 128 157
27 136 163
26 135 160
26 137 167
25 130 155
27 138 168
24 121 147
64 113 153
112 126 170
146 164 194
185 206 234
198 220 250
195 216 245
197 218 246
201 223 252
200 221 249
205 227 255
203 224 252
203 224 252
203 224 252
205 225 253
205 225 253
203 223 250
204 224 252
208 228 255
207 227 254
204 224 250
202 222 249
206 226 253
206 226 253
205 226 253
206 225 252
204 223 250
156 169 185
52 61 45
80 55 75
99 88 92
72 58 70
105 70 34
99 107 101
53 113 103
98 107 115
109 118 108
144 167 132
80 98 103
95 97 100
54 93 70
24 87 53
79 86 92
109 112 118
106 108 113
103 105 111
83 66 104
85 70 95
99 100 110
103 102 109
123 111 113
115 112 119
20 52 83
58 54 93
90 87 120
92 99 120
86 119 94
44 62 38
62 69 63
75 91 91
26 73 68
55 73 69
15 45 33
85 95 88
71 104 31
73 77 30
129 97 93
101 93 106
117 121 127
143 146 151
113 117 124
35 45 64
34 56 48
90 100 97
117 121 125
104 108 117
69 30 71
102 82 92
141 140 130
124 126 123
118 123 127
109 114 123
47 71 124
88 98 121
113 117 122
119 122 126
85 102 118
49 78 100
106 112 119
114 119 125
122 102 107
125 74 81
119 110 115
116 118 123
119 119 123
116 102 105
113 113 117
117 121 127
116 120 125
108 113 114
89 119 110
71 90 84
111 116 121
97 100 98
74 80 63
77 82 84
89 104 103
1 85 63
71 88 79
76 86 83
106 91 63
90 62 41
112 86 89
122 51 9
69 84 66
70 103 89
67 82 81
67 114 54
60 75 83
100 75 78
102 71 73
32 45 55
60 90 67
132 128 138
94 103 112
81 92 88
103 109 110
89 71 81
113 126 148
104 119 140
110 119 149
124 115 168
120 105 169
117 103 165
120 106 168
115 102 163
115 102 163
116 100 161
116 100 160
123 108 173
128 112 177
125 109 174
129 111 177
112 100 158
62 64 78
95 109 122
117 133 154
106 119 154
74 82 125
58 61 130
57 61 132
51 54 120
56 58 129
54 57 126
56 64 136
50 71 132
34 74 121
32 76 120
33 79 125
32 77 122
34 81 127
32 77 121
33 78 122
74 106 136
137 156 160
149 133 127
128 79 81
117 64 67
125 68 72
124 66 69
131 71 75
123 67 70
126 68 72
121 66 70
129 70 73
129 70 73
116 73 78
117 109 127
120 133 152
120 132 152
110 120 139
105 114 133
104 137 122
88 119 102
111 145 134
112 128 140
125 139 162
119 135 154
125 139 159
127 143 163
122 136 154
129 144 166
121 137 158
118 130 152
120 133 151
122 136 155
121 138 158
120 136 157
129 143 164
125 142 164
131 146 167
117 136 156
128 138 155
137 109 96
140 109 91
139 108 91
138 107 89
140 108 91
141 109 91
142 108 91
134 104 88
147 114 96
134 101 86
133 103 87
118 91 78
131 110 94
97 96 90
108 121 116
111 125 137
123 135 155
129 143 163
123 139 158
125 141 161
123 139 162
127 143 163
127 142 164
121 134 152
120 134 156
108 123 160
111 130 190
106 124 183
109 127 189
102 123 179
94 151 160
54 168 98
41 172 70
19 191 34
27 194 47
18 185 33
27 176 48
59 166 104
69 117 121
62 59 123
61 34 119
64 35 126
66 49 120
80 70 135
121 136 161
121 132 154
119 131 152
121 136 160
119 132 152
122 136 159
87 103 160
69 93 191
58 85 190
55 82 180
57 83 185
56 80 181
57 83 184
56 82 182
59 85 189
56 84 183
57 82 180
61 88 196
59 84 178
85 99 147
96 106 121
101 111 128
93 105 119
95 108 120
102 111 127
104 118 135
105 117 131
99 108 121
104 111 123
117 130 148
110 121 139
104 116 133
113 124 143
105 112 129
118 132 150
108 120 138
116 128 146
100 109 124
110 121 136
111 125 142
79 95 106
34 76 80
6 70 71
5 60 61
5 64 66
16 96 111
24 126 154
25 132 156
23 121 145
24 122 149
24 127 154
25 127 156
23 118 144
33 130 158
79 103 154
92 88 152
130 140 181
171 190 219
187 209 238
190 212 240
193 215 244
196 218 247
199 221 250
203 225 254
205 226 255
203 224 253
202 223 252
203 224 252
205 226 254
205 226 254
205 226 254
207 227 255
206 226 254
202 224 251
205 225 253
204 224 252
202 222 249
206 227 254
203 223 250
202 222 249
169 184 205
60 59 47
88 49 83
95 64 63
93 84 87
93 70 53
102 91 79
80 99 99
101 108 113
114 121 112
145 158 118
90 100 96
99 104 108
79 98 93
20 73 41
85 93 96
96 102 108
106 108 114
111 116 122
58 61 98
80 61 93
91 72 93
102 102 109
100 98 102
61 67 82
20 61 83
23 71 90
54 73 88
84 93 125
84 100 129
61 92 80
67 71 68
77 83 86
62 77 78
90 97 101
91 92 96
99 70 82
83 72 58
88 73 72
86 64 111
107 90 97
114 117 122
113 117 123
112 115 122
78 83 90
91 92 96
107 110 116
104 106 110
76 77 91
55 15 49
53 23 46
94 99 93
87 119 98
91 112 102
107 111 117
56 66 99
18 15 65
82 84 97
103 112 107
93 105 105
85 96 109
104 107 113
111 115 121
92 69 116
100 34 115
118 63 70
108 79 82
111 113 117
94 84 86
59 61 66
94 96 102
115 121 122
114 131 115
32 75 75
59 85 87
109 113 116
86 85 66
72 70 66
73 71 93
92 100 104
67 87 81
49 68 47
62 70 47
85 72 37
95 83 79
108 39 36
106 38 26
85 85 80
97 103 106
91 112 98
67 111 101
81 91 91
116 91 105
106 94 103
45 54 58
70 81 72
102 98 106
100 106 112
70 81 76
90 95 91
86 83 97
107 121 141
118 135 157
122 124 159
112 101 152
114 98 159
118 103 162
112 97 156
113 98 158
120 104 169
125 107 171
114 101 159
108 95 150
113 99 159
108 94 151
117 101 162
105 94 146
67 67 87
104 119 136
121 137 159
122 138 161
119 134 159
78 87 131
51 55 103
54 59 108
51 53 117
44 50 107
41 64 116
29 69 110
32 77 120
31 74 115
31 73 114
32 76 120
31 74 118
32 77 122
32 76 120
31 73 115
43 74 115
74 74 107
122 66 71
120 66 70
121 65 69
123 66 68
118 65 68
122 66 70
126 67 71
125 67 71
126 68 71
132 71 74
128 69 72
125 88 97
120 130 150
118 134 155
128 143 162
114 125 145
101 133 125
106 139 132
99 131 125
118 138 150
122 136 156
129 143 162
122 136 156
125 140 160
123 137 157
126 142 163
124 139 158
127 141 162
124 142 160
128 145 163
127 142 163
130 147 169
128 144 165
131 146 163
132 150 173
125 141 162
131 132 144
139 109 97
142 106 89
140 107 91
138 107 90
139 107 91
141 108 92
131 100 84
133 103 86
130 101 85
129 100 84
123 96 81
131 100 86
120 96 83
125 125 113
110 126 121
120 137 151
125 140 165
119 136 158
115 131 147
125 141 158
120 137 159
127 143 165
116 131 154
121 135 156
122 138 162
109 124 166
101 113 167
107 126 185
96 125 166
73 153 121
43 180 73
18 184 33
18 177 32
16 163 30
17 176 32
17 173 32
18 185 33
18 183 33
40 159 75
50 113 97
60 59 117
58 31 116
86 80 135
104 111 140
114 127 144
122 137 160
116 129 147
125 139 157
116 128 148
125 138 161
96 112 166
59 86 191
58 83 184
57 82 185
54 81 178
62 90 200
58 84 191
58 86 191
53 79 173
60 89 192
57 82 184
59 86 192
56 81 185
78 97 167
79 97 102
59 86 77
66 95 90
48 89 71
56 85 71
65 90 85
83 103 106
98 112 126
105 115 131
114 128 149
104 117 136
114 127 145
100 110 121
121 133 150
110 122 139
114 128 146
107 119 136
118 132 151
112 125 143
116 127 144
80 97 106
57 78 84
30 72 76
14 63 63
5 59 59
14 90 100
24 126 152
24 122 150
25 129 157
23 120 146
23 117 139
24 122 145
20 105 129
50 122 155
83 78 134
82 78 134
81 76 133
134 144 185
163 183 209
182 204 233
194 216 246
191 213 243
199 222 252
199 221 250
195 217 246
199 221 250
200 221 250
200 222 251
200 222 250
201 222 251
203 224 253
201 222 250
202 223 252
204 225 253
202 223 251
204 225 253
204 225 253
205 226 254
202 223 250
203 223 251
174 189 212
77 80 79
66 42 54
103 66 66
96 82 82
95 81 74
96 88 83
97 104 107
97 104 109
105 110 109
95 106 82
97 104 97
100 103 108
97 89 92
87 44 32
101 98 101
102 108 113
104 109 115
85 92 110
8 44 98
28 46 99
68 52 73
104 106 113
99 104 111
84 88 95
43 65 76
21 65 82
50 75 89
74 82 110
81 90 130
88 101 111
109 115 121
110 114 120
103 107 113
92 97 100
91 83 88
87 53 67
82 53 64
65 52 94
66 55 106
89 86 110
102 104 106
131 134 139
136 140 142
114 118 122
108 113 118
107 110 116
108 111 118
99 103 109
50 52 77
30 37 73
57 71 86
67 94 78
84 106 94
106 110 115
83 85 95
14 6 49
54 72 52
66 87 46
79 101 63
118 122 126
152 150 154
136 138 149
74 4 105
77 4 109
92 60 73
100 88 90
107 110 114
75 78 83
49 52 57
80 81 84
100 104 110
120 105 110
124 46 50
119 62 63
99 104 107
88 90 89
41 26 68
39 23 71
92 94 103
100 105 109
70 80 72
73 80 76
86 82 78
92 86 87
95 16 5
82 52 52
97 101 104
107 111 114
65 71 128
38 43 145
100 102 110
133 123 150
121 112 131
74 79 80
81 83 86
93 95 100
106 111 115
70 83 75
94 96 100
96 104 119
120 134 157
125 141 163
116 126 153
124 111 168
116 100 161
110 96 157
110 101 164
115 105 171
108 97 161
114 101 166
118 103 162
119 103 165
106 92 148
114 100 160
109 94 149
92 83 127
77 84 96
105 121 145
116 131 152
114 129 151
111 127 152
85 95 120
81 90 119
82 91 116
77 85 125
48 62 100
36 71 111
31 75 119
29 70 112
30 73 116
30 72 114
30 72 112
30 71 111
32 76 119
31 73 115
30 70 111
29 69 109
52 70 105
89 69 94
121 65 68
119 64 68
126 68 71
121 66 70
113 62 66
113 61 65
124 68 72
118 64 67
123 66 69
124 67 71
116 69 74
130 132 150
122 136 157
119 134 158
135 151 173
101 135 124
108 139 132
115 135 146
130 147 171
124 139 161
121 135 153
126 141 160
125 142 159
123 139 157
128 140 160
127 120 144
142 125 153
141 105 140
137 120 149
137 132 159
125 138 159
126 143 158
124 143 157
128 146 166
127 143 163
118 123 135
138 107 93
139 106 89
132 101 86
133 102 85
137 103 87
124 95 79
131 102 85
125 96 81
132 100 86
127 99 84
116 89 78
121 92 80
132 106 92
112 116 108
115 132 140
123 138 157
124 143 160
121 136 159
115 131 150
126 140 160
123 139 162
119 136 154
120 134 156
118 133 154
120 135 157
110 125 164
107 126 184
106 123 180
83 140 135
28 173 46
18 174 31
17 173 31
18 178 32
17 171 31
18 184 33
18 178 32
17 177 32
17 169 30
17 175 31
26 156 48
46 94 89
84 85 126
99 105 136
115 130 147
100 113 133
113 124 146
112 124 145
116 130 151
122 137 158
110 122 143
80 100 158
52 75 163
54 78 174
55 82 181
58 83 184
56 82 182
56 81 180
53 77 175
57 84 191
56 82 185
60 86 193
56 81 184
51 77 169
50 85 128
44 82 65
33 78 55
33 76 53
32 76 53
32 76 53
33 79 55
32 77 54
56 84 77
97 116 129
111 125 142
106 117 133
118 131 152
114 129 144
115 126 145
106 120 138
111 124 144
105 118 134
102 113 128
114 129 146
99 112 126
105 115 130
97 112 127
78 93 103
53 65 71
21 58 61
26 72 79
34 104 121
22 117 142
21 112 135
22 114 137
23 116 139
24 126 153
23 119 145
59 112 151
83 81 136
83 79 134
92 86 149
90 86 144
138 151 189
176 199 230
184 206 236
193 217 248
196 219 249
195 218 248
191 213 243
198 220 250
196 218 248
198 221 250
198 220 249
201 223 253
202 224 253
203 225 254
200 221 250
201 222 251
204 225 254
201 222 250
204 225 254
202 223 252
200 221 249
203 225 253
192 211 237
65 73 75
66 58 56
110 75 62
95 72 65
95 95 97
84 83 85
103 105 109
109 112 116
104 106 109
82 89 81
92 100 97
100 108 111
89 62 60
84 14 5
96 66 68
106 111 115
109 113 118
81 89 110
8 39 88
8 42 95
68 62 77
96 101 107
95 98 104
103 108 113
82 89 95
39 60 71
57 72 81
74 80 94
63 69 95
77 81 95
85 67 100
83 70 94
95 99 105
107 111 114
99 101 105
81 67 75
84 67 72
75 72 84
66 61 87
95 96 107
102 102 108
108 113 119
109 113 119
109 113 119
106 110 116
108 113 118
107 110 115
99 104 111
28 40 70
15 31 67
37 47 77
86 96 93
85 89 88
83 86 89
85 89 95
78 80 87
74 89 69
60 82 38
70 84 60
98 100 104
102 105 113
90 93 102
43 64 73
42 63 75
87 87 90
96 97 104
100 102 107
85 89 94
66 64 70
95 98 102
102 102 107
116 42 47
132 22 28
118 43 47
107 108 113
92 92 100
35 25 58
47 40 69
101 104 110
106 109 114
105 111 115
91 91 95
99 103 104
96 93 95
90 66 68
100 103 99
92 96 98
103 107 111
26 30 134
35 39 133
95 98 116
123 111 133
103 100 110
104 107 113
91 93 97
103 107 110
54 112 104
74 85 78
93 89 94
96 104 120
125 140 160
123 137 156
114 126 155
101 103 150
89 86 151
78 89 164
75 97 187
69 91 178
77 96 184
80 93 175
76 85 158
107 100 166
104 90 146
107 93 150
107 94 147
96 94 129
100 112 129
124 139 162
123 137 158
115 131 153
102 115 138
118 133 156
108 121 141
91 102 124
100 114 136
62 86 117
28 67 107
29 70 111
29 70 109
29 68 108
32 76 119
31 74 117
30 72 113
28 67 106
29 69 108
29 70 110
31 73 114
30 71 111
69 62 88
107 61 68
119 64 68
117 64 68
115 62 66
113 59 66
115 61 68
111 58 67
125 66 72
109 58 64
117 64 66
123 81 89
123 114 131
120 136 159
129 144 167
126 142 166
92 119 114
100 122 128
115 130 145
117 133 148
121 136 153
126 143 160
126 142 162
127 140 159
130 106 139
144 74 125
150 49 116
159 25 117
161 10 117
160 10 115
149 54 117
148 53 119
134 112 140
129 144 162
127 145 161
125 141 160
119 126 135
141 110 95
126 96 83
130 100 83
131 100 84
124 94 79
134 102 85
129 99 83
135 104 86
116 91 77
127 98 82
121 93 79
115 89 76
121 97 87
107 113 112
105 124 129
116 133 147
116 128 151
113 129 144
111 129 135
127 143 163
118 135 151
125 142 162
118 132 151
118 134 151
119 133 155
116 135 170
99 113 157
90 133 153
29 159 56
17 173 31
18 179 32
17 170 31
17 173 31
16 164 29
17 171 31
17 168 30
16 160 29
17 170 30
17 171 31
16 162 29
52 154 75
81 103 109
104 113 138
113 124 144
108 117 139
109 120 142
100 110 129
113 125 144
114 126 144
104 113 131
84 103 153
53 77 177
52 77 171
57 83 179
54 80 179
53 77 173
55 80 176
53 77 173
60 86 193
58 83 185
56 81 180
54 78 174
42 79 111
31 73 51
31 75 53
32 77 55
31 74 52
33 76 53
31 73 51
33 77 54
32 76 54
31 73 51
41 76 60
87 108 116
118 133 151
104 117 134
115 129 147
114 128 146
98 112 128
112 126 140
119 133 150
103 116 134
114 129 145
108 122 140
105 121 137
107 121 136
103 118 135
91 105 117
84 99 114
88 102 114
74 106 124
46 111 130
21 113 135
22 116 139
22 113 136
20 103 126
25 122 148
64 89 127
81 78 131
81 75 130
85 79 136
86 81 141
94 94 144
120 130 168
168 187 216
187 210 241
190 213 244
190 212 242
193 215 246
196 220 250
194 217 247
200 223 253
197 219 249
199 222 252
201 223 254
188 209 238
201 223 253
199 222 251
202 224 253
202 224 253
203 225 254
202 224 253
199 220 249
202 224 253
201 223 252
87 90 97
71 62 58
96 71 68
101 69 53
99 101 107
102 105 109
105 108 113
101 106 108
103 105 126
86 82 160
102 103 136
109 113 119
95 77 79
83 14 5
81 21 18
100 102 106
108 113 119
94 98 107
26 43 81
6 33 74
78 83 97
93 97 103
101 106 113
100 103 109
98 103 108
88 92 98
80 86 92
96 100 107
93 97 104
83 69 98
70 34 90
66 32 84
71 60 91
106 109 117
101 104 110
93 93 99
88 93 95
94 96 102
96 99 107
101 102 109
111 114 120
101 105 112
109 111 116
96 104 106
73 94 82
89 99 97
107 110 114
101 105 111
69 75 86
36 42 63
56 63 80
90 90 92
62 62 47
56 53 31
62 63 51
97 101 105
97 102 103
81 89 83
94 100 98
104 107 114
101 103 109
58 76 76
7 61 54
8 63 56
64 80 81
107 112 117
101 103 109
96 98 103
100 105 108
105 101 110
107 97 109
111 19 24
112 19 25
109 36 46
104 99 109
98 100 108
76 75 83
73 73 82
103 104 108
103 105 111
108 113 116
91 94 99
102 107 112
101 102 109
85 124 78
81 159 46
95 125 96
95 100 113
27 27 129
69 74 114
78 76 93
89 81 98
101 104 110
102 105 110
100 103 108
86 118 117
59 112 105
82 85 88
87 82 88
115 129 150
131 148 170
120 136 157
115 129 151
82 101 178
66 91 180
57 83 166
60 88 175
57 83 164
61 88 176
63 91 181
58 83 165
80 96 183
82 87 156
100 88 141
110 104 149
102 114 136
127 143 166
130 147 169
116 130 152
124 140 162
121 134 158
121 137 158
123 140 163
111 126 145
113 130 155
41 76 115
28 66 105
29 68 107
29 69 109
28 67 106
29 69 109
30 71 111
29 70 110
28 66 105
30 73 114
30 72 114
30 70 110
29 70 109
58 70 105
92 52 60
104 57 60
109 59 66
107 53 66
100 47 66
101 44 69
103 44 69
99 42 68
105 46 70
104 49 67
115 63 73
113 118 138
119 136 162
126 141 163
126 141 163
103 119 124
110 130 140
130 147 162
119 137 150
121 141 159
128 145 162
126 126 150
147 67 123
155 10 112
157 10 111
163 10 116
148 9 104
155 10 110
154 10 110
151 10 109
146 9 106
138 19 103
132 105 138
114 109 146
109 89 143
103 71 131
103 70 120
107 66 124
116 83 107
129 94 98
122 93 83
123 93 79
125 97 79
124 95 80
119 91 77
126 97 82
123 93 80
110 84 74
117 107 100
95 111 111
100 117 124
108 122 138
116 132 147
114 127 144
112 131 144
117 132 151
121 137 155
117 134 151
123 138 159
112 126 145
113 128 147
120 137 163
101 117 163
69 127 119
24 168 43
16 160 29
17 170 31
17 170 30
16 165 30
17 167 30
17 170 31
17 169 30
16 160 28
15 152 27
16 156 28
16 161 29
19 148 28
95 134 121
113 123 143
102 113 129
104 104 132
114 124 149
114 121 144
110 121 144
104 112 133
112 124 142
93 107 141
59 81 174
48 69 159
55 80 177
56 82 182
53 77 170
52 76 169
51 76 164
54 79 175
52 77 166
54 78 175
44 73 133
32 76 61
32 76 53
31 72 51
32 75 53
30 70 49
29 69 48
30 72 51
32 75 52
33 77 54
29 68 47
31 72 50
66 94 91
119 135 151
111 126 142
120 135 155
117 130 149
115 129 148
123 141 160
109 126 144
113 130 148
116 128 147
116 135 154
121 139 161
112 129 149
106 121 136
112 128 147
102 119 138
109 127 147
97 113 132
89 121 140
67 117 139
40 98 120
21 109 131
20 103 125
18 94 114
59 98 133
78 76 126
86 80 139
89 83 144
82 77 134
85 79 138
86 85 133
119 128 166
175 197 228
191 215 247
185 208 239
193 217 248
193 217 248
187 209 239
194 217 248
195 218 249
198 221 252
196 219 250
197 219 249
201 224 254
199 222 252
197 219 249
200 223 253
198 220 250
196 218 247
194 215 244
195 217 246
199 221 250
128 136 153
69 68 66
92 87 86
106 75 59
97 98 102
109 112 117
110 113 116
111 114 118
102 105 130
80 76 156
75 71 140
102 105 117
95 93 98
77 13 4
77 13 4
100 99 103
101 102 108
92 94 101
67 70 84
69 74 85
93 97 105
104 109 115
94 96 103
101 107 114
97 101 107
100 105 111
103 106 112
102 105 111
97 100 106
84 73 96
61 30 79
69 33 88
65 39 81
102 103 111
100 104 110
102 105 110
107 111 116
109 113 119
103 107 114
109 113 119
96 101 103
105 107 113
83 96 92
33 70 42
30 76 39
31 68 38
87 97 96
96 101 106
83 88 94
85 89 92
83 87 93
57 59 53
54 52 30
46 49 28
49 47 27
85 88 85
103 107 111
105 111 115
105 110 113
97 102 108
108 111 116
45 66 64
7 55 49
7 57 51
59 74 74
102 104 109
109 114 119
108 110 117
94 68 96
90 22 82
94 23 83
90 48 75
104 45 58
116 48 95
116 49 101
103 79 102
90 90 95
105 105 109
117 115 116
100 107 106
107 108 113
103 108 113
99 104 109
124 150 155
128 164 172
93 152 98
83 128 74
88 90 100
27 28 103
82 86 101
89 87 98
88 82 91
70 93 81
79 94 90
113 117 123
54 105 98
67 108 101
105 111 113
72 72 83
113 124 145
120 133 150
109 124 155
77 99 171
62 87 169
63 90 179
58 84 167
56 82 161
59 85 169
60 85 168
59 85 171
55 81 160
59 85 170
59 85 170
71 81 150
114 120 147
103 114 131
114 129 147
116 131 149
117 132 154
111 126 146
126 140 160
122 137 157
122 138 159
110 124 146
103 121 147
46 78 115
28 66 103
27 65 102
27 63 100
28 66 105
27 66 103
28 67 107
29 69 108
28 67 105
27 65 102
29 68 107
30 70 110
30 72 113
41 65 101
84 55 70
101 52 62
104 47 67
92 40 64
100 43 67
98 42 67
97 42 66
99 42 67
103 44 70
98 42 68
102 48 73
107 86 108
115 124 143
123 139 160
123 139 158
132 108 96
125 121 122
119 136 151
118 136 151
121 141 155
124 136 153
145 99 139
146 9 103
154 10 108
151 10 108
153 10 107
147 9 107
148 9 106
147 9 106
143 9 104
146 13 109
128 41 122
110 55 132
103 59 134
104 60 136
104 59 135
105 60 137
102 59 135
102 58 133
104 63 129
110 77 105
117 90 81
120 91 77
116 89 74
120 91 78
111 82 68
109 84 70
111 90 80
101 104 105
107 118 128
103 117 130
107 118 131
119 135 153
113 131 147
113 128 147
117 132 149
123 137 153
116 130 152
120 135 154
120 135 155
121 137 158
115 131 148
121 139 167
77 150 113
16 157 28
16 160 29
16 158 28
15 149 27
16 168 30
16 168 30
16 164 29
17 172 31
15 155 28
16 162 29
16 164 29
16 165 29
16 161 29
75 133 103
119 115 150
119 80 137
127 66 146
126 44 139
126 83 145
119 86 143
118 103 147
118 130 155
104 124 154
63 82 157
51 75 171
51 73 165
51 76 168
52 76 170
53 78 176
55 81 178
50 73 162
52 78 166
47 72 153
38 75 97
33 73 51
46 76 51
65 68 41
70 67 38
75 69 38
65 67 39
51 64 40
36 65 44
29 69 48
27 65 46
31 74 52
29 70 49
71 96 97
123 139 160
129 146 169
127 144 166
108 122 142
122 138 158
122 139 160
120 134 154
115 129 148
121 140 164
115 132 153
120 136 156
114 134 156
107 129 148
107 129 149
108 127 146
108 127 144
105 122 141
82 110 126
61 104 123
43 81 97
29 78 95
42 83 100
57 86 113
76 72 126
82 78 133
86 79 137
78 74 129
80 74 128
80 75 129
87 89 136
125 137 174
162 183 214
182 206 236
186 211 243
192 216 247
193 217 249
195 220 252
195 219 250
195 219 250
199 223 254
194 217 248
195 218 249
192 214 244
195 218 248
200 223 254
200 223 253
197 220 250
200 222 253
197 219 249
200 223 253
143 153 177
76 94 101
95 96 99
103 73 57
92 89 92
106 108 112
106 112 117
107 111 115
95 96 127
76 71 146
70 65 136
83 83 130
106 108 116
78 65 69
73 55 59
90 89 94
95 98 104
102 104 109
117 108 124
122 116 131
106 108 116
98 102 108
99 104 110
108 111 117
108 111 118
100 104 111
108 112 117
103 106 113
96 100 105
97 96 106
62 40 76
62 30 77
60 44 72
97 99 104
102 105 111
103 106 112
108 113 119
109 112 118
106 111 117
108 113 118
115 123 127
109 114 119
66 82 75
26 66 36
26 67 35
26 66 35
51 73 59
103 109 114
100 105 111
101 106 110
92 97 101
66 93 76
30 111 60
27 111 60
37 92 50
89 97 96
102 106 112
103 108 113
106 111 114
93 98 104
99 102 105
75 87 86
21 45 42
33 52 51
86 89 93
95 96 101
103 108 112
90 80 94
83 13 75
86 14 78
84 13 75
85 35 77
103 49 90
108 46 94
118 50 102
110 61 100
106 107 113
108 113 119
128 132 137
153 158 163
118 123 125
103 108 111
116 134 136
128 165 173
125 164 175
115 153 143
81 128 72
86 88 99
85 89 96
100 103 112
89 89 96
71 90 80
13 69 35
75 92 84
101 109 113
39 104 95
85 107 105
125 130 136
91 94 107
111 123 145
113 124 146
76 96 161
58 85 171
56 81 161
58 85 172
55 81 162
58 85 169
59 85 169
60 87 173
56 82 164
56 81 162
57 83 166
56 82 165
59 83 161
99 110 141
112 125 144
105 118 138
98 109 125
110 121 139
109 121 138
120 132 153
119 133 153
118 132 149
122 137 160
97 115 138
52 77 105
28 66 103
26 61 96
28 66 104
30 71 112
28 65 103
28 66 105
26 60 96
28 67 104
29 68 107
26 61 97
31 75 117
29 69 108
54 64 97
91 52 67
99 43 66
96 41 65
91 39 63
98 42 67
85 36 58
92 39 62
92 39 62
100 43 68
93 40 63
97 41 65
98 43 69
110 88 110
124 138 159
133 148 170
141 81 36
136 78 38
136 111 109
117 126 138
126 143 162
132 121 146
145 9 102
144 9 96
148 9 101
154 10 108
133 8 92
141 9 100
130 8 92
130 8 94
139 18 103
123 43 121
99 57 129
95 55 125
99 57 131
98 56 129
101 58 134
98 55 126
98 56 126
92 52 121
98 56 130
96 55 128
107 71 112
101 78 69
111 86 69
110 83 69
106 81 68
106 87 82
121 128 142
118 130 144
122 136 150
120 135 152
118 133 151
119 135 155
124 138 157
120 131 149
115 129 147
115 127 147
122 138 158
116 129 148
124 140 160
117 131 151
121 135 156
114 131 146
71 154 96
16 160 29
15 155 28
15 151 27
16 160 29
16 162 28
15 155 28
14 141 25
15 150 27
16 164 29
15 157 28
15 149 27
16 166 30
69 137 78
116 70 127
119 36 131
124 33 139
120 31 132
127 33 139
123 32 134
121 31 131
123 39 137
119 83 139
115 115 148
103 117 150
64 81 156
45 66 150
49 72 159
52 74 160
47 69 155
45 66 151
49 74 160
43 64 141
49 74 153
48 72 68
68 69 40
83 67 32
80 64 31
81 65 31
81 64 30
82 65 31
77 62 30
80 69 36
55 69 44
38 69 47
30 71 50
30 70 49
56 84 77
119 135 156
119 136 157
123 141 161
127 141 161
123 140 162
116 132 154
115 135 157
116 134 155
112 128 150
114 130 150
123 144 166
117 134 153
111 130 151
111 129 149
113 132 153
112 133 154
112 130 151
98 116 133
91 112 127
100 119 138
94 112 129
91 107 124
72 92 110
54 64 98
48 57 89
46 57 86
61 64 105
73 73 123
77 73 127
71 68 120
87 85 136
121 134 169
146 164 192
172 179 216
166 165 207
172 171 212
169 166 207
171 178 214
192 214 247
192 216 248
193 217 248
195 219 250
193 216 248
195 219 250
193 217 248
199 223 254
199 223 254
198 222 253
195 218 248
196 219 250
176 192 221
61 112 123
91 93 99
100 79 70
98 90 90
102 103 107
99 102 106
103 107 112
101 104 114
72 68 134
71 68 141
72 69 138
76 71 127
84 83 96
93 94 101
96 98 103
107 109 115
116 108 121
137 126 151
132 124 151
133 121 144
112 110 120
103 108 114
98 103 109
110 113 118
103 106 113
98 99 106
105 109 114
96 97 104
92 95 101
80 79 86
71 67 75
78 78 84
93 94 101
93 96 102
100 105 110
109 112 118
100 103 109
115 125 129
127 147 154
127 148 157
123 139 144
77 90 86
24 62 32
23 61 31
23 60 31
44 70 53
101 107 111
100 105 109
97 102 106
81 97 92
27 107 60
23 113 62
24 118 65
23 110 60
58 102 75
101 107 111
93 96 99
102 108 113
95 100 106
94 98 103
88 90 94
84 85 87
92 95 99
91 97 102
95 99 105
96 98 105
83 70 84
77 12 68
77 12 68
78 12 67
79 33 69
102 43 89
100 42 87
107 46 95
107 58 95
103 105 112
98 103 108
106 110 115
99 103 105
96 100 105
106 112 116
87 97 107
120 150 153
117 146 149
99 139 118
97 107 101
96 101 109
101 106 111
95 101 105
97 100 109
35 76 49
13 71 36
76 93 88
92 105 108
34 104 95
100 109 114
103 109 114
100 109 125
121 135 156
102 114 147
64 86 160
57 83 164
54 79 156
59 85 171
54 79 158
52 76 150
59 85 171
57 84 168
53 76 152
60 84 164
60 83 164
58 83 165
56 80 158
69 86 149
101 110 132
102 113 134
100 112 133
106 119 136
115 128 147
114 125 148
118 132 154
113 127 146
114 128 148
121 134 154
56 79 105
25 60 96
28 67 104
28 67 105
23 56 89
26 62 96
27 63 99
27 64 102
24 57 91
27 64 101
29 68 105
29 68 106
26 63 99
66 64 95
92 44 65
94 40 63
87 38 60
90 39 63
93 40 63
96 41 65
90 38 61
89 39 62
89 38 62
94 40 64
94 40 64
92 40 64
90 39 63
111 104 124
128 145 165
137 80 36
133 77 35
132 79 43
131 111 112
133 140 162
130 80 116
142 9 101
140 9 97
140 9 98
135 8 89
141 9 101
131 8 91
120 7 84
133 15 98
113 35 108
92 52 117
92 52 116
98 56 128
94 54 125
95 54 124
100 57 132
96 55 125
93 54 123
95 54 125
103 59 134
94 54 124
89 51 118
97 63 104
106 79 67
101 80 69
109 97 95
103 100 105
117 127 146
115 124 138
113 121 134
120 132 148
119 130 149
121 137 155
118 131 151
125 142 161
119 137 160
116 132 152
123 139 163
120 133 154
113 128 151
118 133 153
110 123 142
121 137 161
66 146 87
16 158 28
15 153 27
15 152 27
15 149 27
16 159 28
15 155 27
15 159 28
16 159 28
15 154 27
15 151 27
16 160 28
58 122 67
119 51 130
122 31 133
119 31 132
124 32 137
115 30 129
121 31 133
127 33 139
114 29 122
108 28 120
107 28 120
111 54 124
119 105 146
97 114 153
74 91 155
45 69 136
48 69 154
41 60 139
49 71 159
42 60 137
41 61 138
47 64 105
71 58 31
80 65 31
84 66 31
76 60 29
79 64 30
75 59 28
81 64 31
78 62 30
81 65 31
74 59 28
68 66 38
40 74 50
29 69 48
53 81 73
104 122 137
126 143 164
119 134 151
124 139 165
116 131 153
123 139 162
124 142 160
122 138 161
121 136 161
116 133 155
125 142 163
125 142 164
128 146 169
128 145 166
107 129 149
116 130 153
115 135 155
115 132 148
117 136 158
114 133 154
101 118 137
55 72 87
20 45 59
20 46 61
19 42 56
20 47 62
20 44 59
20 45 59
44 53 83
68 67 113
76 71 120
103 78 134
149 108 169
150 112 173
140 96 153
138 93 152
147 98 161
147 101 161
139 104 158
170 174 212
186 205 241
190 214 247
170 192 224
158 178 210
141 160 194
169 190 223
173 195 228
178 200 232
195 219 251
194 217 248
198 221 253
77 113 128
87 99 105
94 82 78
90 82 78
97 98 102
92 79 74
94 79 73
99 100 106
88 87 115
68 64 134
51 37 135
44 24 136
55 42 136
83 81 106
97 98 105
98 100 110
126 116 131
139 127 151
131 122 147
141 128 151
120 108 126
102 107 114
107 110 115
107 111 118
105 107 112
108 112 117
107 111 116
102 104 110
103 108 115
92 95 101
99 103 109
99 102 108
93 96 104
105 109 116
103 107 112
103 108 112
98 106 110
128 145 151
123 146 156
121 145 157
128 148 157
121 136 139
47 65 54
32 58 37
38 58 47
72 79 77
98 101 106
91 94 100
90 96 102
67 93 81
20 95 52
20 99 55
22 107 58
21 105 57
41 109 68
90 99 98
97 102 108
99 103 108
97 102 105
107 111 116
95 99 103
104 110 114
102 106 109
99 104 108
91 93 98
93 96 103
85 81 90
68 11 60
71 11 63
67 20 60
79 69 81
94 39 82
91 38 79
92 39 82
98 82 98
99 101 108
99 102 107
101 106 109
104 113 113
98 102 105
91 100 100
78 94 101
85 100 105
69 83 86
72 87 82
99 106 109
100 105 113
94 96 104
101 106 113
81 94 87
12 65 32
12 65 33
97 105 110
87 102 102
59 99 93
103 109 115
104 108 114
110 122 142
121 136 159
102 119 160
53 76 153
55 78 156
54 78 157
52 76 152
55 79 157
53 74 147
55 72 139
61 67 125
64 67 122
65 64 111
68 67 121
68 72 131
66 68 121
62 81 150
102 115 148
117 127 150
121 133 155
103 113 134
117 129 149
108 121 140
115 128 150
113 124 143
123 135 154
118 130 148
79 98 123
23 55 88
26 61 96
26 62 98
28 68 106
25 60 93
23 54 85
28 66 105
26 61 98
23 54 86
27 63 99
27 64 101
37 68 102
78 60 84
84 37 59
91 39 62
92 40 65
93 40 64
85 37 60
97 41 66
92 39 62
94 40 64
88 38 60
91 39 62
95 41 65
94 41 64
95 41 65
100 72 92
124 133 153
125 74 33
126 72 33
133 78 35
130 75 40
120 105 111
139 51 106
128 8 87
128 8 89
135 8 96
138 8 97
135 8 95
128 8 90
121 7 84
121 23 94
97 49 116
92 51 115
91 52 120
87 49 114
97 56 128
97 56 128
100 56 128
93 53 121
93 54 124
96 56 129
92 52 121
91 52 119
90 51 115
90 56 114
79 62 68
89 80 79
96 99 108
109 122 141
110 120 134
115 127 143
109 118 135
117 129 146
121 133 151
118 129 146
116 127 148
121 132 150
130 145 167
122 136 157
117 131 151
114 128 151
127 142 162
114 126 144
107 124 143
123 136 155
74 144 99
15 147 26
16 160 29
15 150 27
13 135 23
16 162 29
13 131 23
14 145 26
12 129 23
16 157 27
15 148 26
45 138 54
110 54 123
117 30 128
120 31 129
115 30 125
122 32 135
119 31 132
118 31 130
120 31 132
117 30 128
108 28 118
114 30 125
108 28 119
107 74 127
104 117 146
84 97 131
64 79 141
44 57 125
45 61 127
42 59 122
45 58 122
58 66 113
76 61 44
72 55 26
79 62 30
74 59 28
75 58 28
74 58 27
79 63 30
79 63 30
79 62 30
76 60 29
71 58 28
76 61 29
66 62 34
35 65 45
48 80 69
118 133 155
112 128 151
125 144 166
129 146 168
119 136 157
128 145 167
129 146 167
122 136 156
123 138 157
122 140 163
117 134 156
127 142 164
122 138 160
124 140 160
117 135 153
119 137 159
124 142 164
123 140 159
122 137 161
78 93 111
22 43 56
19 42 56
19 44 58
19 44 58
18 41 54
19 45 60
19 44 58
18 41 56
18 39 53
27 42 60
99 74 125
135 91 151
142 95 155
144 96 159
147 98 159
141 95 155
132 90 149
135 92 150
141 95 156
135 92 154
137 111 161
114 112 151
67 80 120
28 40 93
43 53 93
39 51 101
53 65 114
71 84 125
113 129 163
167 189 223
185 209 242
127 146 170
87 112 120
90 91 94
81 81 82
97 99 104
86 69 61
81 56 38
90 79 76
102 105 111
66 64 102
41 25 122
44 24 140
40 21 123
52 41 123
96 98 112
105 107 112
85 80 103
116 101 131
107 89 98
136 120 139
119 106 122
98 98 106
101 104 109
99 102 107
101 105 111
106 109 115
105 109 115
106 111 117
105 108 115
98 100 106
100 104 111
108 112 118
106 110 114
103 106 112
111 115 120
102 106 112
101 108 113
123 136 141
117 131 135
114 127 130
125 140 148
109 126 125
75 83 85
85 88 89
84 84 96
85 67 107
95 59 123
99 63 129
97 71 124
77 93 98
20 97 53
21 101 56
19 92 50
19 89 50
51 97 70
93 98 100
99 104 107
97 100 106
103 108 114
106 110 116
100 105 110
103 108 113
100 104 110
99 103 107
95 97 105
95 97 103
85 85 91
69 55 69
64 47 62
72 64 73
74 68 75
72 47 71
66 31 79
33 24 84
55 54 90
83 86 102
104 108 112
103 106 110
99 104 109
99 106 107
84 94 96
83 101 105
73 93 98
71 90 90
93 102 102
92 99 100
100 105 110
99 105 108
96 102 107
66 76 73
70 40 78
68 59 75
98 105 108
76 92 92
95 107 110
109 115 120
102 108 117
121 134 156
128 144 166
90 108 157
52 76 150
50 72 143
49 72 141
55 79 158
60 82 163
64 65 118
64 61 106
66 62 107
64 59 102
65 61 105
68 64 110
67 63 109
65 60 103
66 63 109
93 101 129
113 124 145
110 121 143
117 133 155
123 137 158
121 133 156
123 137 158
122 136 158
111 125 147
114 126 144
101 113 132
51 75 104
33 63 95
24 56 90
26 61 96
24 58 92
26 60 95
25 59 93
25 60 95
23 56 88
25 58 92
32 66 101
56 72 100
93 61 82
85 37 59
81 35 55
85 37 59
84 36 58
86 38 60
89 38 60
92 39 63
92 40 63
87 37 59
92 39 62
92 40 63
90 39 62
94 40 64
93 49 71
131 137 158
129 75 34
125 72 32
122 71 32
127 75 34
132 77 70
125 36 91
130 8 88
119 7 80
118 7 78
126 7 82
120 7 84
126 8 87
119 7 86
106 36 100
93 52 120
88 49 113
95 54 123
93 53 123
94 53 122
93 53 122
89 50 115
96 55 128
89 51 119
99 56 131
92 53 122
88 50 117
89 51 118
95 53 121
96 86 117
115 122 138
105 114 131
114 125 145
121 130 147
111 118 136
125 136 157
113 125 143
115 129 150
122 134 153
120 133 154
118 132 154
125 140 156
115 126 149
115 131 154
114 127 143
115 130 149
117 130 149
113 125 146
116 130 151
112 135 146
25 143 36
13 133 23
13 128 23
14 137 24
12 128 23
14 141 25
13 133 24
14 147 26
14 147 26
16 132 26
86 77 98
115 29 123
113 29 125
119 31 130
119 31 131
119 31 131
118 31 131
118 31 131
100 25 107
113 30 127
110 29 121
115 30 130
99 25 107
112 29 122
95 60 115
95 113 133
90 101 131
82 92 121
85 98 129
67 79 116
88 102 134
77 74 81
74 58 28
69 54 26
72 57 28
76 60 28
77 61 29
76 62 30
79 64 30
71 56 27
76 60 29
71 57 27
74 59 28
76 60 29
70 57 27
49 60 38
60 82 80
119 134 155
123 141 163
124 140 164
114 129 150
123 139 161
123 139 160
119 134 158
121 136 159
121 137 157
120 136 159
116 133 155
126 141 162
132 148 172
120 138 161
125 140 159
118 135 155
125 138 160
117 133 154
68 83 96
26 47 61
19 44 58
19 43 56
19 42 55
19 42 56
19 44 58
18 42 55
18 41 54
17 37 49
18 39 53
61 52 82
127 87 145
137 92 152
128 86 138
139 93 153
132 89 148
137 93 154
133 89 146
147 98 158
137 93 154
134 90 150
130 87 141
116 78 130
68 67 100
44 53 87
37 45 85
44 54 94
33 42 80
34 45 88
38 51 104
35 46 96
83 96 133
108 121 152
61 102 110
100 104 109
94 95 99
105 108 112
84 70 66
75 52 36
68 47 34
85 80 87
80 81 94
44 24 121
39 21 120
39 21 122
41 22 128
73 70 124
103 108 118
95 97 109
70 60 96
76 68 79
91 81 94
84 76 91
96 95 105
103 104 110
108 111 117
100 102 109
103 106 112
98 101 107
108 111 116
99 102 109
103 107 112
110 112 119
107 111 117
104 108 112
102 107 114
99 105 110
102 106 111
91 96 104
86 94 104
86 97 99
77 83 83
72 68 94
63 63 83
83 87 92
78 83 87
94 59 122
94 55 126
89 51 117
91 52 119
94 54 127
90 55 120
54 77 76
16 78 42
17 80 46
39 90 58
75 92 85
93 97 99
96 103 104
95 99 103
96 102 106
95 99 106
99 102 107
97 100 105
95 98 103
89 94 98
95 100 104
95 97 102
86 85 92
88 87 94
79 79 86
91 92 97
70 67 79
34 31 74
24 20 76
25 21 81
25 21 80
39 36 77
102 104 111
100 105 110
95 100 103
97 104 108
91 95 100
71 81 83
69 80 84
85 93 94
93 104 102
92 100 101
86 93 96
101 107 114
97 102 106
81 53 91
78 30 86
83 61 89
93 100 104
79 91 92
102 107 112
104 108 114
99 106 118
124 139 161
125 139 164
83 99 150
48 70 139
52 74 148
53 77 154
51 72 144
63 63 113
60 56 97
60 57 99
63 59 101
64 59 103
64 59 101
67 63 109
64 59 102
64 60 103
67 63 109
63 59 103
88 93 127
117 131 153
121 134 155
124 138 157
119 134 156
126 140 162
118 130 151
121 134 156
109 122 140
116 131 151
93 104 126
34 60 88
21 50 80
22 53 85
24 56 87
24 56 89
22 53 84
25 58 91
23 55 86
24 55 87
68 86 109
98 104 125
82 52 69
86 37 60
82 36 57
83 35 57
88 38 60
90 39 62
83 35 56
90 39 61
85 37 59
92 39 62
88 38 60
89 38 60
90 38 61
83 36 57
112 108 124
139 154 176
131 77 34
127 73 33
113 66 29
133 77 35
119 66 34
123 36 75
122 7 74
125 7 85
109 6 69
116 7 75
122 7 83
118 7 83
111 7 77
99 44 108
90 51 116
91 51 117
85 48 110
96 54 122
93 54 123
92 53 120
95 54 124
90 51 116
92 52 119
86 50 114
92 52 120
85 49 113
87 51 112
88 51 113
97 80 122
118 131 148
127 140 158
127 140 160
123 136 157
118 129 147
126 140 161
129 143 164
115 133 152
130 146 166
122 139 158
132 147 169
130 146 167
123 139 161
121 135 158
120 135 156
119 137 157
122 136 158
117 132 152
123 140 160
118 135 150
76 138 101
32 150 44
14 144 25
14 141 25
14 145 25
15 151 26
13 132 23
12 124 21
13 138 24
35 127 43
105 35 118
113 29 125
114 29 123
117 31 129
118 33 126
121 44 122
119 51 100
116 56 79
123 60 83
117 52 95
111 49 96
105 34 107
108 28 117
106 27 114
100 68 119
111 124 150
119 136 158
119 134 159
99 116 142
112 127 149
107 118 140
71 57 36
75 59 29
73 57 28
73 58 28
70 56 27
79 63 30
67 52 25
77 61 29
76 61 29
72 58 27
74 59 28
72 58 28
75 60 29
77 62 30
68 60 31
62 82 79
120 139 161
122 137 156
129 145 162
124 139 158
127 144 168
127 143 165
126 142 165
122 137 161
121 138 158
121 137 157
122 137 158
125 142 161
120 136 157
125 142 165
125 139 160
121 140 159
129 147 170
120 137 159
34 52 65
18 40 52
20 45 59
18 41 54
18 42 56
18 42 56
18 42 56
18 41 56
18 40 53
18 41 55
17 39 52
59 49 78
120 80 133
126 85 139
131 89 148
132 89 148
133 89 145
132 91 150
128 86 143
128 85 140
130 88 146
128 85 139
132 90 150
128 86 145
107 72 124
57 62 86
51 61 98
40 48 75
59 68 89
33 42 75
3 21 77
46 53 90
20 32 86
54 64 109
68 88 105
84 95 100
102 107 112
108 110 114
91 85 84
70 49 34
67 46 32
67 51 44
94 96 109
65 60 113
41 22 124
41 22 130
36 19 111
55 46 115
96 99 110
95 97 104
82 80 96
82 72 89
76 66 79
83 75 88
99 100 108
101 104 111
107 111 115
103 106 111
100 106 112
100 104 109
100 102 107
105 108 114
107 111 117
103 106 114
105 110 115
104 108 114
103 107 112
95 98 103
103 108 114
94 98 105
78 88 92
74 83 88
74 84 88
68 76 81
68 78 81
87 92 98
87 83 102
86 49 112
93 53 122
89 51 119
90 52 119
87 49 113
89 51 116
81 61 101
65 74 72
56 67 64
64 81 72
75 86 83
82 85 91
96 102 105
92 96 99
102 107 113
99 105 110
105 109 114
101 106 111
97 100 106
94 98 102
95 98 104
99 99 106
93 96 101
100 102 108
99 101 108
88 87 96
57 55 87
22 19 71
23 20 74
23 20 76
24 20 77
24 21 79
94 97 106
96 98 106
97 98 103
103 112 116
93 98 103
95 98 101
87 95 96
95 99 101
93 98 103
100 106 110
95 101 107
98 102 107
78 62 84
68 26 73
75 28 80
82 63 87
107 114 119
98 105 109
103 108 113
99 103 110
121 136 158
121 137 158
121 134 156
93 110 159
53 76 152
49 70 142
54 77 153
59 65 118
60 56 96
61 56 96
57 54 92
65 60 104
64 59 103
63 59 103
67 62 107
64 60 104
65 60 103
64 61 105
64 60 104
61 57 99
82 86 120
124 139 160
106 118 139
117 131 151
116 131 154
118 133 156
118 132 153
109 122 142
108 121 139
107 122 144
109 121 141
73 85 106
26 46 72
19 46 72
22 51 80
19 47 74
19 46 72
35 56 80
72 86 106
110 123 145
109 118 134
96 65 84
82 36 57
84 36 58
87 37 59
80 35 57
86 37 59
84 36 57
82 35 57
78 33 53
85 36 57
83 36 57
82 35 56
85 37 58
102 89 107
148 163 183
123 139 159
113 65 29
118 70 32
136 79 35
119 69 31
122 70 32
117 35 70
111 6 74
121 7 78
117 7 79
117 7 79
109 6 70
96 5 63
124 17 95
89 43 102
82 46 104
84 48 110
85 49 112
90 51 116
95 53 120
97 55 125
84 47 108
92 53 122
88 50 115
95 56 117
117 79 103
137 98 77
146 105 62
147 106 62
142 105 60
134 111 91
138 115 103
131 140 157
129 145 167
121 136 156
119 133 153
130 147 171
124 138 159
123 136 157
122 141 155
125 139 159
127 141 164
126 144 166
109 127 142
122 137 159
121 141 155
127 141 161
131 145 168
117 134 153
123 140 157
116 136 151
81 147 107
33 137 48
13 129 22
13 136 24
12 122 22
15 148 26
13 134 24
12 129 22
69 107 76
110 35 121
120 31 131
114 29 125
118 42 115
119 58 83
122 68 51
121 68 51
118 67 50
115 66 50
117 66 49
118 66 50
111 61 56
111 50 86
112 30 121
97 25 107
120 132 157
122 140 162
119 135 158
117 132 152
125 139 162
114 125 140
69 55 26
72 56 27
72 57 27
70 58 28
76 59 28
70 55 26
68 53 25
67 53 25
73 58 28
72 58 27
74 59 28
72 58 28
65 52 25
70 56 27
75 66 46
113 133 149
130 146 167
123 140 163
125 141 163
117 133 153
124 139 162
117 131 150
128 145 165
126 141 162
126 143 162
128 143 166
126 142 164
122 137 159
129 144 164
127 143 165
119 134 155
131 145 165
120 136 157
89 103 120
18 41 54
18 42 54
17 40 52
23 54 67
44 104 128
57 135 163
67 158 191
68 159 190
64 151 180
55 130 157
35 83 101
70 63 96
125 85 140
122 82 136
122 81 134
125 85 141
128 86 141
130 88 145
129 88 143
134 91 150
126 86 141
125 84 138
142 95 156
121 81 133
124 83 140
72 73 99
43 51 76
42 50 73
43 48 75
35 45 69
33 40 74
41 49 80
42 52 85
53 62 96
61 72 96
63 92 98
97 101 107
106 109 114
102 102 106
71 48 33
71 49 33
62 43 31
81 81 88
78 80 96
38 20 115
34 18 106
34 18 106
36 19 112
81 83 105
85 86 97
92 94 103
75 75 83
71 64 75
81 77 83
84 84 89
93 96 101
100 102 109
103 106 112
103 106 112
103 105 109
103 107 113
100 102 108
101 106 109
98 100 107
108 111 117
99 104 110
104 107 112
102 107 111
98 102 109
98 101 107
86 91 95
77 81 85
61 66 71
64 69 74
73 76 81
92 95 98
84 73 106
88 50 115
82 47 109
87 50 114
88 50 115
89 52 120
85 49 112
77 58 102
87 90 94
84 90 93
85 92 93
86 93 94
93 99 102
92 96 99
99 102 106
101 107 110
100 104 111
98 101 105
101 107 111
97 102 107
98 100 104
91 95 100
90 92 98
97 100 106
92 91 99
98 101 110
83 85 95
23 19 72
20 18 65
21 19 69
23 20 74
22 19 72
31 30 74
89 93 102
102 107 113
102 104 109
96 100 105
100 105 110
96 101 107
96 101 106
98 102 107
88 94 98
105 105 110
95 101 105
89 93 100
67 30 72
63 24 68
67 26 74
84 75 91
97 105 110
100 105 110
108 114 120
96 97 108
125 139 161
127 141 163
125 141 163
106 123 161
48 70 138
45 66 132
54 68 131
59 58 98
56 54 94
62 58 99
58 54 93
59 55 94
59 55 95
61 58 100
59 55 94
66 60 102
64 59 102
62 59 103
63 58 101
65 61 106
66 62 103
100 109 136
120 136 156
109 121 143
114 130 151
119 133 153
122 136 157
106 118 137
111 124 143
106 119 140
87 95 113
80 93 110
82 91 105
49 61 73
40 54 73
46 62 78
79 91 107
88 95 111
97 108 125
105 116 135
97 106 123
86 52 71
75 32 50
84 36 57
85 36 58
79 34 54
81 35 55
81 35 56
84 36 57
80 34 54
79 34 53
81 34 55
86 37 58
86 36 57
108 111 126
116 132 150
125 141 165
126 73 33
114 66 30
119 69 31
126 72 32
109 60 28
107 38 65
106 6 67
111 7 75
119 7 81
103 6 66
99 5 60
107 6 72
94 8 66
79 35 85
85 47 108
85 47 109
84 48 110
90 52 117
85 49 111
83 47 108
84 49 111
95 54 122
108 74 91
142 104 56
147 108 57
142 104 56
146 107 57
145 106 56
146 107 57
137 100 53
144 105 56
143 107 65
129 127 131
128 136 150
128 142 164
127 139 159
133 149 170
129 149 167
127 143 163
121 137 157
119 138 153
123 138 161
123 141 163
122 141 160
116 135 149
128 147 164
118 135 151
116 136 150
124 142 164
113 135 149
110 138 143
85 126 110
24 128 34
31 120 41
12 125 22
13 133 23
10 103 17
11 113 19
64 92 74
104 27 113
116 32 125
112 51 89
114 65 49
114 65 48
116 65 49
116 66 49
113 64 48
115 65 49
116 66 50
111 63 47
119 67 50
114 64 48
110 57 68
104 32 107
103 102 130
118 133 152
127 146 167
126 142 165
119 138 159
102 112 123
82 62 40
97 74 49
122 91 69
129 96 77
126 96 75
115 87 64
92 71 46
72 58 28
69 55 26
71 57 27
71 57 27
72 58 28
66 52 25
71 58 28
66 55 35
110 122 139
129 144 166
133 148 170
124 139 159
116 130 151
130 148 169
122 139 159
128 143 162
127 144 164
123 140 159
119 135 153
126 144 164
125 140 163
127 143 163
116 131 150
122 137 157
126 142 164
120 134 152
64 76 91
17 38 50
18 40 53
44 101 122
66 155 187
72 169 202
71 167 200
72 169 202
73 171 205
69 164 197
69 165 196
69 166 201
76 144 178
105 90 137
111 74 125
117 80 131
116 79 131
114 78 130
131 88 145
118 79 131
114 78 131
118 79 132
122 82 135
128 85 139
123 83 137
118 80 132
77 55 92
22 28 58
40 47 70
32 35 55
41 51 69
62 69 89
33 39 59
51 62 94
54 60 80
72 77 94
87 112 117
94 98 103
100 107 111
104 109 113
80 69 65
71 49 33
57 38 28
67 55 52
83 82 91
70 69 102
35 19 106
34 18 103
35 19 109
79 81 98
87 88 99
81 81 95
80 80 88
79 78 88
84 84 92
90 93 99
93 95 100
97 100 107
94 97 105
101 103 107
97 101 109
100 104 110
96 100 104
99 103 109
103 107 114
107 109 113
103 108 113
98 101 108
105 110 115
99 103 109
95 100 106
96 98 102
95 97 102
90 94 98
80 81 86
77 78 86
78 80 89
91 93 104
81 51 105
82 46 105
86 49 113
79 45 105
86 50 116
82 47 109
80 64 99
83 89 93
89 93 96
89 93 99
90 94 97
92 99 103
96 99 107
94 102 105
99 103 107
97 100 105
96 100 106
96 101 106
101 104 109
101 105 111
96 98 105
101 105 108
97 100 106
93 98 103
103 105 113
72 75 91
21 18 69
22 19 70
19 16 63
21 18 67
22 19 70
68 67 85
100 102 110
98 102 109
91 93 100
95 100 104
102 107 114
98 103 108
98 102 107
94 101 104
101 104 109
102 108 111
103 105 111
76 58 84
67 26 73
70 26 73
74 36 78
93 97 102
103 108 114
103 109 114
108 106 111
129 111 130
125 140 162
121 134 156
114 127 148
124 140 165
79 96 152
50 71 142
56 61 112
59 55 96
52 49 83
64 59 101
55 52 87
54 51 88
58 54 93
61 57 99
58 54 95
61 57 98
61 57 97
62 58 100
60 56 96
58 54 93
59 54 93
91 97 124
126 141 161
121 136 155
124 139 159
122 138 158
117 132 154
121 136 157
111 125 147
112 127 148
113 129 147
102 116 134
97 110 128
95 109 127
106 120 138
103 115 134
99 108 124
97 110 127
95 107 125
96 108 126
109 123 142
95 84 98
73 31 50
80 34 54
78 33 54
85 36 57
80 34 54
81 34 55
84 36 57
80 33 53
77 33 53
81 34 55
74 31 49
92 64 82
123 137 153
112 128 146
111 121 141
106 62 28
111 63 28
113 64 29
121 69 31
112 66 38
115 83 96
117 46 88
103 6 67
104 6 71
96 5 63
90 5 57
90 5 53
96 9 64
93 35 90
75 41 93
78 44 100
74 42 97
86 50 112
82 47 107
83 47 107
83 47 108
123 89 80
138 102 57
145 107 56
141 105 55
143 105 55
144 106 55
141 102 54
132 97 51
137 99 52
136 99 53
132 97 51
142 104 55
138 118 101
123 138 158
122 139 157
124 146 161
125 141 158
122 138 157
119 135 152
115 133 152
121 142 158
123 138 159
123 139 160
124 143 160
124 144 160
114 136 150
113 132 142
112 130 141
104 123 134
99 123 128
103 118 128
88 116 111
52 106 66
38 94 49
45 83 55
34 74 44
56 101 69
88 77 101
103 28 112
110 47 95
121 68 50
110 62 46
116 65 49
120 68 51
113 63 47
118 66 49
108 61 46
109 61 45
105 58 43
105 59 44
107 59 44
107 59 44
101 60 65
110 112 130
120 136 156
122 141 163
116 132 146
119 133 152
131 118 119
151 113 93
142 106 86
143 107 87
149 110 90
146 109 89
150 113 94
142 108 89
134 103 83
90 69 47
64 51 24
71 56 27
67 53 25
67 53 25
63 51 24
64 51 24
111 120 133
113 129 149
127 143 165
123 139 160
131 147 168
126 138 160
119 136 155
123 137 159
118 134 154
119 135 156
122 136 154
131 147 169
119 133 154
125 139 161
123 137 158
124 139 159
131 144 166
116 132 151
46 61 73
17 38 49
47 112 137
70 163 195
72 166 200
66 155 187
67 156 188
71 166 200
65 153 183
68 164 199
67 158 191
69 163 195
62 148 177
74 150 183
103 103 146
123 85 142
120 83 139
110 76 126
120 82 137
127 86 143
119 82 136
127 86 142
121 82 137
121 81 133
117 79 133
129 87 147
98 78 114
31 37 74
3 18 60
26 29 59
32 39 59
22 26 50
38 45 67
38 45 64
48 54 74
41 50 79
93 96 107
88 99 104
103 108 113
104 109 116
95 96 99
67 46 32
67 46 32
67 57 55
81 81 84
82 83 94
46 42 82
30 16 91
29 19 82
80 81 97
86 87 95
88 89 99
83 83 95
90 90 99
89 91 95
96 97 104
88 89 96
100 104 110
96 101 110
101 104 111
100 103 108
104 107 113
105 108 113
100 104 111
102 105 112
104 108 113
102 106 112
95 98 102
100 104 110
96 100 106
97 101 106
100 104 109
88 94 99
88 90 93
95 98 102
83 86 92
81 86 92
92 94 101
81 72 97
75 42 97
66 37 87
80 45 103
70 39 92
75 49 94
86 86 99
92 94 100
87 89 95
86 89 94
94 97 101
96 98 105
96 98 103
99 103 109
100 103 107
103 106 111
102 106 111
102 106 112
95 102 106
101 106 109
101 105 109
86 89 96
99 103 106
87 87 94
76 78 83
66 68 78
21 18 67
18 15 57
21 18 66
22 18 69
33 32 72
84 87 95
97 102 108
94 98 102
96 98 105
98 101 107
98 102 107
102 106 112
102 106 112
97 104 107
102 107 112
80 84 86
97 100 105
65 34 71
63 24 68
71 27 78
89 81 97
102 106 111
96 100 103
108 110 116
121 96 106
116 126 148
120 133 155
126 141 162
121 133 154
124 138 159
87 97 130
54 69 122
56 53 91
52 50 83
54 52 89
54 52 89
57 53 90
60 56 97
59 54 94
57 53 91
56 52 90
59 56 96
57 54 93
60 56 97
56 52 89
60 56 97
62 58 100
74 75 109
117 133 156
123 137 159
118 134 154
118 135 154
119 136 156
112 126 150
131 145 168
131 147 171
115 129 149
121 137 157
122 138 159
114 127 150
119 134 156
109 124 145
121 138 160
111 125 146
116 132 152
114 127 145
112 127 148
112 120 140
82 45 64
73 30 49
78 32 52
79 34 53
76 33 52
76 32 51
79 34 53
75 32 50
78 33 53
81 35 55
84 36 57
84 71 77
113 129 144
118 130 149
94 105 122
113 65 29
102 58 26
110 64 29
111 61 28
90 57 38
127 122 133
110 87 111
99 38 72
116 7 76
86 5 57
92 6 64
84 5 52
90 5 61
72 31 77
78 45 101
78 43 98
81 46 105
88 49 112
87 49 111
85 48 109
102 68 92
137 100 57
131 100 53
139 103 54
135 100 53
135 99 53
132 97 51
135 99 52
130 95 51
139 101 53
131 96 51
140 102 53
135 99 53
133 98 52
125 109 98
122 138 155
123 140 159
116 136 152
125 142 162
119 137 151
124 138 156
117 132 149
128 146 164
119 138 154
124 145 160
118 139 152
113 133 144
109 129 141
119 140 151
105 128 136
105 124 132
107 130 136
89 117 116
104 124 130
100 116 123
105 120 133
97 119 121
101 119 126
99 108 122
98 40 92
106 59 45
116 65 49
109 61 46
106 60 46
114 64 47
100 57 44
115 64 48
108 61 46
111 61 45
112 63 47
111 60 45
107 59 44
106 59 44
104 58 43
113 103 112
125 141 159
116 134 150
131 129 140
146 116 103
148 111 91
145 109 90
146 110 89
144 108 89
151 113 92
144 107 89
148 111 91
135 102 85
144 108 90
141 105 86
103 79 60
66 53 25
69 54 26
66 52 25
70 55 26
69 56 27
109 122 136
118 132 152
120 134 154
112 128 144
113 130 149
115 134 149
114 130 151
112 124 143
123 139 158
122 138 159
112 128 148
119 134 154
124 139 159
132 148 170
123 140 160
126 143 163
129 145 165
119 134 155
44 58 70
45 106 128
66 158 192
68 159 191
67 159 191
65 153 183
65 153 183
64 152 184
67 159 192
67 158 190
66 155 186
68 159 190
66 155 185
68 160 192
75 146 177
111 103 149
129 86 142
116 78 128
120 82 135
119 80 131
120 82 136
120 80 133
115 78 130
113 75 124
115 76 125
120 81 135
95 75 111
59 68 82
49 56 75
27 31 52
31 36 57
38 46 69
46 57 69
59 68 84
64 73 90
78 88 105
85 94 108
99 106 110
106 110 115
98 103 106
96 99 102
74 69 68
68 48 35
54 40 34
76 76 81
70 69 84
89 91 100
60 58 75
65 64 77
88 89 96
86 89 100
97 101 107
92 94 99
87 89 96
87 87 94
103 105 113
96 98 107
96 98 107
102 104 112
105 109 115
105 107 112
99 101 108
110 115 120
99 103 111
105 109 117
101 105 113
100 103 109
99 103 107
101 104 109
100 104 110
92 97 102
94 96 102
93 98 102
92 94 99
92 95 99
86 88 94
93 94 101
91 91 101
77 76 83
74 63 82
65 39 81
69 49 85
75 65 90
80 79 89
85 86 93
85 87 93
99 101 109
96 101 105
95 100 106
92 96 102
105 110 115
99 102 107
95 98 102
99 102 107
100 104 110
102 105 110
102 104 108
98 101 108
100 103 108
101 103 108
88 90 95
80 78 84
94 95 100
84 85 90
47 46 69
19 16 59
20 17 65
36 36 64
74 73 84
94 95 100
94 97 103
94 96 101
102 105 110
98 101 108
103 106 113
104 106 112
98 104 111
96 99 105
95 98 106
94 99 102
75 70 81
60 23 64
60 22 63
65 37 69
98 103 107
97 102 105
96 97 104
110 99 104
115 95 113
123 136 159
114 126 148
105 120 140
117 128 152
128 144 168
113 127 150
80 93 127
52 49 82
51 48 83
55 50 87
51 47 80
53 50 86
57 53 92
58 55 95
58 54 92
58 54 93
59 53 92
55 51 88
54 50 87
57 53 91
58 53 92
58 54 94
70 71 110
124 137 159
124 141 162
121 136 158
123 139 161
122 135 156
122 136 158
121 135 155
121 137 157
123 137 158
112 126 146
118 133 154
124 139 162
128 146 170
124 140 160
125 139 159
123 137 163
121 135 160
124 139 162
120 137 159
124 139 159
100 100 119
68 29 47
69 29 47
71 30 50
75 31 49
81 35 55
78 33 53
67 28 44
78 33 52
71 30 48
80 34 53
70 68 71
95 115 129
105 120 139
107 114 138
114 66 29
106 60 27
109 63 28
109 61 28
113 94 97
124 136 156
124 130 151
114 74 106
106 23 74
107 6 72
105 6 68
80 4 53
90 5 56
82 10 58
76 34 85
85 48 108
76 42 96
77 44 100
84 47 109
82 51 94
128 94 61
132 97 51
137 101 53
138 102 54
135 99 52
136 101 54
135 99 52
132 97 51
137 98 51
133 96 51
138 102 53
130 94 50
135 99 53
131 95 50
129 93 50
126 130 137
132 149 171
128 144 166
124 140 158
121 136 153
116 132 146
122 138 158
121 137 154
118 139 155
119 134 155
121 139 156
116 133 149
117 136 152
114 133 147
121 141 158
118 135 153
123 143 160
117 137 151
117 139 151
117 135 149
117 134 148
113 130 147
117 137 153
111 127 140
111 83 94
106 59 44
105 59 44
111 63 46
111 62 46
108 62 46
107 60 44
109 60 45
109 60 45
108 61 46
103 57 43
107 58 43
107 59 44
110 62 47
113 62 46
105 67 60
107 121 136
120 127 140
148 113 93
138 103 84
142 107 87
137 102 83
141 106 87
143 107 87
147 110 91
146 109 90
144 109 89
145 110 91
146 110 91
135 103 85
131 101 85
89 67 49
67 53 25
61 49 23
63 50 24
66 63 56
105 116 133
101 113 128
111 125 142
119 135 152
114 130 149
125 139 161
114 129 149
118 131 150
123 139 161
118 132 153
119 134 154
119 135 155
129 145 165
128 145 167
127 142 164
123 139 159
124 140 160
129 145 166
63 82 99
65 153 186
62 146 174
64 145 172
62 149 180
61 146 176
65 154 184
63 149 178
60 144 175
68 161 195
64 152 185
65 155 185
65 152 184
60 142 172
65 152 182
82 137 171
103 68 112
121 79 129
113 78 128
117 79 132
124 83 137
110 74 122
116 80 131
125 85 142
117 79 131
120 82 135
108 98 130
79 89 106
87 96 116
86 97 115
90 104 122
94 106 124
96 108 123
85 96 113
91 102 121
99 113 131
101 115 134
97 101 110
97 104 109
105 108 112
98 103 107
95 96 101
77 76 76
48 40 36
63 61 62
90 92 99
86 88 93
86 86 93
66 67 77
86 86 96
89 92 100
89 91 94
85 88 94
97 101 108
102 105 111
98 99 105
96 99 105
96 99 106
99 102 109
100 103 111
106 107 111
104 107 113
102 104 109
106 108 113
105 108 113
99 102 106
100 101 107
93 95 100
100 102 108
101 105 111
99 101 107
104 108 114
99 102 108
104 107 114
98 103 108
98 100 107
94 97 104
90 90 97
92 94 101
87 84 92
80 81 85
81 77 84
87 84 93
89 90 95
90 91 98
87 89 95
96 98 104
87 89 96
95 98 103
102 106 110
100 102 106
101 104 109
90 95 98
99 101 106
103 108 115
98 101 106
100 105 109
98 100 106
97 100 105
92 95 100
94 98 104
99 101 104
73 75 82
72 73 79
76 78 84
59 57 68
66 66 74
78 77 84
92 93 99
90 93 102
99 102 109
93 95 100
103 105 110
102 105 112
101 106 112
101 102 107
90 92 96
100 103 108
95 96 102
87 90 94
70 61 72
60 22 63
54 27 56
84 84 87
96 100 104
103 107 112
104 106 111
109 80 89
113 122 144
103 114 131
113 130 151
114 127 145
117 131 156
108 121 140
114 120 143
125 93 116
110 46 80
120 46 81
116 45 77
80 49 83
54 51 88
55 51 88
53 51 85
57 53 91
54 50 86
55 51 89
56 52 90
52 50 86
56 52 90
57 53 92
54 50 86
64 61 96
111 124 145
112 127 152
122 138 159
114 130 152
125 139 160
123 137 161
115 127 150
122 137 161
125 141 163
122 138 160
131 147 170
123 140 161
128 144 168
115 128 148
122 136 157
125 141 163
116 128 147
121 133 152
118 134 154
122 136 157
118 127 146
95 88 107
64 33 48
74 31 50
69 29 47
72 30 48
72 30 48
73 31 48
63 26 41
64 27 44
65 28 43
77 86 79
88 109 117
107 120 145
89 94 119
99 57 25
111 61 27
99 55 24
102 65 51
125 130 149
118 127 149
119 126 143
113 115 135
110 101 121
93 45 76
82 32 61
79 4 48
83 5 54
76 4 50
77 30 69
68 38 86
74 41 94
79 44 97
74 41 93
116 84 71
129 94 49
129 96 50
137 101 53
130 97 51
135 101 53
125 93 49
145 106 55
138 100 52
132 96 49
133 96 51
123 90 48
133 96 50
138 100 53
137 99 52
124 90 48
124 106 92
119 134 149
111 125 140
126 137 160
120 130 150
113 131 146
123 138 158
125 136 156
118 132 154
121 137 157
124 141 159
121 138 156
122 140 159
123 141 158
134 150 171
119 136 153
123 141 159
115 134 146
122 142 160
117 133 150
122 137 156
123 138 157
123 140 159
113 124 141
109 69 62
102 57 42
111 63 47
107 61 46
109 61 46
101 58 44
106 58 44
110 61 45
97 54 40
107 60 45
104 59 44
101 55 40
109 60 44
91 50 38
94 51 38
103 58 43
109 108 117
135 119 115
145 109 89
140 105 86
143 108 89
141 106 88
134 103 84
139 103 85
131 99 80
142 108 88
141 106 86
138 105 86
141 105 86
141 107 88
138 104 86
132 101 84
73 59 37
57 45 21
66 55 35
104 114 126
122 135 154
116 130 149
122 136 155
114 127 146
119 134 152
110 124 145
120 136 156
116 131 151
130 146 168
124 138 160
120 134 156
120 136 157
120 135 156
120 135 154
115 129 148
116 129 153
120 136 159
119 132 153
94 140 164
63 148 180
65 151 180
70 166 200
63 145 174
62 145 176
62 144 172
62 145 173
63 150 180
64 151 181
65 154 183
68 161 192
68 161 193
58 139 171
58 135 163
60 145 174
105 87 128
98 67 111
115 77 127
112 74 123
115 79 131
107 72 121
111 74 123
126 90 140
122 112 142
142 144 174
125 136 159
148 164 185
139 155 178
134 149 170
127 140 163
119 134 154
107 121 144
113 126 150
119 135 157
120 135 156
118 132 156
107 115 130
113 119 124
105 110 116
107 110 113
102 104 109
96 97 101
73 72 74
81 81 85
84 86 93
76 77 85
78 81 90
90 93 102
87 90 98
94 96 102
89 93 102
99 100 108
100 103 107
86 88 94
103 106 113
102 105 111
98 100 105
98 101 107
102 105 111
105 111 117
99 101 107
103 104 109
107 110 115
105 108 113
98 102 108
98 101 106
100 104 109
105 109 114
93 97 104
96 98 102
101 104 108
98 102 107
99 102 107
95 98 105
96 100 107
96 98 103
92 94 100
88 89 97
89 91 96
84 85 92
90 90 97
86 85 91
88 89 95
88 92 97
97 100 105
99 102 108
97 99 105
98 102 106
98 99 107
99 104 108
94 98 103
106 109 114
102 107 111
99 102 107
97 100 105
98 102 106
94 97 102
94 97 102
92 96 100
89 92 97
94 95 101
86 87 92
94 98 105
81 83 86
83 83 89
92 93 100
89 90 95
95 96 102
99 101 107
102 107 114
90 93 99
97 99 104
99 104 109
97 100 105
103 106 112
100 101 106
86 88 94
95 97 103
82 81 86
66 62 68
63 46 64
88 87 94
95 97 102
99 101 107
108 112 119
106 89 96
118 85 103
115 128 149
123 139 162
114 129 150
110 124 147
129 103 126
155 70 96
158 41 72
163 42 76
168 44 78
156 40 72
166 43 76
160 42 75
153 45 80
107 46 79
51 48 83
57 53 92
57 52 90
58 54 92
59 54 92
56 52 90
60 55 94
59 55 93
55 51 88
67 70 103
113 126 150
122 138 160
116 131 150
123 139 162
115 129 151
124 139 162
126 142 164
115 129 149
121 137 161
120 136 158
111 127 150
117 131 152
129 144 166
112 126 147
120 133 151
118 133 154
113 129 150
113 125 148
107 118 137
121 133 155
115 127 147
101 110 129
96 96 113
73 44 58
63 25 40
63 26 42
69 28 45
64 27 43
60 25 40
64 40 53
75 57 71
83 100 94
120 142 154
143 158 184
104 114 132
103 58 26
94 53 24
93 61 50
98 85 91
112 115 138
110 109 126
100 99 115
110 109 128
99 99 115
96 94 111
87 72 88
72 43 60
69 54 64
71 40 62
66 54 66
76 65 86
69 35 80
66 36 82
80 44 100
122 88 65
119 89 47
130 96 50
120 91 48
126 93 49
127 93 48
133 98 52
134 97 51
129 95 50
124 92 49
125 91 48
129 95 50
126 89 46
124 89 48
127 93 49
135 98 51
121 86 45
126 133 148
114 123 143
111 128 144
125 140 160
122 137 156
125 139 161
124 142 158
128 145 166
119 133 150
128 146 164
126 142 165
121 137 154
124 140 160
119 130 151
119 131 152
120 139 156
126 142 163
114 128 148
130 146 167
125 141 161
121 134 153
117 131 149
124 133 153
101 56 43
104 59 44
101 58 44
98 55 41
103 58 43
100 56 42
98 55 41
97 54 41
104 57 42
107 59 43
100 55 41
98 54 40
104 57 43
104 58 43
95 53 40
94 51 38
118 103 108
138 103 85
145 109 89
137 100 82
143 108 88
140 105 85
141 106 87
141 106 87
140 105 86
134 101 84
135 102 85
133 101 83
132 101 83
140 106 87
139 105 86
135 101 83
112 85 67
64 51 24
77 79 84
117 131 149
109 123 142
120 135 156
126 140 160
124 140 161
116 132 151
118 130 151
121 136 155
117 132 152
122 138 159
119 132 151
128 145 167
126 142 166
119 135 155
125 139 160
119 133 155
125 139 162
128 144 166
123 136 156
78 141 170
58 137 163
66 156 185
62 142 169
62 147 176
64 150 183
64 151 181
59 141 169
63 151 182
64 151 182
63 146 174
61 144 174
61 143 174
59 141 170
61 145 177
57 138 165
91 126 162
117 76 125
105 70 116
107 73 120
104 71 117
108 72 119
135 126 162
143 152 178
137 153 176
125 140 164
128 147 170
125 143 165
135 153 177
128 142 163
128 143 161
127 140 158
135 152 175
124 138 160
120 135 155
124 140 162
115 128 150
111 124 147
95 101 104
107 113 116
100 104 109
97 100 105
104 107 112
77 78 83
90 91 97
90 92 96
86 90 96
85 88 95
92 94 100
98 100 108
96 97 105
91 94 103
93 97 103
88 90 96
91 92 99
102 105 111
102 105 111
98 102 107
97 99 106
101 103 108
96 97 106
105 108 111
95 100 105
102 104 110
107 111 116
104 108 113
102 106 112
98 101 107
101 102 107
98 101 110
105 109 115
100 103 109
96 98 104
101 103 111
99 101 106
99 102 107
101 104 109
95 98 105
89 89 96
96 96 104
93 93 100
94 94 102
99 99 105
93 95 101
98 100 107
88 89 95
95 99 104
93 96 100
94 97 103
100 102 108
100 101 105
100 102 109
96 98 104
111 114 118
104 107 112
95 97 104
95 97 102
101 103 110
98 98 104
100 103 107
99 103 110
96 98 105
97 99 103
80 82 85
89 91 96
90 95 101
87 90 97
93 95 101
91 94 99
92 94 99
96 99 104
101 104 111
94 95 100
101 104 109
101 104 110
91 94 100
99 98 103
105 106 113
88 85 88
92 92 98
83 86 90
87 84 87
86 85 93
85 88 92
94 99 104
93 94 97
115 52 65
111 126 149
113 129 148
119 132 155
122 125 144
138 93 115
152 40 71
146 39 68
143 38 65
158 41 73
154 40 71
153 40 72
164 42 75
162 42 75
165 42 76
163 43 77
136 46 82
67 48 83
52 49 84
53 48 83
52 48 83
50 47 81
51 48 84
52 49 86
56 52 90
78 82 110
114 129 150
120 136 158
120 137 160
123 139 163
118 134 157
122 138 161
126 141 163
121 136 157
123 136 156
126 140 158
119 134 154
121 135 156
122 137 157
120 135 158
121 137 160
114 127 147
114 124 143
120 132 151
114 128 149
121 134 153
106 118 136
106 119 134
87 91 105
95 99 115
75 70 83
61 49 65
52 37 48
65 58 66
73 69 79
93 95 110
98 106 122
106 118 134
157 178 190
201 216 245
159 168 210
86 47 20
93 80 82
103 99 112
102 104 121
118 125 142
98 98 110
102 104 118
96 93 108
101 101 119
82 79 92
91 92 103
92 96 107
95 95 111
88 91 99
77 77 88
88 92 105
74 72 86
81 64 94
67 46 82
117 89 53
122 90 46
124 94 49
133 97 51
127 94 49
126 94 50
128 94 50
125 90 46
124 90 48
129 95 50
125 91 48
122 88 46
126 91 48
122 86 45
121 89 47
120 87 45
116 83 43
124 128 134
120 134 155
118 131 153
123 135 156
130 143 165
122 136 159
126 143 162
124 140 160
124 137 158
128 143 165
129 144 169
130 142 165
123 136 158
122 133 153
124 140 162
119 134 154
125 138 159
118 134 154
119 134 154
131 143 166
118 131 153
129 144 163
110 107 119
100 56 42
99 55 41
98 55 41
101 57 42
103 57 43
99 55 41
104 58 43
107 60 44
98 55 41
104 57 42
99 55 41
104 58 43
100 54 40
95 52 39
105 57 43
102 56 42
100 65 52
125 93 77
144 107 88
137 103 85
133 100 83
133 99 82
129 97 81
131 98 81
133 99 81
139 105 87
131 100 82
127 97 81
130 99 81
126 95 78
136 103 86
131 99 83
128 99 82
92 87 86
118 133 152
116 130 148
110 124 141
115 130 148
118 134 154
128 144 166
116 128 147
120 137 155
125 140 159
118 130 148
120 133 154
123 139 158
116 129 149
129 143 163
120 137 159
120 137 157
127 143 163
121 135 157
120 134 153
122 146 169
61 143 171
64 149 179
62 148 179
63 147 175
63 148 178
58 137 165
61 146 175
61 144 173
62 148 182
58 138 167
60 144 174
57 134 161
57 135 160
62 147 176
61 142 168
58 136 163
70 132 161
95 63 104
112 74 121
111 73 118
105 76 120
125 124 151
133 150 169
133 151 173
128 145 167
113 126 142
134 153 177
124 140 161
123 142 165
122 141 161
130 146 166
137 155 178
142 159 180
137 152 174
130 146 169
122 137 158
128 143 163
116 132 154
121 132 148
104 106 111
110 113 117
97 100 105
93 94 97
98 100 104
86 88 91
82 85 93
93 95 102
98 100 106
86 91 99
92 96 102
93 97 104
91 92 101
95 96 102
100 104 109
102 105 110
106 108 113
101 105 109
103 107 114
109 113 118
102 104 110
107 110 115
104 107 112
104 107 113
107 109 113
102 106 112
101 104 111
96 98 103
104 107 111
100 102 107
104 107 110
94 97 101
104 107 111
98 100 106
97 99 105
100 101 107
102 106 114
100 103 108
86 87 93
90 93 98
87 88 96
93 95 101
93 94 100
99 100 107
95 96 102
96 96 102
96 99 104
103 106 111
100 102 107
101 104 109
94 97 101
104 106 111
104 107 112
104 107 112
102 103 107
96 97 101
99 102 107
95 99 106
104 106 112
104 105 111
96 100 106
98 101 103
93 95 101
85 87 92
96 99 104
88 90 93
94 96 102
92 93 98
100 102 107
101 103 108
96 95 102
99 103 108
95 97 101
98 100 105
98 99 106
99 97 102
99 99 104
98 100 105
100 102 108
94 94 99
81 80 84
88 85 88
105 80 89
118 80 91
100 95 99
97 95 100
107 78 84
117 105 123
122 137 157
118 132 151
129 137 160
146 83 108
153 40 72
161 41 74
152 40 70
154 40 71
151 39 71
148 39 69
158 41 74
160 42 76
153 39 70
154 40 71
161 42 76
158 41 74
152 44 77
59 45 78
55 51 88
46 43 74
48 44 77
52 48 82
57 52 89
58 54 92
113 126 150
122 138 161
124 140 164
112 127 150
124 142 163
120 136 157
126 141 162
126 143 166
123 139 163
122 138 161
121 135 156
131 146 170
119 133 157
120 134 154
124 140 160
124 141 161
113 125 146
120 134 155
116 127 148
114 127 147
120 132 150
109 118 135
112 122 140
105 115 133
101 112 128
108 119 137
94 100 114
91 93 106
81 83 97
91 97 109
105 116 134
94 100 116
113 124 144
168 186 209
208 227 254
184 200 234
82 66 64
86 80 93
92 98 107
95 94 106
96 103 115
89 88 97
95 96 103
95 105 117
94 98 115
104 102 121
107 112 131
98 102 119
96 100 117
91 99 108
91 91 108
90 91 106
85 84 101
87 89 104
84 80 94
113 84 44
128 93 49
132 97 51
134 98 51
131 95 50
128 92 48
124 93 49
118 86 44
123 89 47
127 92 48
119 87 46
125 92 48
121 88 47
119 86 45
132 97 51
123 89 47
122 87 46
123 128 137
126 136 160
123 137 159
118 132 151
118 131 154
127 142 164
129 144 166
124 134 157
112 127 148
131 144 166
135 150 171
127 143 163
117 129 148
122 136 157
124 138 157
117 127 149
118 132 154
115 128 149
123 136 157
120 129 149
122 135 157
118 131 152
105 105 121
101 56 42
99 55 41
102 57 43
98 55 41
102 58 43
93 51 38
89 48 36
101 56 41
99 56 42
91 49 37
98 53 40
97 53 39
96 53 39
95 49 36
93 49 36
97 54 41
120 86 70
138 103 85
138 103 84
132 98 79
138 104 85
140 107 88
128 95 78
123 92 77
127 94 77
128 95 79
134 102 84
132 100 82
130 100 83
126 97 81
135 101 83
132 100 83
128 97 81
114 112 120
108 120 137
93 107 122
104 117 133
107 118 134
110 122 139
111 124 144
119 133 151
116 131 148
115 128 147
132 148 169
119 134 155
115 131 151
111 127 147
121 134 154
120 134 152
109 125 144
123 138 158
124 139 160
117 132 151
123 143 164
63 146 176
60 140 169
60 141 171
62 144 172
60 139 167
56 135 162
55 133 160
58 136 163
59 139 168
59 140 167
60 142 171
57 135 163
55 132 157
58 136 160
62 147 177
57 134 159
69 132 158
91 66 105
104 70 117
104 68 113
108 113 142
133 152 174
129 145 165
121 138 159
118 134 153
122 138 160
130 146 167
122 140 160
121 138 158
131 147 171
134 153 176
129 143 163
128 144 165
140 155 177
132 146 169
117 132 153
130 144 166
122 133 153
124 141 163
102 114 123
117 118 123
101 104 107
102 105 110
97 100 104
87 90 93
93 96 101
100 105 113
93 97 99
91 91 95
93 94 99
87 92 100
96 98 103
98 101 107
100 104 110
87 89 96
100 103 109
95 96 102
98 99 104
100 104 110
101 103 108
101 104 109
106 108 112
105 108 113
106 110 115
107 111 118
103 104 109
100 103 109
97 100 104
95 96 103
96 98 103
104 106 113
96 99 104
100 103 107
93 94 99
98 101 106
96 97 103
96 97 104
96 99 105
93 95 102
100 101 107
94 97 101
91 93 100
94 97 103
100 100 108
98 103 109
101 105 110
97 98 104
101 103 109
97 101 106
99 102 107
102 105 109
105 107 111
102 105 112
96 99 103
102 105 109
94 97 101
99 101 105
101 103 108
94 96 100
98 100 104
97 100 105
94 95 98
102 105 111
99 102 108
97 99 104
100 102 106
94 98 104
89 90 94
96 100 104
99 101 105
96 99 103
97 99 103
100 103 108
96 98 102
103 104 108
100 102 107
107 108 111
95 93 97
105 105 111
93 76 86
116 70 82
129 64 81
129 63 81
118 82 92
98 100 105
105 74 86
119 135 155
117 134 154
115 128 148
140 87 109
139 37 64
143 37 65
132 35 62
154 40 72
159 41 75
146 38 68
154 40 71
148 39 70
152 39 69
137 35 64
152 39 69
152 39 69
151 39 69
158 41 75
130 43 77
47 45 75
47 43 73
53 49 83
49 46 78
55 51 85
84 89 113
123 140 162
118 132 153
119 135 158
119 134 158
126 141 161
119 132 153
120 133 153
122 138 158
126 142 165
126 142 164
121 136 158
122 138 160
119 135 154
122 136 158
122 136 158
127 142 164
117 131 153
129 144 164
114 129 150
126 139 161
115 125 145
122 137 158
122 134 153
118 134 154
114 126 146
124 137 156
113 127 147
119 132 154
115 126 144
114 126 147
117 129 149
109 121 140
119 132 153
129 145 166
187 207 235
201 222 250
187 222 183
185 219 182
171 198 166
146 169 144
113 120 126
105 110 127
105 112 127
111 119 136
103 114 132
96 98 112
107 113 133
104 111 130
114 121 140
99 107 125
106 118 138
110 121 139
105 113 129
103 110 131
95 103 119
111 86 58
123 92 48
125 93 48
119 87 46
125 94 49
125 91 47
124 90 47
119 86 46
112 84 44
112 81 42
123 92 49
118 84 45
119 86 46
128 93 49
125 91 48
119 85 44
120 86 45
121 128 138
121 135 157
130 143 165
121 136 156
129 142 164
129 146 165
126 143 163
125 138 157
121 137 156
117 126 150
127 142 164
127 141 163
127 141 163
130 143 164
128 140 161
128 144 163
111 118 140
127 141 163
122 135 157
113 122 144
117 125 150
121 134 154
109 107 124
97 58 47
103 57 43
98 54 40
99 56 41
103 57 42
93 52 39
95 51 38
94 51 38
100 55 41
87 47 34
92 49 36
96 53 39
86 45 32
87 46 34
87 46 34
98 54 40
117 84 69
135 100 83
126 94 77
128 94 75
127 95 80
139 104 86
122 91 75
134 101 84
125 93 78
131 98 80
131 97 80
126 94 77
123 93 77
132 99 81
123 93 77
118 89 74
129 97 82
102 95 94
91 98 110
96 105 119
95 104 115
118 132 151
102 112 127
112 126 140
110 119 135
121 135 154
114 128 145
114 125 141
124 141 163
110 124 141
116 131 148
120 135 154
122 137 158
117 131 149
123 140 161
120 137 158
119 134 155
111 133 153
64 147 177
57 133 159
56 131 153
63 149 177
61 141 170
57 134 161
59 141 169
57 135 164
57 134 159
61 142 169
59 141 170
54 126 151
60 142 171
57 136 161
60 137 163
54 132 158
69 111 137
88 59 95
91 61 101
104 96 129
134 149 170
127 143 160
123 139 160
125 143 164
113 127 145
118 134 153
114 131 152
120 140 162
123 142 164
121 138 156
123 140 158
125 141 161
130 147 168
131 149 169
135 151 172
128 141 162
127 141 162
124 139 159
131 146 169
122 134 151
101 103 112
117 118 122
98 101 106
102 105 109
91 91 93
88 89 96
88 90 99
98 100 105
89 90 97
98 101 105
79 79 89
96 99 106
101 105 111
103 105 111
93 96 101
101 102 109
93 95 100
102 104 111
102 105 109
98 101 106
101 103 108
105 108 114
105 108 112
104 105 109
95 97 102
102 105 109
99 101 106
105 109 115
98 101 107
103 106 111
99 100 105
101 103 107
108 110 116
101 104 111
96 97 101
97 99 105
98 101 105
101 102 106
106 109 114
103 105 110
100 102 107
99 101 106
99 102 106
99 101 104
100 102 108
98 100 105
100 103 109
102 101 109
95 97 102
106 108 113
96 97 101
96 99 103
100 101 104
96 98 102
100 102 108
99 98 104
105 108 113
99 104 105
95 100 105
95 96 101
100 104 109
100 101 106
97 100 104
91 94 100
93 93 100
93 94 99
95 97 100
95 97 101
95 94 99
98 101 106
95 96 102
100 99 106
98 97 104
97 98 103
101 104 110
102 102 109
99 101 105
100 99 103
108 89 99
125 64 82
124 61 78
124 61 78
134 65 82
120 79 90
92 63 71
116 121 136
123 139 158
120 136 156
123 119 141
137 36 62
142 36 64
141 37 63
128 34 58
143 37 66
133 35 62
147 38 69
147 38 66
148 38 68
136 35 63
143 37 67
131 34 62
146 38 67
145 38 67
156 41 73
149 39 70
76 46 78
46 42 74
47 45 75
48 44 77
75 80 109
122 137 160
126 142 164
113 126 147
109 126 146
125 140 162
120 135 156
122 139 161
125 140 162
125 139 160
124 139 162
117 131 151
129 144 167
119 134 157
114 129 152
124 141 161
126 141 163
121 135 156
124 141 163
121 136 157
114 126 146
124 137 158
124 139 162
119 134 156
127 140 161
123 139 160
127 142 166
128 143 166
120 136 157
121 136 156
123 138 158
118 132 151
117 131 153
113 123 140
124 138 161
120 134 153
149 167 190
182 203 232
175 217 185
176 218 185
179 220 185
184 222 185
190 226 185
162 186 164
113 121 140
115 126 147
111 123 142
119 131 151
118 126 148
122 135 154
118 130 152
112 125 142
109 115 134
116 129 152
117 127 149
118 130 150
118 130 151
106 89 72
115 85 44
117 86 45
112 84 44
113 84 44
120 87 45
108 79 42
116 84 44
115 83 44
118 86 46
122 88 46
120 87 46
118 87 46
125 88 46
112 79 41
118 84 44
111 81 48
123 130 147
128 145 166
128 146 168
129 140 163
123 135 156
120 134 153
124 137 155
124 138 160
118 132 154
124 139 163
129 143 165
127 142 165
124 138 159
128 145 166
122 134 156
118 130 152
120 134 153
120 133 155
120 134 155
118 125 147
118 126 150
113 124 143
113 121 141
99 72 74
95 54 40
92 51 38
96 53 40
90 50 37
91 50 37
98 55 41
89 50 36
96 53 40
93 52 39
86 46 34
90 50 38
87 48 36
85 46 34
76 39 29
90 51 39
117 88 74
125 92 75
128 95 78
129 96 78
127 95 79
128 96 79
123 93 77
121 90 74
123 91 75
132 100 81
127 96 78
122 93 76
126 94 77
121 91 74
131 97 80
116 87 71
120 90 73
105 100 107
103 115 129
110 121 137
104 115 131
113 126 143
126 142 161
113 126 144
116 128 145
119 134 153
114 127 144
109 121 138
117 132 153
121 135 154
121 133 152
122 135 154
100 108 121
109 112 121
112 117 130
110 122 140
102 111 126
108 123 141
70 142 170
63 148 176
54 126 153
59 140 168
59 138 166
59 139 167
57 134 161
62 147 176
57 135 159
59 137 165
53 128 156
58 137 163
57 135 162
60 139 165
56 133 161
61 145 175
62 105 132
71 47 78
62 44 75
122 138 160
129 146 164
124 140 160
126 139 158
126 143 165
131 148 170
128 146 169
125 140 161
123 140 161
124 138 158
126 140 161
118 133 150
111 125 142
116 133 153
119 136 158
125 142 162
140 155 173
122 136 155
122 138 160
116 129 148
130 144 164
95 111 125
106 114 121
100 103 107
85 92 96
98 100 105
87 91 95
91 92 95
96 99 104
92 95 99
95 99 105
98 100 105
93 95 102
93 95 98
96 98 102
94 95 96
99 102 109
103 104 110
104 105 109
101 104 110
100 101 104
103 106 112
107 110 114
103 106 110
98 100 105
98 101 106
104 105 109
102 104 108
99 101 106
95 98 102
104 106 110
101 104 109
106 110 114
99 102 108
97 99 105
93 95 101
104 107 114
100 102 107
102 105 109
98 98 103
104 106 113
94 95 100
101 103 109
104 106 111
97 100 107
93 94 99
102 105 109
87 90 93
100 102 108
100 102 107
100 99 104
102 103 108
90 90 94
97 99 104
99 103 107
98 98 102
94 95 98
99 102 107
98 102 104
101 104 108
104 108 111
97 100 102
92 94 99
98 98 102
98 100 104
96 100 106
97 99 103
99 99 104
95 94 100
91 92 99
98 98 105
105 106 111
91 90 96
98 97 102
98 99 105
98 98 105
98 96 102
98 101 104
105 82 92
120 60 78
117 58 75
123 61 80
122 60 76
122 57 72
102 83 88
86 71 81
112 126 143
109 127 143
108 123 139
137 71 92
131 34 61
135 36 60
141 36 65
139 36 65
134 36 62
143 37 66
136 36 63
145 38 66
141 37 63
149 38 69
136 35 64
138 35 64
147 38 67
144 37 66
155 40 71
155 40 72
132 38 69
48 44 75
58 60 84
75 81 106
113 128 149
116 132 153
114 128 149
118 132 153
118 136 157
121 137 158
120 137 159
125 141 163
127 143 165
124 138 159
114 126 147
122 136 158
126 144 165
118 133 154
124 137 158
127 142 164
123 139 158
125 139 159
126 141 163
121 133 154
123 140 161
123 139 161
123 138 158
118 132 151
126 142 163
120 134 154
130 144 166
125 140 161
117 133 153
124 141 163
126 140 161
125 140 161
118 135 154
122 137 157
123 135 156
119 135 156
128 146 167
134 151 173
169 214 185
170 215 185
173 216 185
177 218 185
181 221 185
189 225 185
179 206 175
123 138 148
123 137 156
121 133 155
122 137 158
126 140 164
121 134 155
122 136 157
122 138 159
127 141 160
119 129 148
123 137 160
119 133 150
123 111 107
106 80 42
104 79 41
114 84 43
124 91 48
111 81 43
118 85 44
118 86 45
113 82 43
122 88 46
117 84 45
110 79 41
120 86 45
117 83 43
118 85 45
120 86 45
116 95 82
123 141 159
122 135 155
122 135 157
120 134 155
122 136 155
126 140 160
132 148 172
127 141 160
125 140 164
126 139 163
129 142 165
123 138 158
117 131 150
122 135 151
125 137 158
123 137 160
124 136 157
115 125 144
123 133 156
126 137 159
123 137 159
108 113 134
117 127 146
118 116 129
91 49 36
93 50 37
95 53 40
102 57 43
93 50 37
85 46 34
77 41 31
83 44 33
92 51 38
99 55 41
88 47 34
89 48 35
76 40 29
90 50 37
95 81 85
123 100 95
118 87 71
122 90 74
125 93 77
123 93 77
123 91 77
129 96 79
133 98 79
122 92 77
137 102 84
122 93 76
112 84 69
131 98 80
126 96 79
127 94 77
123 93 77
119 89 73
122 123 135
121 136 156
112 126 145
117 131 149
115 128 145
119 134 153
118 132 152
128 143 164
123 138 159
124 138 158
111 124 143
116 130 149
100 105 117
103 102 110
96 71 53
102 76 57
99 73 55
97 73 56
102 76 57
101 81 72
107 92 86
78 94 102
59 138 166
60 141 168
56 132 159
54 124 149
52 123 147
56 132 157
48 116 138
62 143 171
59 137 161
56 131 160
52 125 149
54 128 152
56 131 156
57 135 161
57 135 161
58 75 92
61 59 77
72 86 102
135 155 178
131 147 169
134 151 171
116 131 151
118 131 154
124 143 164
116 133 155
124 140 160
127 142 163
115 132 153
119 132 150
124 142 163
122 139 160
111 130 153
112 129 145
110 127 147
116 128 146
118 130 149
125 139 159
124 137 160
129 143 162
124 138 159
98 123 136
109 115 120
96 99 102
97 103 107
94 98 104
87 90 95
101 105 111
97 99 103
101 103 107
103 106 110
94 95 99
93 96 101
100 101 107
105 107 111
102 104 110
100 103 107
94 94 98
107 109 115
102 105 110
101 104 107
93 95 101
98 100 105
102 105 111
107 110 115
98 97 102
101 103 106
91 95 101
103 106 111
104 107 110
103 106 111
105 106 110
95 98 103
89 91 95
100 102 108
102 104 107
91 93 97
107 109 116
100 102 106
108 109 113
97 99 105
96 98 105
99 101 107
95 99 104
92 92 98
99 103 106
97 97 102
96 98 104
92 94 99
97 99 105
103 106 110
101 105 110
97 100 105
94 97 101
101 103 107
100 103 107
99 102 106
98 100 104
96 98 101
101 103 107
97 99 105
97 100 103
103 106 113
90 91 97
87 89 94
93 92 97
99 101 105
95 95 99
98 100 102
96 98 104
95 96 100
105 105 111
100 100 103
94 93 97
104 102 107
93 93 99
101 82 90
120 60 76
113 56 73
113 54 69
124 61 77
113 53 66
117 57 71
93 63 72
92 107 118
104 119 136
92 105 118
88 102 120
140 50 74
138 36 63
145 38 66
140 37 64
135 35 61
147 37 66
145 37 67
139 37 65
138 35 62
138 36 64
131 34 60
143 37 66
131 34 61
144 38 67
146 38 67
146 38 68
148 38 70
138 37 67
62 51 69
96 108 126
99 109 126
99 109 129
119 133 155
122 135 157
113 125 146
111 125 142
128 144 165
120 136 155
114 127 148
126 142 164
118 132 153
111 125 146
127 142 166
122 138 159
121 136 157
120 136 156
125 142 163
132 147 169
121 135 155
119 133 154
124 137 158
131 148 171
124 139 160
119 132 154
133 149 170
128 142 165
128 143 167
128 145 168
129 146 167
121 139 159
128 144 164
128 145 167
130 147 169
127 142 165
126 144 165
124 139 159
127 142 164
121 137 158
121 136 158
168 213 185
169 214 185
171 215 185
174 217 185
179 219 185
183 222 185
190 226 185
169 193 164
127 143 160
124 136 158
125 138 158
126 139 158
118 134 152
117 131 153
124 140 160
124 137 157
121 137 158
121 133 152
118 130 148
126 139 157
126 97 70
109 80 42
123 90 47
113 83 43
109 79 40
104 76 40
109 78 41
118 85 45
112 81 42
119 86 45
112 81 42
109 77 40
106 76 39
113 81 42
105 75 42
123 124 133
123 138 158
131 146 167
127 143 164
123 136 156
124 137 158
118 130 152
126 139 157
125 138 159
122 134 156
119 134 159
124 137 157
126 141 163
128 142 162
130 144 166
124 137 157
117 133 154
119 131 147
128 144 166
123 136 158
117 128 147
120 128 146
127 144 162
122 134 158
118 132 151
100 84 91
90 50 37
87 48 36
86 47 36
82 45 34
89 48 35
86 46 34
93 52 39
80 43 32
88 62 108
96 83 170
104 94 198
99 92 198
96 88 186
105 105 193
113 103 146
125 91 74
113 84 68
119 88 73
133 99 81
123 91 75
129 96 78
117 87 71
122 90 73
123 92 77
121 90 73
113 85 70
116 87 70
115 87 72
109 82 68
119 89 73
129 103 91
111 121 136
119 133 152
118 129 150
112 125 143
113 127 146
119 131 152
124 138 159
120 136 156
124 137 156
121 135 155
119 133 152
106 102 108
100 75 57
90 66 54
98 73 56
102 75 57
92 68 51
95 70 53
91 68 52
86 64 48
90 68 51
95 70 52
84 97 106
62 129 151
55 129 155
59 139 167
57 134 160
52 124 147
54 128 152
51 122 144
56 132 158
58 135 160
57 133 155
53 126 149
54 127 150
54 128 153
52 116 138
109 118 137
108 118 139
99 117 135
131 147 167
135 150 170
122 137 159
129 143 166
129 144 166
137 154 176
130 147 167
127 143 164
132 148 169
127 142 159
132 148 166
120 133 157
105 121 140
115 133 155
111 126 150
107 121 137
105 121 144
121 134 156
124 137 161
124 140 161
122 136 157
129 145 166
129 145 165
135 146 156
98 103 108
94 96 100
98 101 107
102 105 111
96 98 101
97 100 105
96 99 104
101 102 107
97 99 103
97 101 108
94 96 102
95 97 102
98 98 103
97 100 106
92 92 98
98 100 106
101 103 108
98 100 104
94 96 100
99 100 104
102 104 107
104 106 111
99 102 106
104 105 109
105 107 113
99 103 108
100 101 106
104 106 111
94 96 99
96 99 102
99 103 108
100 100 106
99 101 105
102 105 109
102 105 108
95 98 104
94 97 104
97 100 104
96 98 103
91 94 99
96 96 101
96 96 100
93 95 99
92 94 99
98 102 105
94 95 97
92 97 98
99 101 104
98 100 105
91 93 99
97 98 103
100 102 105
95 97 101
93 94 98
98 99 105
97 97 101
100 103 108
97 99 102
102 103 108
95 99 100
93 94 99
97 98 102
95 96 100
103 105 108
96 97 101
87 90 94
96 96 100
99 99 105
97 96 101
90 90 95
93 91 96
98 97 102
106 89 98
111 59 74
104 50 65
108 52 66
104 50 63
118 54 69
103 48 61
91 61 72
112 128 144
112 126 144
105 120 136
110 127 141
111 126 146
135 35 59
134 35 62
128 33 60
135 35 62
133 34 60
131 34 60
126 32 58
133 35 60
116 30 52
129 32 56
131 33 60
136 35 62
151 40 71
138 35 63
148 38 68
137 36 65
152 39 71
145 38 68
108 84 102
90 99 114
93 100 116
102 114 134
106 118 136
110 123 142
113 123 143
117 130 148
120 134 155
122 134 156
121 135 155
120 135 154
128 143 164
125 142 160
118 133 155
114 129 150
121 135 156
128 142 164
123 137 158
127 142 164
126 139 160
123 141 162
122 138 158
123 139 159
118 135 156
127 143 164
124 139 163
124 139 161
125 143 164
126 141 162
126 142 165
124 140 162
125 141 162
128 144 165
132 145 166
125 139 160
126 142 162
133 147 168
125 142 164
125 142 165
122 136 158
170 214 185
171 215 185
173 216 185
175 217 185
178 219 185
182 221 185
188 224 185
174 201 163
132 141 133
123 140 156
127 139 159
120 135 151
121 137 157
128 147 168
121 137 158
130 145 165
124 135 157
123 138 158
122 135 154
123 136 156
124 128 138
105 76 39
95 69 37
104 77 40
116 85 44
109 79 41
103 76 39
115 83 43
106 75 39
105 74 38
107 77 40
109 78 40
98 68 35
108 75 39
113 101 96
128 143 163
117 129 150
123 137 157
123 138 158
123 133 150
119 134 154
122 135 154
129 146 167
115 128 145
124 136 154
122 136 158
126 141 161
128 142 162
127 139 159
122 135 151
125 138 160
121 133 152
127 142 166
122 135 152
121 139 154
120 138 154
118 129 147
122 135 154
118 132 155
124 138 159
114 121 138
89 68 69
90 50 36
86 48 35
79 42 31
86 47 35
83 45 40
91 77 156
101 100 220
104 107 237
97 99 220
103 105 231
99 102 225
99 101 228
98 100 224
100 103 232
94 97 218
103 91 165
126 93 76
121 89 72
130 96 77
118 88 71
110 83 69
112 83 69
118 88 72
119 87 70
110 81 66
121 91 75
110 82 69
124 91 73
115 86 72
103 94 96
119 135 155
111 127 143
124 141 163
114 128 146
119 135 155
126 142 163
121 133 152
114 128 147
122 135 153
118 131 149
100 90 90
97 73 56
98 73 56
98 73 56
99 73 56
94 70 54
93 68 52
94 70 53
88 65 49
91 68 51
98 74 56
90 67 50
92 68 51
82 79 80
59 128 154
51 118 140
56 131 156
56 133 158
53 124 147
55 130 156
57 135 161
53 123 145
51 122 145
52 123 145
50 118 140
49 112 134
92 118 139
112 125 146
115 129 150
104 119 144
128 139 158
120 133 153
133 150 170
124 140 161
125 140 161
130 144 163
134 149 169
132 148 170
131 147 169
127 145 166
130 149 172
113 126 146
110 128 148
100 116 137
82 111 130
57 102 120
94 115 136
125 139 159
129 142 165
127 139 160
125 140 162
128 143 166
131 150 172
114 125 143
104 110 115
94 98 103
96 97 102
96 97 100
98 101 105
101 102 105
97 99 103
97 101 106
99 103 107
102 104 109
100 101 104
93 93 98
102 104 109
96 97 102
90 92 97
97 99 104
95 97 101
94 97 103
94 95 98
103 105 109
102 105 109
101 102 105
102 104 108
97 98 101
96 97 100
99 101 105
100 102 105
101 103 108
96 97 102
97 98 101
100 100 105
94 95 100
93 94 100
100 101 106
97 97 101
100 103 108
95 96 99
105 107 111
97 99 104
99 100 106
93 95 99
95 96 98
103 106 110
94 96 100
99 101 107
97 100 102
106 109 113
93 96 103
98 102 107
99 98 102
101 103 107
100 102 105
95 99 103
98 101 103
100 100 102
97 96 100
93 93 98
100 101 105
98 101 103
98 100 104
99 100 104
104 106 110
94 97 100
95 96 99
95 98 104
102 106 110
86 88 92
95 97 100
100 99 103
84 81 86
94 92 96
95 84 91
98 55 67
108 52 67
114 56 71
102 49 62
112 52 66
115 55 68
95 59 65
115 122 139
123 140 161
128 144 164
109 124 142
113 128 145
126 135 155
120 30 52
139 39 66
124 32 57
135 38 63
131 33 58
128 32 57
132 34 60
122 32 56
135 35 59
129 33 59
123 30 55
142 36 64
135 35 62
130 33 59
149 38 69
146 38 69
136 35 63
143 37 66
123 112 133
108 124 140
113 124 142
109 124 144
104 118 135
120 135 155
119 134 153
118 129 150
118 132 152
121 136 157
124 139 160
129 145 165
122 136 158
122 137 159
125 140 160
125 142 165
119 132 152
127 142 163
123 138 158
119 135 152
117 122 149
109 95 144
103 80 131
105 79 133
100 74 128
111 93 144
115 109 148
122 129 155
127 143 165
129 146 168
131 148 169
135 152 176
126 143 165
125 141 163
130 146 169
126 139 160
134 151 173
130 145 166
125 141 159
132 150 172
125 141 162
174 217 185
175 217 185
176 218 185
178 219 185
181 221 185
184 222 185
189 225 185
178 209 171
153 169 133
126 132 141
124 138 158
119 133 151
125 140 162
122 133 151
132 149 171
118 136 155
130 143 164
118 132 151
130 144 165
125 139 160
128 142 162
103 102 106
95 71 43
99 72 37
100 71 36
92 65 33
99 74 38
107 76 39
103 73 39
111 79 42
111 80 41
97 67 34
93 66 34
106 98 96
127 139 157
123 135 152
131 144 163
116 125 146
107 116 134
118 132 154
123 134 152
116 129 146
128 140 158
120 133 154
122 136 156
124 137 158
122 135 151
129 141 160
124 137 156
122 134 154
126 138 159
116 131 150
126 140 160
124 138 158
127 142 159
125 137 156
125 138 159
123 138 158
121 130 151
124 137 156
124 136 154
114 123 140
94 83 89
79 50 46
92 51 38
85 53 76
89 86 185
97 99 219
102 105 230
98 100 219
98 101 223
98 99 223
100 101 224
101 103 228
99 101 223
91 93 215
99 100 228
98 100 220
96 89 184
117 90 110
108 81 67
111 81 68
121 89 73
112 84 69
116 85 70
110 83 69
116 86 71
106 79 65
124 92 74
115 87 71
105 80 68
116 124 142
125 140 159
124 139 159
113 125 140
118 130 150
121 133 152
120 133 153
115 126 145
122 137 156
129 145 166
102 93 94
98 73 56
94 70 55
90 67 52
93 69 54
97 72 56
95 70 55
92 68 53
93 69 53
93 70 54
91 67 51
91 68 52
86 64 49
91 68 51
83 61 47
86 71 62
52 114 139
50 115 136
47 113 135
48 115 138
48 113 135
51 119 140
52 122 144
50 119 141
53 125 148
49 118 142
86 124 145
118 133 154
116 130 148
117 132 151
106 112 128
113 127 144
124 139 160
123 139 158
119 135 156
119 133 153
128 141 162
132 147 169
120 132 153
120 133 152
137 153 175
125 139 159
104 120 140
118 129 148
106 124 143
74 117 141
59 126 149
102 131 156
130 139 154
124 141 162
122 139 161
133 150 172
129 147 167
121 137 159
129 147 168
105 114 125
93 95 100
100 102 107
89 94 98
96 98 100
95 98 103
96 99 101
98 100 103
88 88 94
92 94 100
98 99 103
92 94 97
99 101 104
94 96 103
100 102 106
102 105 108
96 98 104
98 101 105
102 103 108
90 92 97
96 99 104
94 96 103
104 107 111
97 100 102
101 103 107
101 103 106
96 96 100
95 97 99
94 95 99
104 106 111
108 112 116
103 105 109
98 100 104
100 104 108
95 98 101
101 103 108
90 92 96
94 98 101
89 90 95
100 102 106
103 105 110
90 91 97
93 96 99
106 108 111
102 104 108
90 91 94
99 99 105
96 97 102
96 100 103
97 99 105
102 103 108
93 93 97
98 99 102
96 98 102
96 98 102
99 101 104
96 97 101
104 105 108
102 101 104
104 106 109
100 101 105
90 91 95
96 98 103
90 90 95
102 102 106
97 96 100
94 93 98
92 92 95
96 94 96
92 93 99
99 94 98
95 67 74
100 50 64
104 50 63
106 50 63
102 48 59
108 52 65
101 58 67
114 123 138
122 135 155
122 135 157
122 140 158
129 142 164
126 120 140
141 98 124
144 73 101
159 82 114
152 78 109
155 79 110
140 71 96
131 61 86
138 43 67
139 35 62
134 34 60
109 28 50
136 35 62
125 32 58
132 35 62
133 35 62
144 37 66
130 33 59
136 35 63
141 36 64
125 108 129
115 129 148
118 133 154
116 130 148
123 138 159
114 130 149
119 132 151
123 140 161
122 139 160
115 131 149
123 137 158
125 140 160
126 138 161
128 144 165
121 138 156
126 141 162
120 130 150
115 130 150
116 114 148
99 68 125
83 33 104
84 35 109
88 37 115
93 38 118
89 38 118
95 39 121
93 39 124
95 45 122
104 81 134
111 115 144
123 139 160
127 145 166
127 141 161
127 141 161
124 138 157
128 145 165
124 141 162
133 149 172
133 150 168
120 137 156
128 143 164
179 219 185
180 220 185
181 220 185
183 222 185
186 223 185
187 224 185
191 226 185
174 203 163
178 202 162
113 118 119
126 143 163
123 140 159
118 134 150
127 141 161
125 144 161
126 141 162
125 141 156
119 130 148
120 135 156
124 135 153
121 133 151
121 135 153
114 114 122
105 86 71
104 76 39
89 64 33
100 70 36
104 74 38
103 74 37
95 67 35
91 63 33
90 70 53
103 95 89
113 118 132
111 119 132
114 123 141
115 125 142
110 119 132
122 134 150
112 122 140
117 127 142
123 136 155
118 130 148
119 131 148
124 135 154
120 132 151
128 144 163
126 142 162
115 126 143
118 131 151
119 128 145
123 135 156
118 128 147
116 128 146
122 134 151
113 126 143
124 136 153
123 135 155
115 123 140
115 126 143
119 130 148
117 127 147
86 90 101
84 78 84
81 63 85
90 91 199
100 103 227
99 100 222
95 97 214
93 96 212
98 99 221
99 101 228
92 94 217
95 96 215
94 96 216
93 94 213
98 100 224
97 100 224
96 99 222
90 89 201
111 84 89
122 90 74
117 86 70
109 80 64
102 75 61
120 89 72
113 83 68
99 74 64
101 73 61
118 87 72
107 106 116
113 122 138
124 140 160
123 136 156
113 128 146
119 134 155
120 133 151
120 134 156
120 135 155
117 132 152
113 118 130
84 62 110
78 56 135
72 50 140
77 54 147
81 58 134
85 61 115
82 59 91
88 64 51
83 62 48
90 67 51
92 69 53
85 64 49
87 65 50
88 65 50
86 64 49
85 63 47
79 92 99
46 111 132
51 122 144
44 103 123
49 116 142
45 106 127
43 104 126
43 101 118
66 123 144
79 107 124
103 117 139
111 125 146
114 128 148
111 131 150
125 136 155
101 115 131
91 94 136
110 127 143
121 133 153
102 110 128
107 121 140
126 140 163
126 142 163
123 135 156
105 94 125
84 70 99
82 67 96
58 61 70
63 90 106
58 117 141
66 140 168
115 143 170
132 138 152
123 139 160
118 137 157
123 137 157
125 140 161
131 146 166
125 142 161
127 144 165
110 119 129
90 93 96
96 99 103
100 102 105
97 100 104
94 96 101
93 97 99
95 97 100
98 101 104
92 94 98
94 95 99
102 103 107
100 101 105
101 101 106
101 103 106
100 102 106
99 102 106
96 99 101
97 99 102
96 97 101
104 105 109
105 108 112
101 104 109
101 103 109
96 97 102
102 105 111
98 101 106
102 103 108
101 103 108
97 99 102
99 99 103
102 103 107
97 98 102
104 105 109
105 108 112
101 102 105
103 104 110
97 98 102
104 107 110
95 96 100
94 95 100
99 102 107
99 100 104
92 94 97
100 101 105
99 100 106
100 102 107
100 101 103
96 98 101
95 98 102
95 97 102
97 98 101
98 102 106
101 103 106
96 99 102
101 102 105
98 98 102
85 85 88
100 104 108
86 88 90
91 92 96
90 91 94
98 98 105
92 94 97
96 97 102
91 90 93
93 90 95
87 84 88
85 80 83
80 58 64
92 44 56
103 50 65
101 49 62
98 45 57
107 51 66
89 50 58
109 103 114
129 142 162
118 131 151
119 133 151
126 116 135
128 71 93
143 72 100
144 75 104
145 74 104
143 74 105
158 83 114
150 81 112
152 81 113
157 84 116
158 84 117
150 71 101
130 45 70
113 28 49
121 29 53
133 34 60
137 35 62
137 35 64
132 34 60
143 37 66
127 33 59
141 39 66
122 133 155
122 134 154
121 137 158
120 134 153
124 139 159
117 131 148
124 139 160
130 145 166
112 125 142
117 135 154
115 126 146
118 133 153
127 141 162
125 141 163
128 141 161
127 138 159
118 130 152
102 91 130
84 36 111
87 36 112
90 37 116
88 35 111
91 37 116
92 38 118
89 37 113
95 39 120
89 37 114
91 38 117
88 37 116
95 45 123
113 109 146
128 146 166
126 140 160
127 142 164
119 134 151
124 139 161
133 149 169
130 147 167
128 144 166
122 138 158
123 140 160
185 223 185
186 223 185
187 224 185
188 225 185
182 215 175
162 187 148
186 216 173
196 227 182
162 180 143
108 104 96
109 121 136
118 135 154
110 123 138
125 140 159
115 126 143
124 134 151
118 134 151
113 127 144
120 133 151
113 125 141
115 130 146
109 119 133
113 120 135
102 107 115
103 94 91
92 78 67
66 47 26
88 61 31
79 58 37
84 59 40
86 75 75
99 100 109
106 111 121
92 91 101
108 112 126
109 104 112
113 102 114
113 85 94
108 90 103
111 98 108
110 116 130
116 126 141
116 127 143
122 134 151
118 130 151
118 131 153
118 129 146
110 121 139
126 137 156
125 139 160
125 139 157
128 141 162
111 120 136
114 122 142
123 139 158
120 132 150
113 125 139
103 113 128
111 119 134
105 109 123
112 119 135
106 111 126
107 113 126
98 98 111
92 94 190
92 94 209
99 101 226
94 94 209
94 96 215
95 97 217
94 97 215
94 96 217
90 92 212
93 93 211
100 102 227
92 94 215
89 90 202
96 97 216
95 97 216
83 83 192
87 85 181
95 70 61
109 81 65
108 77 62
102 74 60
102 74 59
97 71 57
113 83 67
96 74 67
106 105 117
121 135 155
112 126 144
116 127 146
117 127 145
115 125 143
110 121 140
118 131 151
117 130 150
116 128 148
103 112 171
63 50 180
57 33 205
55 32 198
52 30 189
53 30 190
54 31 197
52 30 187
52 32 175
59 39 161
78 56 96
84 61 48
89 66 51
85 63 49
78 57 46
90 66 49
88 65 49
80 60 46
86 68 56
48 96 111
43 89 105
43 103 122
46 111 132
38 94 109
53 101 120
53 87 105
87 102 121
89 108 125
84 108 125
92 112 129
102 119 137
112 129 149
150 164 185
206 222 244
168 175 229
143 160 171
107 111 117
75 44 60
139 157 185
180 205 238
89 101 124
90 92 117
108 81 125
123 97 140
116 81 131
71 75 91
55 95 114
70 136 163
72 148 177
167 192 215
142 158 180
124 142 164
120 138 156
124 140 161
128 144 165
127 143 163
131 149 168
129 145 166
125 140 161
105 116 128
90 92 94
89 90 92
90 93 98
91 93 97
95 96 101
98 102 108
95 99 103
88 89 94
88 90 92
86 88 90
98 99 102
95 97 103
96 99 102
100 103 107
101 103 106
100 100 103
105 108 113
102 103 106
93 95 99
102 105 108
95 98 101
96 97 101
94 95 99
105 108 112
99 101 105
101 102 106
100 101 105
96 97 100
97 98 104
92 92 95
100 100 104
97 98 101
99 102 105
94 96 101
103 106 109
104 107 111
95 98 100
92 93 95
94 95 100
95 95 98
89 89 92
101 102 105
105 106 110
96 96 100
100 102 106
93 93 94
93 95 97
98 101 106
102 102 107
84 86 89
97 98 100
101 102 105
87 87 95
100 101 105
98 101 103
93 94 98
95 97 102
92 97 100
98 99 106
97 96 99
95 94 99
93 92 95
92 92 95
88 88 92
83 80 83
79 75 78
84 76 79
80 39 49
98 47 60
87 42 51
91 45 57
84 39 48
96 57 64
107 108 118
120 135 152
118 134 152
121 137 158
127 95 116
130 66 89
131 67 94
149 77 107
139 72 99
137 70 96
140 73 102
144 75 104
145 78 107
154 82 114
146 78 108
152 81 115
153 82 115
161 85 119
124 46 69
116 29 52
130 33 59
137 35 63
136 35 62
126 33 58
133 34 61
129 34 59
136 82 103
121 139 160
122 137 156
120 135 155
128 144 166
126 140 161
129 147 168
122 139 158
122 140 159
123 138 157
124 137 157
126 140 161
128 142 164
128 144 164
122 137 157
117 132 149
130 143 166
105 88 132
81 33 104
82 33 105
92 38 116
86 35 108
88 37 114
84 34 107
89 37 113
88 36 112
91 38 116
84 35 108
91 38 118
91 38 118
96 40 125
91 38 117
111 100 142
129 147 170
128 146 167
127 139 160
129 145 167
126 142 162
128 145 167
126 141 162
129 144 166
133 149 170
192 227 185
193 227 185
194 228 185
195 228 185
185 214 171
122 132 102
143 163 129
164 200 158
120 123 94
98 101 86
120 136 153
116 130 146
117 128 145
126 139 156
119 133 151
116 129 146
124 135 152
117 134 151
107 113 125
117 126 142
115 126 143
96 107 117
94 101 109
101 108 116
80 85 92
86 87 92
68 70 68
87 89 94
87 89 99
90 91 99
90 93 100
107 111 123
101 105 116
107 69 75
115 47 46
120 22 8
120 22 8
117 21 8
121 22 8
117 21 8
118 37 37
108 51 53
120 115 132
124 138 159
120 131 147
120 131 150
124 135 154
115 126 143
109 118 137
128 143 165
114 126 145
120 132 151
109 119 137
120 134 156
122 133 153
123 136 154
116 127 145
109 118 136
110 118 135
122 133 151
119 129 147
99 105 118
102 108 123
106 111 166
98 100 222
96 97 217
91 94 207
94 96 210
94 95 211
94 95 216
95 95 210
93 95 209
90 90 201
93 95 216
89 91 211
86 86 197
86 88 196
94 97 216
94 96 219
87 88 203
89 91 206
93 80 140
90 64 52
84 61 50
99 72 58
90 68 55
84 61 51
81 70 68
103 108 121
102 107 119
103 107 122
96 100 110
109 116 133
109 122 140
118 131 149
114 125 144
113 126 145
107 118 164
81 79 197
52 30 193
55 32 201
54 31 199
55 32 199
52 30 187
56 32 204
54 31 196
49 28 180
54 31 196
52 30 192
50 30 174
74 53 132
87 65 59
79 59 45
90 68 52
72 53 44
80 60 46
86 64 49
82 61 46
89 90 95
67 83 91
64 86 99
72 92 106
61 84 96
79 91 103
89 106 120
84 99 113
93 108 126
102 119 134
105 121 139
110 127 146
104 126 146
117 134 153
190 207 229
210 227 251
214 230 253
203 220 243
178 199 228
194 217 248
195 218 248
193 216 248
159 171 202
132 114 153
132 100 149
129 103 150
49 55 71
78 128 150
64 146 174
94 153 181
172 192 215
121 137 159
118 136 156
128 143 163
118 132 152
119 134 153
125 139 160
121 141 159
122 136 159
121 139 160
125 140 159
103 113 123
98 99 103
102 105 109
84 88 92
87 87 90
100 102 106
94 96 99
95 99 103
98 99 104
95 95 99
85 84 88
89 92 96
99 100 106
94 96 98
99 100 103
83 84 88
94 96 102
104 107 109
95 96 98
92 93 96
93 94 96
94 96 100
99 102 105
92 92 97
100 102 107
99 100 103
104 106 110
98 100 104
98 99 101
100 103 106
96 96 99
97 98 101
88 89 94
101 103 107
95 97 102
99 100 104
97 99 101
92 93 100
91 93 95
93 94 99
98 97 99
95 96 100
103 103 106
94 98 102
99 101 104
94 93 96
98 99 103
95 96 97
95 99 103
94 96 101
90 91 96
97 96 101
93 94 98
99 101 107
98 100 104
99 100 103
95 94 97
99 100 102
89 89 92
98 97 100
92 88 91
88 85 88
91 91 96
85 83 85
87 85 91
83 79 84
74 58 64
86 43 54
87 41 51
94 45 58
88 39 48
95 56 61
94 92 101
126 141 161
116 124 143
116 132 149
114 95 114
125 62 84
123 61 86
128 66 92
140 73 102
125 65 89
136 73 102
144 74 102
146 77 108
145 74 103
144 76 107
151 81 113
147 80 113
153 81 115
146 79 112
153 83 116
130 46 73
124 31 57
129 32 58
120 31 55
128 33 59
127 32 58
143 37 66
127 123 143
126 140 161
130 145 165
122 137 156
128 144 166
127 141 162
120 133 153
129 139 159
124 137 156
122 136 158
119 137 156
123 138 158
128 142 163
128 144 166
127 144 166
135 149 170
101 95 129
84 34 107
80 34 105
88 36 111
87 35 111
83 34 105
84 34 108
86 36 111
81 34 104
80 34 108
88 37 114
90 37 116
89 37 116
83 35 110
90 38 117
89 38 117
89 38 118
110 101 142
124 140 161
126 141 162
125 142 162
127 143 164
113 130 150
131 149 170
121 138 157
118 131 149
189 219 177
192 222 179
166 182 147
164 177 142
149 167 153
86 91 128
111 143 116
114 142 118
113 131 106
107 122 101
122 138 157
130 142 161
119 133 151
126 142 160
121 135 151
122 135 148
116 127 143
110 121 137
119 130 147
125 140 156
112 124 140
95 100 108
117 128 145
111 122 136
105 116 128
106 108 117
94 99 107
108 117 129
109 119 127
101 112 122
109 116 130
110 83 96
116 25 15
116 21 8
114 21 8
114 20 8
113 21 8
117 21 8
107 19 7
111 20 8
111 20 8
107 19 7
112 20 8
113 77 84
119 124 143
123 135 154
124 136 154
121 134 154
120 132 149
123 135 154
117 127 145
118 130 150
118 131 149
113 123 141
122 134 153
117 129 148
124 136 156
117 129 149
126 140 158
124 140 160
118 127 143
121 132 152
113 123 139
94 97 204
92 94 210
92 95 210
91 92 204
92 93 209
97 98 219
91 92 206
93 96 215
95 97 215
88 88 202
90 92 208
90 91 210
88 91 205
92 92 209
94 96 217
86 89 209
92 94 213
80 80 182
73 70 151
74 61 67
72 52 47
66 52 48
69 64 64
78 76 82
87 96 108
88 94 102
90 94 100
103 109 121
115 127 142
103 111 123
103 110 123
104 116 131
113 124 139
104 115 141
62 55 187
54 31 200
53 30 192
52 30 190
53 31 195
53 31 195
53 30 194
50 29 183
50 28 182
51 29 187
52 30 190
51 29 189
46 26 168
52 30 188
62 41 141
83 61 48
84 63 48
84 62 48
80 60 47
85 62 46
77 57 44
77 76 80
107 128 145
88 107 125
104 120 138
113 129 149
107 125 142
105 125 144
104 124 144
116 132 148
111 128 146
117 133 153
107 122 141
109 125 144
107 126 148
163 181 204
191 209 234
202 219 242
200 218 244
191 209 236
191 210 236
190 209 236
201 222 250
199 219 249
166 163 199
149 131 174
188 198 226
166 181 201
134 178 206
86 162 193
166 198 225
160 179 202
126 144 163
125 140 161
112 132 155
130 145 165
119 135 153
118 132 150
120 136 155
128 145 168
129 145 168
119 136 154
132 149 171
100 114 127
93 96 98
83 85 90
96 98 102
89 90 92
93 94 96
93 95 99
100 101 104
93 94 99
89 90 93
91 93 96
93 95 97
92 94 96
86 88 94
94 94 98
98 100 102
107 108 111
102 104 108
105 108 111
92 92 96
99 101 106
98 98 100
95 97 100
97 98 102
99 101 105
86 89 92
95 95 99
101 103 107
102 103 106
102 103 105
101 102 105
97 98 101
94 95 99
98 100 107
96 96 99
95 95 99
96 96 98
90 90 95
97 98 103
97 98 99
92 93 97
97 99 103
99 100 105
93 95 97
93 94 98
92 93 99
100 102 104
104 105 110
98 99 101
95 97 100
95 98 100
99 99 101
100 102 105
90 91 94
93 93 96
92 92 95
95 99 102
84 83 86
94 97 101
87 85 87
91 91 94
94 92 96
90 83 85
81 73 77
82 79 80
63 43 47
80 39 50
84 39 49
92 43 54
98 84 89
109 116 128
125 135 156
121 134 151
117 128 146
132 132 150
118 62 81
133 69 94
134 68 95
136 70 97
141 74 103
143 76 106
149 80 112
144 76 106
152 80 111
153 83 116
147 79 110
153 82 114
141 76 106
142 76 109
157 82 117
155 83 117
152 80 113
127 40 64
128 31 57
113 29 49
127 32 58
125 31 57
122 82 99
126 141 159
115 132 151
125 140 159
125 137 157
130 146 167
120 137 157
124 139 159
120 134 154
132 148 169
129 145 165
125 141 162
128 144 165
131 146 167
127 141 163
129 145 168
115 122 146
75 30 93
80 33 102
78 32 98
82 33 104
81 32 99
88 35 109
80 33 102
81 34 106
81 33 105
86 36 113
86 36 110
82 34 104
85 36 112
84 35 110
90 37 117
83 36 109
94 40 125
83 35 110
122 135 159
120 134 154
120 138 157
117 133 150
119 136 155
124 142 162
128 147 165
115 134 153
58 79 91
116 133 117
98 82 71
96 94 79
101 116 112
97 114 106
111 135 115
117 140 116
117 140 116
112 135 112
127 141 160
119 135 153
124 142 161
118 130 147
128 144 164
124 139 155
118 129 144
125 142 160
118 130 148
125 139 157
116 127 145
125 140 160
128 140 158
122 135 156
125 137 155
111 119 133
122 132 146
120 132 150
127 139 157
126 139 159
119 78 85
117 21 8
116 21 8
114 21 8
113 20 8
114 20 8
113 20 8
114 20 8
110 20 7
114 21 8
110 20 7
112 20 7
113 20 8
104 19 7
108 36 37
117 115 131
126 140 161
123 137 157
125 138 156
127 140 160
120 135 157
118 131 149
127 143 163
122 138 159
119 134 153
116 128 147
125 142 162
130 145 167
119 129 149
119 129 147
123 137 154
122 134 154
108 115 157
89 91 205
89 89 198
91 92 205
89 91 203
96 97 216
90 90 200
93 94 209
89 90 200
94 96 220
84 84 191
88 89 201
93 94 212
79 80 183
83 85 195
86 88 200
88 90 203
80 82 189
86 88 199
86 87 195
95 98 153
98 101 112
107 114 130
98 105 118
101 105 114
117 126 142
111 118 133
112 119 133
112 124 140
111 123 141
116 128 147
112 122 138
112 119 134
106 117 151
75 71 181
54 31 198
51 29 187
52 30 191
53 31 195
51 30 191
53 30 191
49 28 181
50 28 179
51 29 182
50 29 191
53 31 196
51 29 184
51 29 186
48 28 181
49 29 182
66 48 121
82 61 47
70 51 40
79 59 45
76 56 43
80 59 44
84 74 72
122 139 160
112 132 153
110 126 148
107 125 142
111 128 147
118 136 157
124 142 163
116 131 152
119 137 158
111 126 145
104 123 141
116 135 153
122 138 159
123 140 160
195 216 244
201 221 248
194 210 233
192 205 225
205 223 249
191 209 235
203 222 248
193 211 238
205 224 250
198 219 242
211 229 254
205 224 250
204 225 252
192 216 244
173 196 223
124 139 159
120 137 156
122 139 160
119 135 151
114 129 149
125 138 158
122 137 157
124 140 161
126 141 158
132 146 168
123 142 163
123 140 162
121 136 156
107 116 125
100 103 107
87 89 91
86 89 92
86 88 94
88 88 92
88 91 94
95 96 99
95 97 101
100 101 103
95 95 97
98 98 100
96 98 100
93 94 95
88 88 91
92 94 95
92 92 98
91 94 97
100 101 105
92 93 98
94 95 100
90 91 96
87 84 87
85 86 90
92 93 95
87 89 91
95 95 98
97 98 101
94 95 96
90 89 91
100 101 105
87 86 88
99 100 103
85 85 87
92 92 97
92 93 96
97 97 100
90 91 96
98 100 102
90 90 92
98 100 103
98 99 102
95 95 99
95 97 101
92 93 96
92 92 95
96 97 102
98 98 101
98 99 102
95 97 103
90 92 95
94 95 98
98 100 103
93 95 98
102 105 106
89 88 90
86 86 89
85 82 84
95 97 100
88 86 91
84 83 86
82 78 79
76 73 73
71 66 68
73 65 67
74 54 59
71 63 67
86 89 89
108 114 127
114 126 143
121 138 157
119 127 146
105 116 133
107 81 99
121 60 83
125 63 86
128 65 91
121 61 86
121 65 91
139 73 103
134 71 100
137 71 100
137 72 104
149 80 112
148 79 111
141 76 106
140 75 106
141 77 107
150 81 114
150 80 114
145 78 111
137 66 93
108 26 46
120 30 54
125 32 57
120 57 75
124 130 150
126 137 155
125 135 155
123 138 158
123 137 158
123 137 158
129 142 163
127 142 162
132 149 170
118 129 147
126 139 159
125 141 160
124 141 160
122 138 158
128 140 159
121 132 151
99 83 122
78 32 101
82 34 103
82 34 107
80 33 102
83 34 105
82 33 104
83 34 104
80 33 103
87 36 113
84 34 106
84 35 109
86 36 112
85 37 113
78 34 102
88 36 113
85 36 112
89 37 117
83 35 108
106 94 139
125 142 163
122 136 155
123 140 162
124 138 160
123 140 160
120 138 160
121 142 162
108 129 111
111 133 111
113 135 114
112 133 111
121 146 123
118 142 118
117 140 116
117 142 119
110 133 109
117 139 128
123 138 159
127 142 164
122 137 153
116 133 152
120 135 150
122 138 156
122 139 159
128 142 162
123 137 154
125 140 160
124 133 151
118 131 150
125 137 156
120 133 148
124 137 156
131 142 160
116 125 139
125 136 155
127 141 160
120 97 110
117 21 8
111 20 8
105 19 7
110 20 8
114 21 8
106 19 7
108 19 7
110 20 7
110 20 7
110 20 8
113 20 8
109 19 7
107 19 7
103 18 7
103 18 7
116 58 61
120 123 140
117 128 146
130 145 166
125 140 159
125 138 158
124 134 151
127 141 161
123 136 154
130 144 163
126 138 162
120 136 155
123 137 158
130 144 164
128 141 159
117 129 147
126 137 155
108 118 169
89 89 200
99 100 221
90 92 207
90 91 205
88 90 203
92 93 206
90 91 204
85 88 199
88 90 203
86 88 200
86 87 198
92 93 206
89 89 200
82 84 193
78 79 183
88 90 205
82 84 190
84 86 197
90 92 206
100 105 154
115 125 141
108 119 135
116 123 137
116 125 143
120 132 149
115 126 145
122 136 155
123 137 155
127 138 157
117 130 151
118 129 146
116 133 153
82 85 178
51 30 193
52 31 190
49 28 183
54 31 201
52 30 194
53 31 193
53 31 196
50 29 182
50 29 187
52 30 192
49 29 184
49 28 179
45 26 168
51 29 185
47 27 175
45 26 166
49 29 175
63 46 83
74 54 43
79 58 44
79 58 45
78 58 44
81 68 66
119 134 152
121 136 155
109 123 141
110 130 151
128 147 169
120 140 162
121 135 156
120 136 158
125 140 160
124 139 159
129 146 168
118 134 155
115 132 150
121 136 157
129 147 169
188 209 238
191 212 241
157 162 175
198 212 233
209 226 249
204 221 245
205 223 248
208 226 250
202 220 240
203 224 252
200 221 250
197 219 249
172 194 223
130 144 165
125 142 164
123 138 157
121 138 155
121 136 155
121 135 153
115 132 151
119 137 156
124 142 163
124 139 158
121 139 158
119 132 151
121 138 159
128 144 168
119 135 156
113 124 136
95 98 102
90 89 92
89 89 91
92 93 95
98 100 103
94 95 97
92 95 98
93 94 96
84 85 89
93 92 94
103 105 109
87 88 90
90 91 94
96 97 101
93 94 97
96 98 102
98 99 102
83 85 89
94 94 99
91 91 95
88 90 89
95 96 99
102 104 107
93 93 92
93 94 96
90 90 95
94 94 98
100 102 103
93 94 96
94 95 98
92 92 95
92 93 96
99 99 101
95 95 99
96 97 99
98 100 103
97 98 102
89 88 94
89 89 92
96 96 100
94 94 100
98 99 102
88 88 89
93 93 97
93 94 96
91 90 92
95 93 95
90 91 94
95 92 95
93 91 94
96 96 101
91 92 94
93 94 96
92 91 93
91 89 91
89 87 89
87 86 88
87 84 86
85 85 90
83 78 78
79 78 78
70 66 69
68 61 62
78 77 80
86 89 91
96 104 108
123 133 153
117 131 149
112 124 141
121 135 153
109 103 119
104 51 71
111 55 76
127 65 91
122 62 85
134 70 98
132 69 96
121 64 90
127 67 93
147 78 109
143 77 111
153 83 116
139 74 102
144 78 110
137 74 105
151 81 115
153 82 116
141 75 108
150 81 115
138 74 106
124 38 61
125 31 55
119 81 99
119 124 144
128 139 158
126 139 161
119 131 151
128 142 163
134 149 171
118 133 151
124 135 157
126 142 162
128 141 161
132 143 166
125 137 158
132 149 170
130 143 164
116 132 150
126 145 166
124 140 161
79 37 99
88 36 111
73 31 95
74 30 93
82 33 105
77 32 101
82 34 106
80 33 103
80 33 101
80 33 103
83 34 107
82 34 105
79 33 100
85 36 108
83 35 109
87 36 111
89 37 116
89 37 114
84 35 110
92 67 116
121 141 159
119 137 157
113 129 148
112 130 148
122 139 160
109 128 145
107 123 140
112 137 113
116 141 117
118 142 118
120 144 120
123 147 121
111 136 113
115 138 115
111 134 111
113 141 114
117 137 127
131 146 167
130 145 168
118 133 152
126 143 163
129 144 166
128 145 164
128 144 165
114 126 144
126 139 158
131 147 168
122 138 152
118 130 146
127 142 163
125 138 156
118 134 150
132 147 169
123 138 158
122 136 154
127 115 128
108 29 26
111 20 8
110 20 8
112 20 8
110 20 7
103 18 7
109 20 7
111 20 8
107 19 7
108 19 7
114 20 8
105 19 7
114 20 8
107 19 7
102 18 7
108 19 7
107 19 7
112 78 88
124 137 156
130 146 167
128 143 165
131 146 167
128 142 164
130 145 164
128 144 164
124 138 159
120 133 151
129 143 163
124 137 158
126 140 160
130 144 162
122 136 153
126 141 159
106 116 179
93 95 209
86 89 199
94 97 214
92 93 207
92 95 211
86 88 202
83 83 191
92 92 206
84 83 189
83 82 186
84 85 194
78 80 189
80 80 186
86 87 195
85 87 193
88 90 208
83 84 188
68 69 162
77 78 183
93 101 171
117 130 149
125 140 161
118 129 149
118 131 149
119 132 153
120 134 156
125 139 160
125 140 162
126 139 159
124 137 158
119 130 147
109 120 151
112 101 200
138 128 198
154 147 199
155 147 204
157 149 203
134 125 196
124 114 193
69 55 182
51 29 188
50 29 183
49 28 182
51 29 187
50 29 183
52 30 192
48 28 177
49 28 181
45 26 165
50 29 183
52 34 133
72 53 41
71 54 41
82 60 46
83 61 46
86 76 75
122 136 158
124 140 161
127 142 163
121 135 155
125 140 163
125 138 156
128 145 166
119 138 159
123 139 160
113 128 148
124 140 161
121 134 153
115 129 150
121 136 156
116 134 154
129 147 167
182 205 236
195 219 250
165 179 200
181 195 216
183 194 218
185 202 224
176 194 221
197 220 252
196 219 250
188 211 243
169 191 221
127 146 168
126 141 161
122 136 154
114 131 152
119 134 154
125 142 163
119 133 152
124 139 160
128 144 163
116 136 156
124 142 163
116 131 146
112 125 143
123 138 157
118 134 154
117 132 152
122 138 158
109 124 138
91 93 99
88 87 88
82 82 82
89 87 90
87 90 93
86 88 90
84 83 87
85 85 88
97 99 101
89 92 93
88 88 90
80 80 84
90 90 91
95 96 99
89 90 92
96 97 99
94 95 99
101 101 104
101 103 106
90 89 93
103 104 108
103 105 108
100 101 105
93 95 98
90 93 93
93 94 97
92 92 96
99 100 101
98 99 101
89 88 90
83 83 85
86 85 89
99 100 103
93 93 95
98 99 102
84 83 85
91 91 95
99 101 103
84 85 87
87 87 89
95 97 101
99 100 101
97 97 100
89 90 93
87 87 89
95 96 101
95 96 99
98 99 103
104 104 107
94 96 99
94 92 96
90 87 88
90 91 94
87 86 86
87 86 88
90 90 94
82 80 80
78 76 78
86 80 82
73 63 65
82 78 81
80 80 80
97 95 99
99 108 121
119 133 149
121 136 154
118 128 147
109 119 133
118 129 144
111 90 107
115 56 75
117 59 82
110 56 77
131 68 94
128 68 95
118 63 88
133 71 98
142 76 106
131 70 97
129 69 96
141 76 109
145 76 104
158 86 120
143 77 110
141 76 108
145 79 112
146 78 108
157 85 120
149 81 116
125 71 95
108 102 115
111 115 130
122 135 155
121 130 146
121 126 146
123 127 147
124 137 157
128 140 161
118 128 149
126 137 157
121 137 158
114 124 141
129 142 164
125 135 156
119 137 157
129 138 159
125 141 162
132 143 164
115 118 144
72 28 89
77 31 94
78 32 98
70 28 84
77 30 94
70 28 91
78 32 98
72 30 92
85 35 107
80 33 104
78 32 100
76 32 100
78 33 102
85 36 112
82 34 105
81 34 107
81 34 107
84 35 111
87 37 113
79 34 104
113 123 148
122 138 159
125 141 160
117 135 155
109 127 146
126 141 162
115 133 151
113 137 112
115 139 111
116 141 115
114 139 115
116 141 115
116 140 115
112 133 110
112 134 109
116 139 113
123 142 158
127 144 166
118 135 152
124 143 161
129 145 165
130 144 163
127 144 164
126 141 157
126 143 161
125 139 161
127 143 161
127 142 164
124 138 157
125 140 159
124 140 160
121 135 152
133 149 168
126 141 159
119 134 152
106 37 38
110 20 8
109 20 8
112 20 8
102 19 7
110 20 7
110 20 7
109 20 8
103 19 7
109 19 7
105 19 7
98 18 7
107 19 7
104 19 7
101 18 7
108 20 7
105 19 7
100 18 7
101 18 7
118 114 130
122 136 156
128 145 167
125 142 163
118 131 151
124 141 160
123 138 161
129 145 166
127 140 161
124 137 156
129 145 165
126 142 164
124 136 157
122 136 156
125 138 158
107 116 178
84 86 192
89 90 200
87 89 199
87 88 194
87 89 196
80 81 185
92 92 206
82 83 188
84 84 188
93 95 210
79 81 185
89 90 201
85 85 194
76 78 182
82 83 191
86 87 198
82 84 193
73 74 172
71 71 168
96 106 172
122 135 153
121 139 161
115 127 145
123 137 158
124 138 156
129 144 165
124 142 163
123 138 158
121 136 158
136 146 171
154 152 185
165 160 202
169 164 210
167 165 214
166 164 214
163 163 214
164 163 214
167 165 214
168 165 212
159 154 199
128 121 187
80 67 182
45 26 170
49 28 180
49 28 180
45 25 160
48 27 172
46 26 171
46 27 174
50 28 179
46 27 161
65 47 89
77 57 43
74 54 40
75 55 42
93 92 98
126 140 157
120 135 154
122 139 161
127 142 163
125 140 160
115 130 150
121 137 159
113 127 144
129 144 164
116 131 149
129 144 163
120 132 149
125 138 158
119 132 149
120 131 150
123 134 150
123 135 150
135 154 177
172 195 227
185 210 243
189 215 250
188 213 246
183 207 238
186 211 244
170 195 227
154 176 205
118 135 154
118 141 164
120 139 160
117 130 149
121 135 155
123 139 159
127 140 160
123 137 156
127 141 161
116 133 154
122 141 162
113 131 154
122 138 158
107 121 142
118 137 157
116 134 154
115 128 146
126 141 162
113 127 146
103 122 141
86 89 93
93 94 98
87 88 90
89 91 92
90 92 94
86 86 90
92 92 96
97 97 101
87 88 92
91 91 95
90 91 94
88 88 90
84 85 89
83 83 87
96 96 99
88 87 89
94 94 97
90 91 95
95 97 99
86 85 88
98 98 102
90 91 95
82 83 85
99 99 102
90 91 93
89 89 91
85 82 84
90 90 93
92 95 96
96 98 99
95 94 97
87 89 91
88 88 91
93 93 96
97 98 101
95 96 100
90 88 89
92 91 93
90 91 93
94 94 97
87 86 89
91 90 94
91 90 91
85 86 89
98 100 101
95 94 97
84 85 89
84 83 85
81 81 84
90 92 93
87 87 90
87 85 87
90 88 91
91 91 92
77 75 79
84 81 82
79 78 78
82 77 78
74 72 74
96 94 96
94 99 107
107 122 128
110 126 136
109 124 135
108 120 136
94 106 118
109 122 133
106 115 130
108 62 81
101 53 70
115 58 79
110 57 79
126 65 90
125 65 90
122 63 87
128 68 97
122 64 90
133 72 102
127 68 97
142 76 107
144 76 107
127 65 94
141 75 107
140 73 104
154 83 117
136 74 107
144 77 113
140 75 108
135 83 110
104 100 114
103 98 112
105 104 119
105 105 123
112 114 132
123 129 146
117 119 137
125 126 146
122 134 155
123 124 142
119 132 149
121 131 149
121 132 151
118 127 147
120 134 151
126 131 152
118 129 149
125 136 158
107 111 138
77 31 96
81 31 97
79 31 96
83 33 103
83 33 104
74 30 94
78 31 96
82 34 105
77 33 100
82 34 104
74 31 96
79 33 103
80 34 103
81 34 105
80 34 107
84 35 110
88 37 117
78 33 101
82 34 105
79 33 105
111 116 144
118 131 153
115 130 149
129 145 164
117 135 152
118 135 155
109 129 148
112 135 111
116 141 114
111 134 112
110 133 106
114 139 113
111 135 104
110 134 110
118 144 116
115 135 131
126 144 160
126 144 161
129 145 165
124 138 156
122 136 157
124 140 158
125 138 158
126 141 162
129 147 168
129 147 167
123 137 154
127 142 163
122 139 163
125 136 155
123 138 158
123 138 160
130 148 168
127 141 161
118 109 123
103 19 7
105 19 7
104 19 7
110 20 7
104 19 7
109 20 7
98 18 7
103 19 7
102 18 7
103 18 7
98 18 7
100 18 7
111 20 8
102 18 7
103 18 7
104 19 7
107 19 7
96 17 6
101 18 7
102 57 63
132 146 166
130 144 165
129 143 165
130 145 166
125 139 160
131 146 167
124 135 156
124 138 158
129 145 165
129 141 161
118 130 152
126 140 162
120 135 155
127 143 164
105 112 176
79 82 184
85 86 191
85 86 195
89 91 205
93 95 212
78 80 186
90 93 212
82 83 186
80 81 184
85 86 195
77 78 175
84 84 189
75 77 179
74 74 169
74 75 173
86 87 200
86 88 199
79 81 186
76 77 178
92 104 156
123 135 154
128 143 163
126 140 158
127 142 164
127 141 162
123 135 154
126 141 162
122 139 158
146 149 180
168 163 205
170 165 212
167 165 214
162 162 214
160 162 214
158 161 214
158 160 214
158 161 214
159 161 214
162 162 214
165 163 212
166 160 205
147 138 186
112 104 179
45 26 166
48 27 177
45 25 164
47 26 171
46 27 169
42 24 154
46 26 163
43 24 153
58 41 106
74 54 42
68 50 38
68 50 37
109 114 127
126 140 161
128 145 166
119 133 151
121 133 153
119 133 154
123 136 156
123 136 154
120 136 156
123 136 155
131 144 163
122 133 150
124 138 158
120 133 152
124 140 159
123 136 154
124 138 161
123 139 162
126 142 164
120 136 158
123 142 162
128 147 177
139 161 190
136 159 189
123 145 172
119 138 160
118 135 156
102 119 140
117 135 155
119 132 151
117 132 153
117 135 159
120 136 157
115 132 154
116 131 149
119 134 152
120 136 154
108 122 139
101 120 136
112 126 143
109 122 137
118 133 152
118 132 149
105 123 143
110 132 153
121 138 157
98 115 133
93 113 134
81 101 115
83 84 87
81 80 81
93 93 96
79 79 83
86 87 91
86 88 90
83 84 85
86 85 88
93 94 96
90 91 93
91 91 93
89 88 90
95 96 98
80 81 86
98 99 100
92 93 95
89 91 93
87 87 89
89 91 93
90 93 94
82 83 85
94 94 98
82 81 85
91 92 95
90 90 93
95 94 96
99 101 104
90 91 93
86 87 90
83 80 81
94 95 97
95 93 98
91 91 94
94 96 97
87 86 89
92 91 94
87 85 89
96 96 98
95 94 97
86 87 88
91 91 94
96 96 99
89 88 90
87 86 88
94 93 96
87 87 88
83 83 83
92 89 91
88 87 88
85 84 84
88 85 86
81 77 80
89 84 84
79 76 77
83 82 82
78 73 76
85 83 84
100 107 115
106 115 127
108 124 132
110 122 135
108 124 134
114 127 143
115 127 142
111 122 133
113 121 136
108 59 77
115 56 77
109 57 79
122 63 87
109 56 76
132 70 96
126 67 95
136 72 100
117 62 87
125 66 93
137 74 102
150 80 113
142 76 109
149 81 114
148 80 113
135 72 101
141 76 107
134 73 104
145 78 112
127 69 100
125 76 104
96 97 109
103 105 116
103 101 113
103 101 118
119 125 144
98 105 120
105 115 130
121 128 149
124 132 153
127 139 158
118 130 149
109 122 138
124 131 153
116 128 149
116 127 146
126 137 157
118 130 147
119 133 153
97 93 122
72 29 90
73 29 88
75 30 92
75 31 95
75 31 94
77 32 100
75 30 95
80 33 104
71 29 92
83 34 108
77 32 100
78 33 103
75 32 100
80 33 104
77 31 97
81 34 105
77 33 104
73 31 98
79 33 104
84 35 110
99 101 129
127 139 161
121 136 154
117 134 152
128 146 167
121 138 156
118 134 151
107 131 108
104 129 104
112 136 107
112 135 109
101 123 98
99 124 99
115 139 111
112 135 121
128 143 161
126 143 162
123 137 156
122 139 163
124 141 163
117 133 155
117 130 150
127 144 165
121 136 153
126 141 155
118 131 148
123 139 159
135 151 171
122 138 157
127 143 166
127 145 162
122 138 154
126 141 161
122 135 155
111 80 90
96 17 7
105 19 7
98 18 7
108 20 7
108 19 7
110 20 7
101 18 7
107 19 7
103 19 7
107 19 7
106 19 7
103 18 7
109 19 7
103 18 7
98 17 7
100 18 7
95 17 7
99 18 7
94 17 7
101 18 7
120 129 147
125 141 162
125 139 159
127 142 164
127 143 163
120 137 156
127 143 163
123 137 157
130 144 166
129 143 164
116 127 148
129 145 169
128 145 169
132 149 172
117 130 182
80 80 177
77 78 174
75 74 168
84 84 187
88 89 197
84 85 190
85 86 193
82 83 188
83 85 198
78 80 180
82 86 193
72 72 169
78 78 178
76 75 168
72 73 169
67 68 164
73 75 171
77 78 174
77 79 180
112 124 162
118 133 155
124 138 161
123 139 160
119 131 147
124 139 161
123 138 158
123 139 160
135 139 176
174 166 208
171 166 214
166 164 214
161 162 214
159 161 214
156 160 214
155 159 214
155 159 214
155 159 214
156 160 214
158 161 214
161 162 214
157 155 200
159 152 190
160 150 186
109 98 174
44 25 161
48 27 175
48 28 181
43 24 153
45 25 164
42 24 152
41 23 149
52 34 124
71 52 40
68 49 38
72 59 52
124 141 161
125 139 159
122 137 157
124 138 157
123 136 155
123 138 157
117 131 150
130 149 171
129 145 166
127 142 161
124 141 163
121 136 156
123 136 155
119 135 154
120 134 155
117 132 150
127 145 167
119 133 152
125 140 161
118 132 154
121 136 158
120 136 159
119 134 155
113 127 149
118 130 149
115 131 152
117 137 160
121 135 155
113 129 150
111 125 143
107 122 141
120 137 157
117 133 153
111 127 147
103 115 132
117 132 153
121 136 155
112 128 146
107 119 136
109 123 139
107 119 135
108 121 138
101 118 135
107 123 140
107 125 145
98 118 136
114 133 149
95 111 125
97 113 129
83 95 107
81 82 84
84 83 85
81 80 81
89 89 92
77 75 74
84 84 87
89 88 90
82 83 84
82 82 83
88 88 91
78 80 84
98 97 98
82 83 85
83 84 85
89 91 92
91 93 96
94 95 97
91 92 95
89 90 92
84 85 86
94 94 96
84 85 85
86 87 91
93 93 96
89 90 93
102 101 103
79 78 80
88 90 92
85 84 85
91 91 93
70 70 72
86 89 90
95 96 100
87 88 91
84 84 86
87 87 89
85 83 88
77 75 76
90 89 91
93 93 95
87 88 89
88 87 90
95 96 98
86 87 88
83 83 88
85 82 85
86 84 90
85 81 81
93 91 94
82 80 80
85 84 84
87 85 87
75 73 75
80 78 79
79 83 87
99 111 114
93 104 109
102 113 123
99 113 116
94 103 113
104 117 128
104 120 130
100 115 125
103 113 125
114 124 141
101 54 72
117 59 80
113 58 79
113 59 83
125 65 91
130 66 91
131 70 96
126 67 94
134 73 102
141 74 104
146 79 109
143 76 106
135 73 103
142 77 108
136 73 104
136 72 101
144 79 112
138 75 109
133 73 104
142 76 110
131 78 106
103 107 120
107 109 126
105 111 126
108 108 125
115 120 138
111 119 136
109 119 135
114 119 135
121 130 147
121 132 150
113 122 140
119 132 151
121 131 151
118 131 153
116 123 140
117 128 149
125 138 159
115 127 144
113 117 141
68 27 86
74 29 90
73 30 91
71 29 88
73 30 92
71 28 89
70 28 88
75 30 91
81 33 101
76 31 97
77 32 100
72 31 94
78 32 100
84 36 110
78 33 102
84 35 108
85 36 111
81 34 108
75 32 101
77 33 102
103 106 130
121 137 158
121 133 154
116 130 147
123 138 157
120 135 152
120 136 154
111 135 106
109 129 103
100 121 96
100 121 100
106 129 101
107 131 104
112 133 121
122 138 155
111 127 144
123 139 160
95 115 152
85 105 152
81 103 161
29 67 149
67 92 157
59 84 150
65 89 147
94 113 150
125 140 161
130 146 170
125 139 157
120 135 153
130 148 168
124 140 159
118 131 149
133 148 169
125 137 156
100 52 57
105 19 7
114 20 8
100 18 7
101 18 7
108 19 7
99 18 7
105 19 7
101 18 7
103 19 7
99 17 7
101 18 7
107 19 7
100 18 7
102 18 7
98 18 7
101 18 7
100 18 7
100 18 7
85 15 6
93 16 6
115 110 126
130 145 166
128 144 166
123 137 158
121 134 153
127 143 164
131 148 167
127 142 161
131 148 171
134 148 170
128 141 160
122 136 158
125 141 161
124 139 159
122 136 165
80 80 178
80 82 184
81 83 189
83 85 190
87 87 193
78 78 178
77 77 180
85 85 191
87 88 202
83 84 196
77 77 175
79 79 176
75 76 174
75 77 176
72 73 170
66 66 153
71 72 164
79 80 182
82 84 181
112 124 145
123 137 159
124 138 158
124 140 162
121 134 155
120 130 147
118 132 161
120 132 160
169 161 206
173 168 214
168 165 214
164 163 214
160 161 214
157 160 214
155 159 214
155 159 214
154 159 214
154 159 214
156 160 214
157 160 214
160 162 214
156 155 203
145 138 172
147 132 155
154 143 178
94 84 173
49 27 173
46 26 168
43 25 162
44 25 160
46 27 170
41 24 153
58 41 124
68 51 39
72 51 37
96 98 108
120 134 152
130 146 168
118 132 149
130 147 168
116 131 150
125 139 159
123 138 157
129 145 166
118 133 150
124 139 158
117 131 151
123 138 160
122 136 155
127 142 162
119 134 151
118 133 151
125 141 160
109 124 145
117 131 149
110 124 145
114 128 146
123 139 158
125 140 161
116 128 147
111 123 141
115 129 148
110 122 141
107 121 139
113 129 148
121 132 151
108 121 137
104 121 140
118 133 151
112 126 147
110 123 141
107 117 135
114 128 145
106 123 143
114 130 149
113 129 148
107 119 139
112 127 143
103 117 134
105 120 137
96 110 125
108 120 139
97 118 132
94 112 127
111 127 144
102 117 132
93 103 115
95 103 113
80 81 81
83 83 84
81 81 84
78 77 80
85 84 86
93 93 94
78 77 81
89 89 90
84 85 87
82 80 83
89 88 90
92 92 93
94 94 97
85 85 89
87 88 92
93 92 95
85 86 88
81 82 84
89 90 92
73 72 73
83 83 82
83 83 86
84 85 85
86 87 88
88 86 90
82 82 82
91 91 93
90 90 93
93 94 97
78 78 78
83 82 83
92 91 92
82 79 79
85 85 86
89 88 90
89 88 88
86 87 89
85 83 84
87 86 87
92 93 95
91 92 94
81 80 81
88 88 91
82 84 85
85 85 86
89 88 90
80 78 79
82 81 83
75 71 70
75 71 72
76 74 77
95 100 106
92 105 107
105 118 130
87 103 109
89 98 103
105 118 130
104 117 128
102 117 125
97 108 115
114 125 140
99 111 120
111 124 140
95 56 71
92 47 64
90 47 67
119 61 85
114 60 83
125 65 90
134 72 100
139 74 103
123 65 92
119 64 88
125 68 94
126 68 95
123 66 94
134 72 102
124 65 92
141 75 106
139 74 106
148 80 113
135 74 105
129 68 98
126 91 115
112 122 137
115 122 139
118 123 140
114 124 140
110 116 132
114 123 142
120 125 143
108 114 132
117 128 146
120 127 146
100 106 135
99 106 139
63 71 123
75 79 129
75 83 131
66 72 120
69 74 125
104 115 143
101 101 130
69 28 89
67 28 86
65 26 81
73 30 92
71 28 87
78 32 99
69 28 86
77 31 94
78 33 98
74 31 96
78 32 101
80 34 104
73 31 94
74 31 95
80 33 104
80 33 104
87 37 114
74 31 96
77 32 99
77 33 101
119 126 151
122 137 157
118 135 152
123 138 158
122 139 157
115 129 146
117 133 150
109 132 104
99 121 93
96 116 85
107 130 99
101 122 98
105 123 117
120 136 148
116 131 149
96 114 156
46 77 148
14 61 148
11 62 151
11 59 143
11 62 152
11 63 154
11 60 146
11 60 145
11 59 146
34 66 144
74 98 154
110 129 156
126 142 161
119 135 154
122 137 158
124 144 162
123 140 158
122 131 151
109 36 37
97 17 6
101 18 7
109 19 7
98 18 7
105 19 7
95 17 7
98 18 7
105 19 7
93 17 6
107 19 7
99 18 7
98 18 7
96 17 7
94 17 6
94 17 7
94 17 6
102 18 7
99 18 7
90 16 6
98 17 7
116 105 118
128 144 164
124 139 161
126 141 165
127 142 164
120 133 157
133 147 168
129 143 166
131 146 167
126 143 164
124 139 160
132 149 170
124 138 161
124 137 161
128 142 163
91 98 168
83 85 189
83 85 193
78 78 171
78 79 175
85 85 189
84 84 189
78 79 180
77 78 182
76 76 180
78 78 178
75 75 173
70 69 165
69 68 163
65 66 158
70 71 163
66 66 151
63 63 146
98 107 159
125 140 162
128 142 164
125 139 161
126 139 161
123 138 159
125 141 164
121 132 157
153 144 190
178 170 214
171 167 214
167 165 214
164 163 214
161 162 214
158 161 214
157 160 214
156 160 214
156 160 214
156 160 214
157 160 214
159 161 214
160 162 214
160 160 209
147 141 176
140 126 149
114 101 121
135 125 161
54 41 158
43 24 162
43 24 156
46 27 171
47 27 171
45 26 166
48 30 137
64 47 36
83 77 82
118 131 151
110 124 144
109 121 139
114 127 142
121 136 154
126 139 158
116 133 154
113 128 145
108 120 137
121 132 147
117 131 148
116 129 146
111 123 142
116 130 148
112 125 140
123 137 157
118 131 150
119 134 154
117 130 147
120 133 152
114 127 145
119 132 150
102 111 129
118 130 147
118 131 149
115 129 146
119 134 152
120 133 153
118 130 149
121 136 156
115 129 146
111 123 137
118 130 147
108 121 137
107 119 135
116 128 145
104 117 133
116 127 145
115 130 147
112 124 142
110 126 140
108 123 141
115 127 144
110 123 141
99 114 131
96 106 119
117 130 146
99 109 127
102 112 125
106 120 135
95 108 124
101 113 128
98 110 125
91 105 117
81 89 96
77 77 79
73 73 73
88 87 89
77 76 79
86 87 89
91 92 92
93 93 95
84 85 87
91 92 94
90 91 92
91 93 95
83 82 83
87 85 86
78 77 79
86 85 87
91 90 91
87 86 86
87 86 88
80 80 82
89 87 88
83 84 85
77 76 79
86 87 89
94 93 96
85 83 84
84 83 86
94 94 97
87 85 87
85 88 90
97 95 98
90 90 92
98 96 100
90 86 87
80 82 82
79 79 84
77 75 79
77 76 77
77 77 78
77 78 77
76 72 74
79 79 80
83 83 81
83 82 85
80 79 78
74 72 72
77 75 74
74 72 72
84 88 94
103 110 118
85 95 101
101 112 119
91 99 109
96 106 115
101 114 124
108 117 133
81 89 96
112 124 140
107 118 130
107 119 134
109 118 129
118 134 150
99 82 94
103 53 73
105 53 74
118 62 87
129 68 94
127 68 97
117 63 87
139 73 101
114 60 85
138 74 103
134 72 101
120 64 92
125 68 99
141 76 107
138 74 105
141 76 108
143 79 112
137 73 105
144 78 111
131 71 103
136 108 132
109 117 133
108 123 135
106 114 132
119 129 149
120 131 148
118 132 150
110 122 138
116 127 145
106 119 150
75 86 132
35 35 110
30 28 113
30 29 118
30 28 115
30 28 116
30 28 116
32 30 122
36 36 119
42 43 121
48 31 101
64 29 98
64 26 79
71 28 86
71 29 88
76 30 95
71 28 88
72 30 92
76 32 100
71 28 87
82 34 105
76 33 100
72 30 95
77 32 98
78 33 103
70 29 90
78 32 99
73 31 95
75 31 96
74 32 96
121 138 159
125 139 160
116 133 151
111 125 141
127 142 162
119 134 154
121 133 151
84 104 80
88 110 85
84 99 81
98 115 103
99 111 113
103 118 124
88 105 136
38 70 142
23 61 142
10 58 142
11 59 144
11 59 145
11 59 143
11 60 147
11 60 147
11 59 144
11 59 145
11 61 149
10 57 140
10 56 139
47 75 141
93 111 150
129 146 167
121 139 159
128 145 164
130 145 166
121 127 147
98 18 7
107 19 7
102 18 7
96 17 7
106 19 7
97 18 7
106 19 7
92 16 6
94 17 6
100 18 7
104 18 7
101 18 7
99 18 7
95 17 6
94 17 6
90 16 6
91 16 6
93 17 6
89 16 6
93 16 6
93 16 6
114 106 121
122 135 155
126 142 161
125 142 165
121 135 155
126 141 160
129 142 163
124 140 161
128 143 165
127 141 164
127 143 166
124 135 157
132 148 169
125 141 164
124 138 159
125 139 163
75 75 162
67 68 156
78 79 177
82 82 185
79 81 181
76 76 177
79 80 179
80 80 183
70 72 164
76 76 179
68 68 160
77 77 175
62 62 151
67 67 154
65 65 152
64 65 149
73 75 151
114 125 152
127 141 163
117 128 149
119 131 150
125 141 162
124 139 158
119 133 154
112 116 150
176 167 209
176 169 214
171 167 214
169 165 214
164 163 214
162 162 214
161 162 214
159 161 214
159 161 214
159 161 214
158 161 214
160 162 214
161 162 214
163 163 214
164 163 212
155 150 190
141 127 150
101 85 105
110 101 126
113 104 166
41 23 151
42 24 155
45 26 162
42 25 158
41 24 151
57 39 97
79 79 84
105 115 129
119 135 156
120 133 152
115 126 144
121 135 154
112 122 139
122 139 158
115 127 144
121 134 154
115 130 149
116 127 145
123 141 162
111 124 145
122 137 159
115 127 146
117 132 150
111 124 141
117 130 148
109 123 141
116 128 146
118 133 151
113 126 145
118 132 152
118 131 148
119 132 150
119 130 148
121 134 150
115 127 143
118 132 148
120 133 152
124 137 156
105 117 131
121 135 154
119 130 149
108 122 140
113 124 140
115 126 145
112 125 141
111 124 137
115 128 144
120 136 153
112 126 142
118 129 148
111 121 136
101 116 132
117 128 141
103 114 131
115 127 143
94 107 125
105 115 128
107 121 139
107 116 130
95 109 124
89 102 112
92 105 116
99 108 121
97 108 122
80 85 90
67 67 68
77 77 78
89 89 92
83 83 84
83 82 85
75 75 76
81 81 83
83 82 82
79 80 82
81 81 83
88 87 89
88 88 90
86 87 88
73 71 71
82 82 83
80 80 81
86 85 87
83 83 86
74 76 75
78 79 79
72 71 73
75 73 77
78 77 80
77 76 77
83 84 85
81 79 81
85 82 83
89 87 89
80 80 79
78 78 81
87 86 88
85 82 84
87 86 88
76 77 79
78 77 79
76 74 75
74 71 71
68 66 66
82 81 82
75 72 73
74 72 74
70 69 66
78 76 77
87 91 97
103 109 119
104 116 128
106 117 130
101 113 119
101 104 118
97 107 118
98 108 120
94 107 114
106 118 127
93 98 108
104 113 125
102 107 121
111 122 134
104 113 127
104 117 127
112 110 127
110 55 75
102 54 73
109 58 80
114 61 87
127 67 95
124 67 92
119 63 89
122 65 90
125 66 94
122 64 92
136 73 105
144 77 108
136 73 103
135 72 102
124 66 95
146 79 111
135 73 104
129 69 100
140 75 108
119 110 128
127 138 157
115 124 143
112 123 139
112 127 143
119 128 146
104 118 130
114 120 140
77 78 121
39 40 108
29 26 110
30 28 114
31 29 118
29 28 114
30 28 114
32 30 121
30 28 112
30 28 113
31 28 118
30 27 111
30 28 116
33 27 113
48 27 99
71 29 90
69 27 84
71 29 92
76 31 97
74 31 95
76 31 95
76 31 97
75 31 98
69 28 89
77 31 96
73 31 94
77 32 100
76 31 97
79 33 101
73 31 95
70 30 89
93 89 119
114 129 147
118 129 149
114 129 152
122 139 160
119 135 155
118 133 154
119 135 152
77 94 89
77 88 86
70 80 75
100 112 114
98 111 117
84 102 127
18 57 139
10 56 138
10 57 139
11 58 143
10 58 143
10 57 141
11 58 143
10 58 142
10 57 141
11 59 145
10 57 140
11 58 141
10 56 141
10 54 135
10 56 137
30 62 135
79 99 141
125 142 163
125 141 158
121 135 152
123 137 156
96 35 32
98 17 7
95 17 7
95 17 6
95 17 6
98 17 7
99 18 7
93 17 6
103 19 7
92 17 6
100 18 7
86 15 6
91 16 6
95 17 6
91 16 6
94 17 6
92 16 6
98 17 7
91 16 6
93 17 6
90 16 6
116 112 129
130 144 163
126 142 163
127 142 164
130 144 165
124 139 163
121 135 159
119 133 158
124 138 161
120 134 156
125 140 163
122 136 156
122 136 158
116 129 150
126 139 160
119 133 155
98 107 161
70 70 159
71 70 156
81 83 183
74 75 173
76 74 166
79 80 179
66 66 153
72 73 171
68 67 159
75 74 171
73 73 167
73 73 171
70 71 170
65 65 157
59 58 138
114 125 159
116 129 154
121 135 159
121 135 161
113 126 145
119 133 159
121 136 159
123 139 161
136 131 175
173 162 202
176 169 214
173 167 214
170 166 214
168 165 214
166 164 214
164 163 214
162 162 214
163 163 214
162 162 214
163 163 214
164 163 214
164 163 214
166 164 214
168 165 214
166 161 205
144 131 155
101 88 104
84 75 93
114 111 146
48 40 147
40 23 149
46 26 164
44 25 161
42 24 151
77 77 139
97 108 121
99 107 122
112 123 138
115 128 148
106 117 133
111 124 143
118 132 151
118 131 151
112 123 140
113 125 143
106 116 130
114 127 145
111 122 141
108 117 133
116 128 145
115 128 150
114 126 142
104 114 131
113 128 146
116 126 143
114 127 143
111 124 141
111 125 146
115 126 143
121 135 156
119 134 152
122 132 148
114 126 144
117 130 148
116 128 146
118 132 151
117 130 148
110 123 138
125 138 156
119 130 151
118 133 153
105 114 128
111 123 142
107 119 134
112 125 141
120 133 146
117 132 150
101 113 129
117 130 148
108 122 137
107 120 139
113 127 141
112 122 138
101 112 126
97 107 121
98 110 124
94 106 121
96 111 124
98 108 120
94 102 112
84 95 109
93 102 114
90 98 108
99 110 117
86 95 105
89 94 100
73 73 73
68 70 73
77 78 81
78 78 78
73 73 76
77 75 76
78 77 79
84 83 87
82 81 83
73 75 75
76 76 76
82 82 84
79 80 79
79 79 80
77 76 81
82 81 82
78 78 77
78 76 76
78 80 81
80 76 78
82 82 82
78 74 75
92 92 93
87 87 89
81 79 81
85 83 87
79 77 77
83 80 82
73 69 70
72 70 71
83 82 83
82 79 80
65 60 63
76 76 76
77 74 75
79 77 79
80 77 77
78 77 78
72 70 72
86 91 97
82 87 95
93 102 109
89 98 108
90 96 105
103 113 124
91 100 108
101 112 122
108 118 130
98 108 118
106 112 124
101 106 119
112 123 137
110 122 137
110 122 138
101 108 122
107 116 129
109 120 135
104 112 127
97 64 82
111 56 77
106 54 77
107 57 75
115 59 82
125 65 91
114 59 85
120 62 87
133 69 99
124 65 91
132 70 99
134 71 100
128 67 95
135 72 102
129 68 98
131 70 101
130 70 101
121 64 92
127 82 110
122 134 153
120 132 152
118 129 148
112 122 138
122 134 153
110 120 136
104 111 139
72 78 124
27 25 104
29 27 113
29 27 111
29 27 112
29 27 112
28 26 108
30 27 112
31 29 118
30 28 115
30 28 118
30 28 115
30 29 117
30 28 117
31 29 118
31 29 119
49 27 103
69 28 87
64 25 79
73 29 89
72 30 90
70 28 90
73 30 93
70 30 91
76 31 98
71 30 91
75 31 96
74 31 95
73 31 93
74 30 95
71 30 91
73 46 94
109 117 134
113 128 148
110 125 139
115 129 145
111 125 144
113 129 147
116 130 148
119 133 152
106 121 127
103 116 121
118 132 145
114 130 143
92 108 133
29 64 138
11 61 147
10 55 135
10 55 135
11 61 148
11 58 141
11 60 148
10 57 140
11 59 145
11 59 145
10 57 140
10 56 136
10 55 136
10 57 141
11 59 144
10 56 138
10 56 137
10 53 129
96 114 153
122 135 152
124 141 157
109 121 137
103 73 81
94 17 6
101 18 7
99 17 7
95 17 6
89 16 6
97 17 6
105 19 7
100 18 7
90 16 6
94 17 6
92 16 6
92 16 6
93 17 6
96 17 6
92 16 6
93 17 6
89 16 6
91 16 6
98 17 7
90 34 36
119 134 154
130 145 166
131 147 172
120 136 160
122 137 163
126 140 162
128 142 166
126 138 161
119 133 160
123 136 160
124 138 159
121 135 159
116 131 155
126 141 162
121 135 161
121 134 157
126 140 161
90 97 148
71 72 152
71 72 166
76 76 170
70 69 161
67 64 156
71 71 166
71 71 165
61 62 153
66 66 158
61 61 148
65 64 153
59 58 144
56 56 133
95 105 146
112 121 142
113 127 150
106 115 145
115 129 156
110 124 150
123 137 161
118 131 152
105 117 148
141 130 169
172 162 198
179 170 214
175 169 214
174 168 214
171 167 214
170 166 214
168 165 214
168 165 214
167 165 214
167 165 214
167 165 214
168 165 214
169 166 214
170 166 214
172 167 214
173 167 211
163 151 186
107 94 111
84 74 85
95 97 124
73 68 139
38 22 141
40 23 145
40 23 150
36 21 134
89 95 119
90 98 111
91 94 103
94 102 115
103 113 129
97 107 119
89 95 110
102 113 130
113 127 146
112 125 143
117 133 154
116 128 146
115 129 147
111 122 141
96 109 123
112 127 147
108 119 135
114 126 146
112 122 139
120 132 150
118 133 152
108 119 135
113 126 144
109 121 138
123 137 157
115 127 143
117 129 145
113 124 141
109 121 138
119 131 147
125 141 161
117 130 151
119 132 150
117 129 145
119 131 149
120 131 147
110 124 142
103 116 131
110 122 137
107 119 135
111 122 138
105 118 134
113 128 145
101 112 125
103 112 125
100 107 121
104 114 129
109 122 137
100 106 119
103 110 124
109 121 135
113 126 143
97 108 119
109 119 133
93 103 116
93 103 115
97 105 117
97 107 117
98 105 122
92 103 116
86 94 105
83 88 99
86 95 104
63 65 66
74 76 78
71 70 72
86 85 85
78 78 82
63 61 64
69 67 70
73 71 71
77 77 80
77 75 76
77 77 80
75 74 77
75 73 73
82 80 83
73 72 72
74 72 77
84 83 85
69 69 72
79 79 80
79 78 79
86 86 87
67 67 70
73 71 72
73 73 73
80 78 78
80 80 79
72 71 72
82 81 83
74 73 73
82 79 80
77 74 74
79 79 80
66 64 64
75 70 71
68 67 68
82 78 81
67 70 74
88 95 106
88 94 100
92 98 107
94 101 113
94 99 109
99 107 117
102 112 121
94 102 109
90 97 105
91 100 108
99 107 119
96 103 113
109 118 134
102 110 121
103 113 125
106 113 123
109 121 136
108 116 132
108 116 128
94 99 108
103 98 114
90 45 64
123 63 87
108 57 81
104 53 73
115 61 85
123 65 90
123 65 90
125 66 94
119 62 88
116 60 86
132 70 99
131 70 100
128 69 98
122 63 91
134 72 101
133 73 102
129 68 97
121 123 142
120 131 150
115 127 143
119 132 150
103 111 128
114 124 142
119 129 150
69 76 121
29 27 112
28 26 109
29 27 111
27 25 104
28 26 106
29 26 109
29 27 109
28 26 108
30 28 114
29 27 111
27 25 106
30 28 117
30 28 116
29 26 110
30 28 119
30 28 115
30 28 116
50 28 103
65 27 88
59 23 72
68 27 85
69 28 86
76 31 94
70 29 90
73 30 91
76 31 97
76 31 99
66 27 87
67 27 84
69 28 88
67 41 86
104 106 131
110 126 143
116 129 152
109 124 141
118 135 151
114 128 147
108 123 139
111 124 141
107 121 135
123 140 156
116 131 142
118 134 151
107 123 145
56 82 149
10 57 138
11 58 142
10 56 137
10 57 142
10 57 141
10 56 137
10 56 138
11 60 145
10 56 138
11 59 144
9 52 127
10 56 139
10 57 140
10 57 142
10 58 141
10 56 137
10 53 131
10 55 135
30 64 139
105 118 146
128 144 165
128 143 166
109 91 103
98 18 7
94 17 6
81 14 5
96 17 6
91 16 6
103 18 7
96 17 6
92 16 6
100 18 7
95 17 6
92 16 6
92 16 6
91 16 6
93 17 6
89 16 6
85 15 6
92 16 6
88 16 6
97 17 6
90 46 51
123 138 158
130 145 165
122 137 162
125 138 165
124 139 162
118 133 156
121 133 151
124 138 160
121 136 155
127 140 162
124 139 164
118 132 156
123 138 162
123 139 162
123 137 161
112 124 150
121 134 158
116 130 154
111 122 166
78 81 165
61 59 138
66 66 159
71 70 159
69 68 155
69 70 158
68 68 158
56 57 135
59 59 141
61 62 148
70 75 137
86 94 128
112 123 145
111 124 149
108 120 142
111 122 151
101 112 139
113 127 153
115 127 155
117 129 154
106 115 148
126 112 145
162 149 185
176 166 209
177 169 212
177 170 214
175 169 214
175 168 214
173 168 214
174 168 214
173 167 214
173 167 214
172 167 214
173 167 214
173 168 214
175 169 214
177 169 214
178 170 214
173 163 202
123 114 140
79 69 83
81 80 103
84 79 128
39 23 149
37 21 136
40 23 147
54 50 106
85 90 100
87 92 105
86 93 106
85 90 99
98 108 121
91 97 111
111 121 138
101 110 128
108 119 134
108 118 134
113 128 148
109 121 139
115 126 141
122 137 156
116 129 148
110 121 140
107 118 135
115 130 149
115 127 151
120 133 154
121 136 154
113 124 144
117 130 150
121 133 151
111 126 144
121 136 154
120 133 151
117 132 151
111 124 142
119 129 148
109 120 136
120 132 151
103 111 126
113 128 148
119 131 148
121 133 150
111 124 144
112 125 142
114 123 139
121 135 155
109 120 136
122 133 150
99 108 123
111 124 141
105 117 134
102 113 130
99 109 124
104 116 133
103 114 127
113 124 141
100 108 124
88 96 107
106 113 126
98 107 121
98 106 117
84 91 102
89 99 112
93 99 109
91 96 106
98 106 118
87 98 109
92 101 113
71 80 90
85 93 102
70 78 86
77 83 90
65 64 66
64 68 71
68 68 68
71 70 69
61 59 62
74 73 74
75 75 77
68 62 72
85 72 103
89 71 122
109 77 157
100 71 148
92 67 131
93 67 135
96 82 123
81 71 100
74 71 80
67 65 66
77 76 77
77 75 73
79 77 77
74 72 72
75 73 74
75 73 73
71 69 70
74 72 73
69 64 67
65 63 62
71 71 74
65 64 68
68 69 73
80 83 89
71 75 81
89 98 106
90 94 103
87 94 100
92 101 112
83 94 102
90 97 104
107 113 125
90 96 106
98 105 116
94 99 112
84 91 99
108 117 132
96 104 114
96 107 121
101 109 123
91 95 103
96 105 115
98 108 120
101 107 122
106 115 131
97 101 116
102 108 122
94 70 83
106 54 75
107 55 78
113 56 80
105 54 77
126 66 92
117 61 85
122 63 88
120 64 89
107 55 80
124 66 93
140 73 104
134 69 98
126 68 98
126 66 94
118 61 88
107 81 100
116 126 144
111 121 140
111 121 135
119 132 148
118 130 147
117 129 147
87 97 124
28 26 107
28 26 108
26 24 100
28 26 108
29 27 113
29 27 112
28 26 105
29 27 111
29 27 112
29 26 110
29 27 114
30 29 119
30 29 118
30 28 115
28 26 108
31 29 119
27 26 108
31 28 117
28 26 108
58 27 97
65 25 79
68 28 86
66 27 83
62 25 79
64 25 77
64 26 80
68 28 86
62 26 82
70 29 90
61 26 78
59 25 76
96 96 124
120 136 155
113 129 148
121 136 157
109 120 138
101 113 130
113 128 148
97 114 128
103 118 133
102 118 135
124 140 155
122 138 152
128 146 169
76 98 146
10 55 134
10 55 135
10 56 139
10 57 141
10 54 132
10 57 139
10 55 136
10 53 132
10 56 137
9 52 130
11 58 143
10 58 142
10 58 141
10 56 139
10 56 138
10 57 140
9 50 124
10 55 136
10 55 134
10 54 134
62 84 145
122 135 157
130 147 170
118 122 140
97 17 6
94 16 6
94 17 6
102 18 7
94 17 6
88 16 6
91 16 6
97 17 6
102 18 7
80 14 5
89 16 6
92 16 6
84 15 6
85 15 6
85 15 6
88 16 6
88 15 6
85 15 6
92 16 6
107 102 119
123 139 159
124 138 162
118 133 157
124 137 157
122 138 158
120 131 154
120 133 158
124 140 166
126 140 162
126 141 164
97 108 136
120 133 156
125 141 164
122 134 162
117 129 152
115 127 156
102 117 143
111 123 149
106 117 149
108 118 144
86 93 133
65 66 123
66 66 147
64 63 145
55 54 130
61 60 139
61 60 136
47 46 107
85 88 126
99 108 134
90 99 126
102 114 141
97 108 138
87 97 124
113 124 149
110 123 147
110 124 150
106 118 142
104 118 140
101 107 144
88 68 89
119 116 142
148 142 183
156 147 189
182 172 214
177 169 212
176 167 210
178 170 214
178 170 214
175 168 212
178 170 214
178 170 214
179 170 214
178 170 213
177 169 212
171 163 206
175 165 206
159 148 188
136 129 160
84 75 98
79 77 96
74 74 110
38 22 141
37 21 136
45 38 129
80 84 106
94 102 118
89 96 110
96 106 123
101 110 129
90 98 116
103 113 133
102 112 130
104 115 133
112 124 140
112 123 143
104 116 134
120 135 155
109 122 138
120 134 154
115 126 146
112 125 142
113 124 142
114 125 145
105 117 137
112 124 141
112 122 144
117 131 150
113 126 144
115 126 142
114 128 145
114 129 147
117 130 150
119 131 150
117 128 146
109 119 136
111 122 139
120 131 147
113 124 141
108 118 135
116 129 147
118 129 148
118 130 150
114 123 141
107 117 132
113 123 139
118 128 144
115 125 140
112 124 141
111 121 138
102 110 122
98 105 118
98 109 124
108 118 132
107 118 135
100 107 121
114 126 141
91 100 113
97 105 122
92 104 117
99 107 119
94 102 115
88 96 108
95 103 116
92 98 108
84 92 101
90 97 109
92 99 109
76 82 87
78 85 95
85 92 99
80 88 98
77 84 89
77 79 88
74 78 88
64 67 73
57 59 69
63 57 79
70 52 100
108 72 165
105 71 156
117 73 183
118 74 185
120 75 188
119 74 184
121 76 190
111 70 177
107 69 166
97 72 135
80 64 105
73 70 78
69 70 70
63 59 60
64 61 61
75 75 75
61 58 58
58 58 57
63 64 65
62 64 65
72 74 79
74 77 83
67 70 76
71 72 77
79 78 85
70 70 73
85 85 94
86 90 100
87 90 100
72 68 75
76 85 88
94 99 108
87 90 99
93 98 109
79 84 92
91 96 103
106 112 124
89 98 106
103 109 120
96 99 111
94 99 111
105 113 127
93 101 111
95 101 114
103 108 120
98 108 118
105 107 119
102 103 116
98 103 114
92 71 84
95 48 66
100 49 71
103 52 74
99 51 71
130 68 95
119 62 88
119 62 89
120 63 89
123 65 92
120 63 89
126 67 97
111 58 82
109 57 80
126 108 131
108 111 127
110 118 133
105 112 128
111 119 137
116 127 145
116 129 147
86 97 115
28 26 104
27 26 106
29 27 111
26 24 95
27 25 104
28 26 105
29 27 110
27 25 105
30 28 116
28 26 108
29 28 113
29 27 110
28 26 107
29 27 110
30 28 117
29 27 114
28 26 108
28 27 109
29 27 114
29 27 113
33 25 100
53 23 79
61 25 76
60 24 76
59 24 75
66 27 82
70 29 88
69 28 87
68 27 85
62 26 80
70 54 93
103 106 132
114 127 149
103 114 132
117 131 151
114 132 148
116 130 150
103 114 128
112 126 148
114 127 144
104 115 131
102 120 134
121 138 158
127 144 164
116 134 156
44 67 128
9 52 130
10 54 133
10 54 134
10 54 135
11 59 144
10 54 133
10 57 141
10 55 135
10 54 133
10 53 130
9 49 123
10 53 133
10 57 138
10 54 132
10 55 136
10 53 130
10 53 132
10 55 136
10 56 137
9 51 126
10 56 136
111 126 151
122 135 155
122 138 158
99 82 93
90 16 6
85 15 6
89 16 6
95 17 6
95 17 6
95 17 6
89 15 6
96 17 6
87 15 6
92 16 6
89 16 6
93 17 6
86 15 6
86 15 6
87 15 6
76 13 5
82 14 5
96 46 51
120 133 153
130 145 167
131 147 171
121 135 159
123 136 159
121 134 157
128 144 169
121 135 160
115 128 153
133 149 172
125 139 164
117 130 155
121 134 158
110 121 146
111 122 144
113 124 152
105 115 146
105 118 146
90 99 129
100 109 138
89 96 127
94 101 124
82 88 114
76 79 105
53 50 79
58 63 99
59 60 91
50 51 81
86 92 117
80 83 113
77 84 109
75 79 117
92 99 127
98 106 134
99 108 134
106 118 140
102 113 142
112 124 146
103 113 139
108 121 149
103 109 142
93 77 106
100 98 124
83 82 120
133 124 165
149 142 179
154 148 185
154 149 188
172 163 204
160 150 189
154 141 184
164 151 190
175 165 206
166 157 196
151 147 179
146 143 180
135 130 168
135 121 164
111 101 138
112 111 138
89 79 101
95 91 114
90 85 137
35 20 128
44 31 141
81 86 127
94 100 115
90 100 115
96 105 129
99 109 124
109 121 137
109 124 147
112 123 139
106 118 141
106 116 134
107 116 131
116 132 152
106 118 139
112 124 140
100 111 131
113 124 146
110 121 139
106 117 134
115 129 148
113 126 145
112 123 144
112 124 143
112 126 144
119 134 155
115 129 151
116 129 146
122 135 155
124 138 156
117 128 147
106 118 137
123 134 152
114 127 148
119 131 151
110 121 137
110 118 136
113 125 145
118 130 149
120 133 153
106 119 136
118 131 151
111 122 136
98 105 121
107 118 133
101 112 129
109 121 136
113 126 142
108 120 136
107 118 133
116 127 139
100 110 119
106 115 128
107 117 131
110 120 137
96 107 120
101 110 122
106 115 127
90 97 109
97 104 118
90 96 105
109 118 131
106 114 126
94 103 113
75 78 86
90 96 103
100 109 123
84 88 102
82 87 97
82 87 97
90 98 109
75 80 90
83 89 99
74 78 89
77 72 103
89 69 131
114 72 179
110 69 172
120 75 190
117 73 185
120 76 191
118 74 187
112 70 176
114 73 179
116 73 182
113 72 180
117 72 181
115 71 178
93 63 140
80 65 104
59 59 59
48 44 47
43 45 48
69 70 76
67 69 79
65 66 70
64 68 73
82 85 92
70 74 78
85 88 95
85 90 98
79 83 90
86 86 93
83 90 97
82 85 91
94 92 102
84 90 98
89 93 106
85 89 95
94 101 113
91 97 104
91 96 107
103 112 126
99 106 116
88 94 105
87 93 102
89 91 99
101 110 121
109 118 131
91 96 108
87 90 102
100 106 119
97 107 117
93 92 100
94 94 107
106 113 124
105 113 125
101 87 102
98 57 74
118 60 86
103 51 71
99 50 71
106 55 78
104 55 79
106 55 80
111 58 81
119 62 89
115 60 86
120 65 92
111 101 118
110 114 132
110 116 134
104 109 124
112 122 141
113 123 140
106 115 131
115 125 144
79 84 120
28 26 106
27 26 107
26 25 105
27 25 104
29 27 112
29 27 111
27 26 108
29 28 114
28 26 108
29 27 112
28 26 109
29 28 114
30 28 116
27 26 108
27 25 104
29 27 113
27 25 105
29 27 110
30 28 115
27 25 104
28 26 108
37 23 88
66 33 81
57 23 71
52 21 63
61 25 78
58 24 76
60 25 77
66 43 84
79 76 97
86 97 113
104 114 133
101 113 128
100 114 129
99 115 128
105 121 134
91 106 120
108 119 138
115 131 149
111 125 141
97 112 128
97 113 126
125 141 162
132 149 170
91 108 147
10 54 131
10 53 132
9 50 124
9 52 129
9 52 128
9 52 128
9 50 125
10 57 138
10 54 133
10 55 137
9 52 128
10 55 135
10 55 135
9 52 127
10 56 136
10 55 136
10 55 135
9 52 129
10 53 131
10 54 133
9 52 128
9 48 122
83 99 138
122 136 157
129 145 168
121 133 151
84 31 30
85 15 6
87 15 6
91 16 6
87 16 6
83 15 6
91 16 6
84 15 6
83 15 6
92 16 6
86 15 6
95 17 6
85 15 6
78 14 5
78 14 5
81 14 5
83 30 32
110 116 131
121 135 159
127 142 165
122 135 159
118 130 153
123 136 162
117 129 152
112 123 144
116 127 152
117 130 153
118 131 156
114 126 152
115 128 150
105 117 143
109 120 148
115 126 153
104 115 148
109 120 148
107 117 144
104 116 143
92 100 132
100 110 136
82 88 113
93 102 134
83 89 113
88 95 126
96 105 135
77 82 107
95 104 132
85 92 121
96 105 134
100 110 138
100 111 143
100 108 129
104 114 139
85 95 124
99 105 128
108 120 144
103 113 143
105 117 142
117 127 155
94 97 127
101 95 123
105 103 133
83 84 119
88 85 123
112 107 137
86 90 118
104 102 139
107 105 139
121 111 148
95 75 125
127 116 153
152 142 178
114 112 143
76 83 102
94 103 129
95 90 126
100 91 128
104 97 131
102 100 132
96 90 118
94 92 117
77 71 123
37 29 118
83 91 135
98 107 134
106 114 132
105 115 137
94 103 122
107 120 142
107 119 142
101 110 130
112 121 141
102 112 133
118 128 149
112 124 147
109 121 149
110 121 141
110 122 137
112 124 141
115 127 146
125 137 159
98 109 130
115 129 148
105 116 135
113 126 147
113 126 146
113 125 148
116 131 151
107 119 139
118 131 147
109 122 142
119 133 154
119 132 149
115 126 146
118 129 147
110 123 142
114 124 142
100 111 126
105 117 134
114 125 140
121 132 149
108 118 133
110 121 136
107 118 133
120 134 150
107 116 132
122 138 157
127 150 167
126 146 161
122 145 164
138 162 180
128 149 165
126 150 165
115 134 143
111 126 136
96 106 116
104 114 131
103 112 125
107 116 130
101 110 124
103 110 129
109 119 135
96 105 118
102 113 127
90 97 108
91 96 104
90 99 110
95 103 114
94 98 108
94 99 110
77 81 90
83 87 97
91 95 105
80 83 92
76 80 87
93 88 123
109 74 166
112 69 175
110 69 174
115 73 184
113 71 180
108 69 169
109 68 171
114 72 183
113 71 179
119 75 188
113 72 180
116 72 183
115 73 182
110 70 174
114 72 180
99 70 149
80 69 112
57 56 61
52 54 60
65 66 78
57 58 64
65 67 73
75 77 84
83 85 91
83 87 96
87 92 101
74 76 81
82 82 92
85 87 94
91 98 107
91 95 106
81 87 92
87 91 103
82 88 94
91 95 107
86 92 100
99 107 117
91 98 107
91 98 107
93 98 111
94 96 106
101 107 118
98 101 112
81 82 86
104 112 123
91 89 99
90 89 99
90 94 104
96 96 108
99 102 111
81 83 92
88 86 97
95 97 106
83 84 94
94 91 102
89 60 77
97 58 76
90 46 64
109 57 79
115 60 84
96 48 70
86 45 64
96 54 74
105 87 104
103 108 124
103 105 121
103 106 123
105 110 122
107 116 134
104 110 129
116 122 140
117 125 145
117 131 150
53 55 104
26 25 102
25 24 99
26 25 100
28 27 112
28 26 110
28 26 107
29 27 112
28 26 110
28 26 109
29 27 110
29 27 113
27 25 104
27 25 104
28 26 107
29 27 110
27 25 104
29 27 112
28 27 111
26 24 100
29 26 110
26 24 102
45 45 101
72 77 94
58 49 68
55 47 65
52 44 60
66 66 77
72 75 90
93 103 120
88 98 113
84 91 107
105 118 135
100 109 129
99 111 129
108 121 137
102 114 133
113 127 146
106 116 134
110 122 141
109 127 141
117 133 151
111 123 142
128 147 170
118 133 153
55 79 138
9 52 129
10 54 134
10 53 130
9 49 122
9 50 122
10 55 136
10 53 130
10 55 134
9 50 124
10 58 141
10 57 139
9 52 129
10 54 133
9 52 129
10 53 131
9 52 129
9 52 129
9 51 126
10 55 137
8 46 117
9 52 127
9 51 126
58 76 132
120 135 155
122 135 155
125 138 158
119 118 136
83 26 26
86 15 6
84 14 5
79 14 5
85 15 5
84 15 6
78 14 5
85 15 6
87 15 6
80 14 5
87 15 6
93 16 6
85 15 5
73 12 5
77 13 6
119 127 145
112 127 150
121 135 158
122 137 159
115 127 151
114 125 148
113 127 149
118 130 150
116 132 156
121 136 160
115 126 148
119 133 157
123 137 167
113 124 149
114 129 155
118 132 158
112 123 155
109 122 148
108 120 146
115 128 154
116 128 155
107 119 149
110 121 143
100 109 146
108 117 145
96 102 130
101 113 147
101 111 139
104 113 137
101 110 140
96 104 139
101 111 132
116 131 159
105 116 141
113 126 155
115 129 152
107 119 150
106 119 143
106 118 143
109 122 144
107 118 145
107 119 145
110 117 145
96 92 124
103 100 130
108 105 137
98 96 128
100 97 129
104 103 134
102 101 133
96 92 122
108 104 139
90 84 117
101 95 127
107 102 133
104 101 132
100 97 126
100 99 129
102 99 129
101 97 132
106 103 133
103 101 129
98 94 122
102 99 130
78 80 112
80 82 119
92 103 130
97 107 125
98 108 130
101 109 126
99 110 136
109 118 138
104 115 134
106 118 142
101 110 128
92 99 116
113 125 149
116 130 150
109 121 142
111 124 144
110 123 143
121 133 155
120 130 149
119 133 156
108 118 138
118 131 154
115 127 147
119 131 149
113 126 149
104 115 136
115 127 145
114 125 143
112 123 140
113 126 146
116 128 149
109 119 139
111 121 138
116 127 144
121 133 152
116 126 142
121 135 156
109 121 138
119 131 150
111 124 142
117 130 147
115 129 146
120 134 152
120 138 156
135 159 179
137 162 181
143 175 198
148 185 212
152 189 215
149 185 211
147 181 207
146 183 210
140 171 192
131 157 175
117 138 149
106 123 133
95 103 112
106 117 132
102 111 122
105 113 128
97 106 121
105 114 128
91 98 111
110 119 132
95 105 118
97 103 115
108 116 132
98 104 116
96 103 114
95 103 113
95 102 111
90 96 110
86 89 98
95 90 132
100 64 158
116 72 183
105 66 168
112 70 179
110 70 177
106 68 170
111 71 178
114 73 184
114 72 182
117 74 185
117 74 186
111 71 176
109 69 173
110 70 175
116 72 181
110 69 172
109 69 172
93 67 140
86 74 113
84 86 95
86 89 101
81 83 90
81 87 95
80 84 94
75 80 85
71 74 81
83 85 92
69 73 77
96 99 106
76 79 88
93 96 107
97 101 112
94 98 108
84 89 95
103 107 120
90 93 101
97 100 112
104 111 123
100 104 117
74 77 85
95 102 114
93 100 108
95 95 105
88 94 105
97 101 113
91 99 111
98 100 111
97 101 111
100 105 115
89 91 100
87 90 101
71 67 77
71 65 76
77 76 87
79 69 81
78 76 86
78 72 78
74 67 76
61 38 50
77 63 78
59 49 59
86 74 86
83 77 90
92 94 107
93 92 103
107 107 120
98 95 113
108 113 130
109 115 131
107 114 131
112 119 136
112 120 137
116 126 144
108 113 135
45 49 105
27 25 104
26 24 100
26 25 102
28 26 106
28 26 108
26 24 102
27 25 104
27 26 105
28 27 110
27 25 104
26 24 99
25 22 94
27 26 105
28 26 108
26 24 100
27 25 106
27 25 105
28 26 107
28 26 107
25 23 97
27 25 104
29 25 104
79 84 103
76 81 106
79 76 91
81 86 104
77 80 94
78 80 93
92 96 112
84 88 105
91 98 114
98 107 125
100 109 127
105 118 137
120 132 153
112 127 143
105 119 135
101 114 129
104 117 135
109 126 142
115 131 151
119 131 151
123 138 157
117 135 158
47 68 129
9 52 128
9 51 126
10 55 135
10 53 130
10 54 132
10 52 129
10 54 134
10 56 139
9 49 122
10 53 130
10 56 139
9 51 125
9 51 127
10 53 131
9 51 125
10 53 130
10 54 132
9 52 130
9 51 125
9 52 129
9 49 124
9 50 124
46 69 128
108 121 146
130 144 167
114 128 148
110 121 141
110 119 134
88 47 57
80 14 5
76 13 5
86 15 6
82 14 5
80 14 5
89 16 6
82 14 5
80 14 5
74 13 5
77 13 5
64 11 4
79 51 54
105 110 127
113 123 142
113 123 144
114 123 142
124 137 157
127 140 159
120 132 153
115 125 148
117 129 153
114 125 152
112 121 143
118 131 156
111 123 148
106 113 135
119 132 159
119 131 156
121 133 155
111 122 144
121 134 161
120 132 157
119 132 158
114 127 155
106 116 144
120 130 151
121 136 157
103 113 148
114 126 147
119 133 157
112 124 152
113 125 151
110 120 148
115 128 153
109 124 151
105 116 140
115 126 150
110 123 151
122 135 160
109 123 153
110 122 150
104 115 142
110 125 151
103 114 142
108 119 143
104 116 144
94 95 125
97 93 126
112 109 140
108 105 137
109 106 138
106 103 134
106 104 137
102 99 129
107 104 135
99 97 127
106 103 134
99 97 127
106 103 132
102 100 130
102 100 132
102 97 126
101 99 128
103 101 133
102 100 132
97 94 120
89 87 114
86 88 108
93 101 119
81 89 112
95 105 133
79 83 105
87 95 121
103 115 140
80 92 116
104 113 136
103 114 138
103 113 134
105 119 142
107 120 144
114 129 152
108 119 140
113 125 145
116 129 149
114 128 149
107 120 143
107 119 136
110 123 147
119 132 152
111 122 143
113 124 145
102 112 129
123 138 158
116 130 152
109 119 139
113 125 146
115 125 143
119 131 149
114 129 151
115 127 146
118 133 153
116 129 148
112 123 143
119 132 149
118 131 149
107 119 135
121 133 149
121 134 154
106 116 132
120 137 151
138 165 184
155 190 213
154 191 219
150 188 217
151 191 222
148 189 221
148 188 221
146 186 218
147 188 221
148 188 219
146 183 211
144 178 205
133 159 176
122 143 155
91 102 109
89 95 109
102 113 127
107 116 135
105 114 128
103 111 121
95 102 114
103 112 127
95 102 111
108 119 134
101 108 123
101 108 118
100 110 123
88 96 105
94 100 115
109 108 138
105 72 162
108 68 174
110 70 177
113 71 180
108 68 173
112 71 177
109 70 175
108 68 173
114 72 180
112 71 176
108 69 173
106 69 170
111 70 175
114 73 184
109 69 173
112 72 177
110 70 173
103 67 166
107 68 170
99 74 147
92 95 114
97 105 116
82 86 96
94 100 112
89 93 108
83 89 98
76 80 88
92 97 105
91 93 103
87 90 100
104 111 125
97 103 113
88 96 103
104 110 124
103 111 122
100 108 122
96 103 115
101 106 121
89 95 107
101 104 116
94 102 116
107 116 134
111 119 133
102 108 119
98 101 112
106 107 121
97 104 113
94 98 108
99 100 113
93 97 109
88 95 104
93 90 102
101 106 115
93 95 107
91 92 102
87 87 95
92 94 107
90 87 97
96 92 104
76 71 83
89 92 106
95 91 106
95 91 107
98 99 115
103 98 114
109 111 128
94 95 111
109 111 130
106 104 122
101 104 117
116 124 145
119 128 148
122 133 151
112 117 139
100 109 132
24 22 90
27 25 104
26 25 102
28 26 106
26 25 101
28 27 111
26 25 104
29 27 114
26 24 100
28 26 109
27 25 105
26 23 100
28 26 107
25 23 98
26 24 101
27 25 106
26 24 100
26 25 103
29 27 110
28 26 108
27 25 103
28 26 105
26 24 102
85 92 120
101 111 129
94 99 117
102 110 127
92 99 116
92 102 121
110 121 145
92 99 116
94 104 122
104 112 130
102 111 132
101 113 132
100 107 126
110 120 138
113 124 143
107 118 135
112 122 147
121 135 157
117 119 148
111 110 142
125 141 163
120 134 156
51 77 140
9 48 121
9 50 125
9 52 128
9 48 119
9 52 127
9 52 128
9 51 126
9 49 122
9 51 126
10 57 139
9 51 126
9 52 128
9 51 125
9 50 123
10 52 129
10 53 131
8 47 115
10 54 132
9 49 124
9 52 127
9 50 124
9 50 124
8 47 116
108 121 144
105 117 137
117 129 147
119 130 150
111 120 136
105 109 127
80 59 66
74 30 42
78 14 5
79 13 5
72 12 5
69 12 5
79 13 5
63 11 4
72 13 5
78 36 41
82 74 85
95 100 115
94 98 121
101 109 126
107 117 132
106 114 131
109 117 134
109 115 135
108 116 135
119 134 156
113 124 144
104 114 137
113 120 140
114 128 154
110 119 145
106 118 146
122 134 158
109 120 151
118 132 150
120 134 159
110 119 140
117 128 152
117 132 157
110 121 148
120 135 162
110 120 144
117 129 150
114 127 150
114 128 148
116 130 158
112 128 153
108 121 150
108 122 148
117 131 157
117 128 155
114 126 152
115 128 157
116 130 161
113 124 149
115 133 156
107 120 146
119 131 157
115 128 147
113 126 156
101 113 144
121 135 158
102 106 133
108 104 139
101 97 131
102 100 132
104 101 132
106 103 136
108 105 139
105 105 138
101 100 131
107 104 137
101 100 128
107 106 137
108 103 134
102 101 130
104 102 134
110 107 140
97 96 127
102 98 129
104 101 134
96 92 119
91 91 121
79 86 106
75 80 106
93 101 124
82 90 113
93 103 125
101 110 138
108 118 140
89 97 123
104 115 138
106 117 137
106 119 141
106 119 143
109 119 141
115 126 150
115 129 154
106 119 143
97 106 126
103 112 131
108 121 140
112 123 148
111 123 145
108 120 145
114 127 146
128 143 165
114 124 143
120 133 152
120 133 154
126 141 161
117 131 151
108 117 137
109 121 138
115 129 150
114 125 145
111 122 144
118 131 148
120 133 153
116 127 146
112 123 142
120 132 153
114 125 146
118 131 150
124 142 161
151 180 201
157 193 219
155 193 222
151 191 222
149 189 222
147 188 222
145 187 222
144 187 222
144 187 222
145 187 222
146 188 222
146 187 219
147 187 218
145 179 204
138 168 190
126 148 160
105 118 127
99 108 124
109 118 132
104 111 123
106 115 131
117 129 144
105 113 129
110 120 136
99 107 120
113 123 138
105 113 127
105 114 129
98 106 120
98 105 119
105 93 150
107 68 174
111 70 175
101 64 164
109 69 175
112 71 178
109 69 175
107 69 173
110 70 178
112 71 182
108 68 171
108 69 169
106 69 172
115 71 177
108 68 171
111 70 175
110 70 176
108 69 173
106 68 171
104 67 170
108 70 172
105 86 149
97 103 118
97 105 119
101 105 117
100 106 118
99 108 117
94 104 115
95 103 116
80 86 95
89 94 102
103 111 125
106 113 127
99 108 118
97 101 113
95 102 115
99 104 114
98 102 114
93 100 115
100 107 119
101 105 118
108 115 132
96 103 114
101 107 122
92 101 111
97 103 113
97 103 116
100 103 117
97 106 118
103 106 119
100 100 114
104 111 124
104 111 125
107 116 133
100 99 113
103 106 121
105 111 126
104 108 124
93 95 109
91 97 108
93 95 109
98 106 119
103 110 125
98 100 117
102 106 123
106 109 125
110 115 131
106 113 128
108 106 122
114 117 135
114 118 137
120 130 147
112 121 139
106 112 130
109 116 134
95 105 131
32 32 102
24 22 90
28 26 105
26 25 102
24 22 93
28 26 106
26 25 103
26 24 100
26 24 100
27 25 103
27 25 105
25 24 100
27 25 104
26 24 100
27 25 103
27 25 104
28 26 108
26 23 100
27 24 101
26 24 101
27 25 105
27 25 106
28 26 107
79 81 119
112 118 138
103 112 131
102 109 129
108 119 138
105 111 130
110 122 141
102 111 132
108 121 141
102 112 127
94 98 120
97 105 129
122 137 158
109 121 139
124 138 160
116 117 143
111 88 134
108 72 123
116 63 128
111 37 121
135 152 173
122 137 158
41 65 128
10 53 131
9 48 119
9 50 124
9 49 120
9 50 124
9 51 126
10 54 134
9 52 127
10 52 130
9 52 127
10 53 132
9 52 128
9 49 123
9 50 124
8 47 117
8 47 114
9 51 127
9 48 117
9 48 120
9 50 125
9 47 117
9 51 127
25 49 111
100 114 138
124 132 151
113 128 148
106 113 127
106 110 127
106 112 130
106 113 131
105 108 123
87 83 95
70 56 61
60 25 26
61 33 40
73 53 59
72 64 69
65 50 59
80 82 95
95 99 115
87 94 107
88 92 113
99 107 126
98 106 125
92 101 117
100 106 128
108 116 137
104 112 131
96 103 123
115 127 151
118 131 153
119 132 152
113 123 147
114 122 143
112 120 145
107 118 141
115 128 152
116 130 155
119 130 152
116 129 152
115 128 149
121 135 160
117 132 153
115 129 156
127 142 168
120 134 161
122 138 161
117 131 154
107 118 145
122 137 161
116 127 154
114 124 150
117 131 156
118 132 158
117 129 153
116 126 157
116 123 157
109 111 150
114 121 152
110 112 149
117 120 158
111 116 152
98 104 135
111 123 152
115 129 154
109 120 147
98 96 127
102 99 129
104 102 134
110 108 142
104 100 132
103 101 132
103 101 134
101 99 132
103 101 132
97 95 125
103 100 128
106 101 132
103 100 130
98 96 126
102 99 131
105 101 133
102 100 132
99 97 128
84 81 114
94 97 121
76 79 110
90 98 119
96 105 131
95 105 131
103 114 135
105 117 141
103 113 134
110 123 146
116 129 149
114 127 153
113 125 146
107 120 139
104 117 141
116 128 148
119 130 154
122 135 156
110 120 139
119 133 153
116 130 152
116 128 145
120 133 153
121 135 155
113 125 144
114 128 147
125 139 160
122 135 153
118 131 155
123 136 156
119 131 153
123 136 156
119 131 149
111 124 147
116 129 149
115 127 146
123 136 155
118 130 149
124 137 156
119 131 149
123 135 154
117 129 148
127 147 169
141 169 194
159 193 219
158 195 222
153 192 222
151 190 222
147 188 222
145 187 222
144 187 222
143 186 222
143 186 222
144 186 222
145 187 222
146 188 222
148 189 222
150 190 222
151 188 216
145 176 197
125 147 162
109 122 131
102 113 129
117 128 143
106 116 131
113 124 139
115 124 141
109 117 131
97 105 118
107 116 131
105 115 127
109 117 131
106 115 130
107 105 140
105 72 164
102 64 164
106 66 164
113 71 180
109 69 176
113 71 178
109 69 176
104 67 170
103 65 165
108 69 174
117 74 185
111 70 179
108 69 171
107 69 173
110 69 172
98 63 156
100 66 161
111 70 175
90 59 145
109 69 171
94 63 155
101 72 158
100 95 133
107 114 127
107 116 129
95 103 114
101 109 122
103 112 122
104 117 126
99 122 125
92 118 116
76 128 107
77 129 107
75 138 109
84 134 115
86 125 113
88 119 115
106 125 132
99 112 122
106 115 130
104 107 123
108 117 131
102 107 120
104 110 127
112 125 138
110 118 135
111 121 139
101 105 120
114 120 135
100 108 122
103 113 128
110 117 136
109 118 135
104 110 124
119 129 148
115 123 139
96 105 121
106 113 127
102 108 121
103 111 129
101 109 125
114 122 139
111 119 135
113 120 137
110 117 135
124 133 154
114 123 142
112 117 136
115 123 139
109 117 136
109 116 135
113 116 137
118 126 146
115 120 140
114 121 140
96 103 127
26 24 101
24 23 95
25 23 97
25 23 96
26 24 97
28 26 108
28 26 108
27 25 104
26 24 99
24 23 95
26 24 98
25 23 97
25 24 98
27 25 102
26 24 100
26 25 102
25 23 98
27 24 100
26 24 102
25 23 97
28 26 108
26 25 103
25 23 95
82 93 126
111 124 140
118 130 150
117 132 148
104 112 133
114 126 145
108 119 138
112 126 146
108 122 140
100 114 131
109 122 140
109 122 141
105 118 138
117 116 146
111 85 129
113 47 121
108 38 116
112 20 119
112 20 119
115 20 120
130 146 168
126 141 164
45 67 123
9 47 117
9 50 123
9 51 127
9 51 125
9 50 124
10 53 129
9 50 125
9 51 126
9 50 124
9 50 123
9 48 119
8 45 112
10 53 133
9 52 127
9 50 123
9 51 125
10 53 130
9 49 121
9 48 122
9 48 118
10 53 130
9 47 116
44 65 118
110 120 138
120 133 150
104 112 131
114 122 140
108 115 132
107 112 127
96 101 115
95 102 112
93 95 106
67 66 76
57 51 66
61 61 74
72 73 83
73 72 85
84 85 97
73 72 89
98 103 118
90 93 111
97 100 116
101 109 125
105 114 132
105 112 138
113 122 143
113 123 142
119 127 147
113 125 148
116 129 150
125 140 162
112 125 150
111 122 144
122 133 154
116 130 157
117 131 154
112 124 149
126 140 162
121 135 159
121 134 155
122 136 161
119 132 156
127 142 165
123 134 155
114 124 150
114 126 152
124 137 158
110 121 145
119 134 157
127 142 165
116 128 154
110 126 149
114 128 155
112 124 151
115 118 150
106 93 147
92 60 136
98 64 143
93 63 138
93 60 136
97 67 141
94 73 137
100 77 143
107 105 153
102 97 137
105 109 140
109 113 141
96 94 127
103 100 130
96 91 123
100 97 129
103 100 131
102 99 131
105 101 130
108 104 135
99 95 127
100 96 125
104 101 132
106 101 132
99 93 121
95 92 122
104 100 129
95 91 120
92 87 119
101 106 132
94 101 132
97 106 131
95 104 126
104 113 133
105 117 139
109 120 142
111 123 145
110 123 151
102 112 134
110 121 139
109 120 144
115 128 152
115 127 147
109 120 143
113 124 148
106 116 138
114 126 148
119 132 155
119 131 152
116 128 150
117 129 148
113 125 145
111 124 145
112 123 142
126 140 160
121 135 157
115 125 143
115 126 146
125 139 160
119 133 155
102 111 131
114 125 146
125 138 158
123 136 154
122 135 154
123 136 155
122 135 158
118 131 153
117 130 151
116 127 145
103 115 133
143 168 188
155 187 209
157 194 222
155 193 222
151 191 222
149 189 222
147 188 222
146 188 222
145 187 222
144 187 222
143 186 222
144 186 222
145 187 222
146 188 222
148 189 222
150 190 222
153 192 222
155 192 218
150 181 203
122 143 163
89 96 101
103 112 126
117 129 146
121 133 151
113 123 137
106 114 127
112 121 140
109 118 133
110 122 135
109 116 131
103 112 128
97 86 134
101 64 162
99 62 157
101 64 164
104 66 169
113 72 181
106 67 171
99 64 161
108 69 174
108 68 170
97 63 158
111 71 178
99 64 157
105 68 169
107 68 172
107 70 172
109 70 174
109 69 175
111 69 172
102 66 163
109 70 176
96 62 157
106 67 167
108 97 147
109 119 137
99 107 119
95 102 112
106 120 129
97 112 115
76 128 109
59 141 104
59 152 104
32 155 92
31 161 94
35 157 94
29 153 90
55 152 101
41 154 96
57 140 97
90 130 121
89 119 115
101 121 124
113 125 138
107 115 130
110 119 135
117 128 145
108 112 129
116 126 143
107 115 129
108 115 132
106 118 131
103 109 125
104 113 125
113 122 139
113 123 138
114 123 138
111 120 138
110 121 138
111 119 136
115 126 141
103 107 123
114 122 139
110 118 138
111 119 134
106 111 130
111 118 137
112 119 133
116 124 143
118 129 147
118 129 149
114 124 144
112 122 142
108 116 136
118 125 147
118 125 144
115 119 138
91 96 123
30 30 87
24 22 92
25 23 98
25 23 97
26 24 98
24 23 96
24 22 91
26 24 102
25 23 96
25 24 97
24 22 95
24 22 93
27 26 106
24 22 93
26 24 97
25 23 100
26 24 99
24 23 94
27 25 105
27 25 104
26 24 98
25 23 97
29 30 93
95 105 133
115 127 146
116 129 149
119 133 154
115 127 146
109 120 139
119 135 156
122 136 155
109 117 135
113 127 145
114 128 146
119 129 153
110 106 135
107 56 118
104 19 110
106 19 114
107 19 113
104 18 110
113 20 120
109 19 115
123 140 161
126 140 159
80 98 142
8 46 114
9 48 120
9 49 121
9 50 123
9 51 125
8 44 110
8 44 108
9 47 118
9 51 126
8 47 116
9 52 126
9 51 125
8 46 114
9 50 122
9 48 118
9 50 122
8 47 115
9 48 119
9 51 125
9 51 124
8 46 114
8 47 116
73 84 124
112 121 140
100 107 122
113 125 143
114 121 140
104 108 127
103 110 129
111 120 134
108 112 129
91 94 108
106 114 132
104 110 127
80 79 93
100 104 118
101 108 125
97 101 118
96 103 123
106 116 138
109 116 138
114 126 144
111 120 140
111 122 143
106 116 136
115 126 143
114 125 147
116 125 144
110 123 141
125 138 162
112 125 147
124 136 155
115 124 146
119 132 154
120 133 159
120 133 156
124 137 161
119 133 157
118 130 153
116 129 153
120 134 156
125 138 160
129 144 168
128 142 163
120 135 162
119 134 157
124 139 163
123 138 161
120 132 159
121 136 159
121 138 161
113 122 149
106 103 147
97 81 142
96 67 141
89 47 134
88 46 133
89 47 133
93 48 137
88 46 130
90 47 135
90 47 135
88 47 133
90 53 132
88 62 129
99 93 137
113 119 149
88 84 119
98 94 125
90 85 118
105 104 132
101 98 127
102 97 129
98 94 124
94 89 121
95 92 121
102 97 127
95 91 120
103 99 127
100 96 125
96 92 116
98 95 125
92 88 115
93 95 123
95 105 133
108 117 137
97 108 129
118 131 154
99 107 135
102 111 132
105 115 140
112 124 146
108 121 143
112 125 147
124 138 159
116 129 152
103 113 141
117 131 152
124 137 159
128 141 160
112 124 144
111 123 141
115 132 153
112 126 148
111 122 144
109 120 140
118 128 148
105 115 136
119 132 152
116 128 148
114 126 146
121 133 155
117 128 150
118 129 147
118 130 150
116 130 149
120 134 154
127 141 162
121 133 155
115 128 148
118 131 152
116 128 149
124 136 156
116 129 149
117 130 149
124 143 167
147 176 201
161 196 221
159 195 222
155 193 222
153 192 222
150 190 222
149 189 222
147 188 222
146 188 222
145 187 222
145 187 222
146 188 222
147 188 222
147 188 222
149 190 222
150 190 222
154 192 222
157 194 222
157 192 218
150 178 206
111 124 152
98 105 127
110 122 137
114 121 137
114 122 139
117 128 143
109 119 135
104 113 127
107 118 133
114 125 143
111 116 138
99 76 146
98 62 158
106 67 172
105 67 171
110 70 176
97 62 156
100 65 163
103 65 164
106 68 171
106 67 170
101 65 161
100 65 162
107 69 171
95 64 155
104 67 167
107 68 171
97 63 153
101 66 162
99 65 156
98 63 157
102 64 161
102 66 162
100 64 160
103 80 149
111 117 140
98 107 120
93 105 116
83 128 114
60 140 100
44 147 94
28 145 86
28 152 90
30 156 92
29 154 90
29 154 90
31 164 97
29 155 91
31 163 96
30 161 95
39 157 96
57 148 103
83 132 117
97 121 124
104 111 125
109 118 133
109 119 135
111 117 134
121 129 147
106 111 127
114 124 141
112 122 136
113 122 143
114 125 142
114 126 146
108 118 133
103 115 135
110 123 140
112 124 142
119 130 147
112 123 141
110 122 141
115 127 146
123 136 156
112 123 139
120 129 149
113 125 145
117 127 143
122 133 150
127 138 158
112 121 138
115 126 143
106 115 135
112 120 137
125 135 155
114 122 141
113 122 143
112 123 146
50 50 93
23 22 88
24 22 94
23 22 91
23 22 91
25 24 97
25 23 98
26 24 98
26 24 99
25 24 98
25 23 97
24 22 93
25 24 98
25 23 94
26 23 98
26 24 100
25 23 98
23 21 88
23 21 91
23 21 91
27 25 103
25 24 98
41 44 102
109 118 139
120 136 158
119 136 157
117 130 151
122 134 156
118 126 143
127 144 163
125 139 161
120 136 156
109 120 139
116 125 146
109 104 136
107 59 121
103 18 108
108 19 113
105 18 109
106 19 112
107 19 114
110 19 114
107 19 113
124 138 158
126 141 162
102 119 150
9 48 119
9 53 129
8 46 114
9 48 117
8 42 105
8 47 114
9 48 120
8 45 113
9 49 121
8 47 116
9 50 122
8 44 111
8 45 112
9 49 122
8 45 111
8 46 115
8 47 117
9 49 121
9 49 121
9 51 124
8 46 114
20 51 115
102 112 137
121 132 151
121 135 155
117 129 148
108 119 138
112 119 139
110 119 138
113 123 141
110 120 137
110 118 137
97 105 122
109 118 138
106 114 132
114 128 147
109 117 136
112 121 141
117 132 154
113 123 143
112 121 140
111 121 143
119 131 152
114 124 145
118 132 154
123 137 158
123 134 153
118 129 149
112 124 148
115 127 145
120 133 155
122 136 160
116 127 150
122 135 156
118 131 153
126 138 160
123 137 160
114 124 146
128 141 162
118 130 151
121 135 159
110 123 148
113 127 156
125 138 159
114 130 154
120 135 157
130 146 168
118 132 157
128 144 167
120 134 158
104 107 141
99 89 137
92 63 135
87 46 131
89 47 133
86 45 129
91 48 135
90 47 135
89 46 131
89 47 134
88 46 131
84 45 126
85 45 128
91 47 134
87 45 128
86 49 127
96 79 139
87 75 126
98 96 126
98 94 125
98 94 123
97 93 123
94 90 120
105 101 132
91 88 118
94 90 118
91 86 112
91 88 116
93 87 113
90 84 113
91 86 114
88 82 110
86 85 111
108 117 143
107 118 145
101 110 134
106 114 141
106 115 137
107 117 140
112 122 148
112 123 147
106 116 138
116 128 149
114 124 146
115 129 151
112 123 143
118 130 152
110 124 145
121 133 159
116 132 156
124 137 158
118 133 154
126 140 162
122 137 157
119 133 152
115 126 144
114 127 150
123 138 157
115 126 146
110 123 145
111 124 145
115 128 149
122 134 153
127 139 158
129 144 166
114 128 146
118 130 149
117 129 148
121 134 154
122 134 151
119 134 153
117 129 150
120 134 153
112 122 138
115 129 148
137 160 184
160 189 212
161 196 219
160 196 222
157 194 222
154 192 222
152 191 222
150 190 222
149 190 222
149 189 222
149 189 222
147 189 222
148 189 222
149 189 222
149 190 222
151 191 222
152 191 222
155 193 222
158 195 222
157 192 220
151 178 208
116 130 157
85 88 111
113 123 142
113 125 141
112 123 138
118 128 145
118 130 147
110 121 139
102 111 125
106 116 134
112 118 139
104 75 160
96 61 156
98 62 159
105 66 168
100 63 160
90 58 149
98 64 160
97 61 156
97 63 158
106 68 170
106 68 169
96 61 153
102 65 165
103 67 165
97 63 158
106 67 168
98 64 157
95 63 151
93 62 150
106 66 166
101 64 161
101 64 162
97 62 153
97 68 151
107 110 142
96 126 126
83 141 116
51 147 98
28 150 89
30 160 94
29 153 90
28 148 87
29 154 91
30 158 93
31 161 94
29 156 92
31 162 95
31 162 96
29 157 93
30 159 94
29 154 91
52 151 101
75 142 115
86 119 118
112 122 141
115 125 142
116 125 143
111 122 138
105 115 132
121 133 151
120 130 148
110 121 138
120 130 147
114 126 143
114 120 136
118 127 144
111 121 136
112 121 139
107 114 130
110 119 135
106 115 132
114 125 142
108 117 135
115 127 145
114 125 143
116 128 148
110 118 135
118 127 145
118 127 146
117 130 150
113 126 144
120 133 150
119 129 148
125 139 159
120 133 151
119 127 146
115 125 145
63 69 101
25 23 94
24 23 93
24 23 94
25 23 97
26 24 99
23 21 89
24 23 94
25 24 98
25 24 99
22 21 86
22 20 86
25 23 97
25 23 96
25 23 96
25 23 96
21 19 79
22 20 86
23 21 90
25 23 96
25 23 94
25 23 98
52 57 102
109 121 146
107 120 138
119 129 152
120 132 156
116 129 149
125 140 160
122 136 157
123 140 160
115 130 151
121 132 153
105 99 131
108 59 120
104 18 110
108 19 114
107 19 113
105 18 112
106 19 111
106 18 112
109 19 115
108 19 115
125 142 164
120 134 157
117 134 160
56 74 124
8 48 117
8 46 117
8 46 113
9 48 119
9 50 124
8 47 117
9 49 119
8 46 114
8 43 107
9 47 117
8 47 116
8 47 115
9 51 126
9 49 120
8 45 113
9 48 118
8 47 116
8 45 111
8 47 115
8 47 114
33 52 108
111 119 141
107 118 138
118 131 150
119 132 155
120 133 153
112 122 141
119 133 157
117 130 150
108 118 139
112 125 145
117 129 150
108 114 132
115 129 151
106 116 134
122 135 158
114 125 148
118 131 152
121 133 155
115 127 149
114 126 150
117 129 152
121 134 154
116 125 142
121 134 158
124 137 161
116 130 153
115 127 145
118 129 151
121 137 160
120 132 154
117 131 151
125 141 162
120 133 154
120 133 153
118 131 157
125 140 165
125 140 163
124 137 159
119 131 156
117 132 157
115 128 151
126 137 158
115 127 153
116 129 149
118 132 156
115 129 151
125 140 159
105 108 142
97 82 136
87 53 127
87 46 132
92 48 139
89 46 133
86 44 125
90 47 134
90 47 135
89 46 132
86 45 128
88 45 129
87 45 130
86 45 128
88 46 132
89 47 134
83 43 121
84 44 127
86 52 126
94 82 131
91 87 118
91 85 112
91 87 115
89 85 114
97 94 123
88 82 111
83 75 100
89 83 109
93 87 115
82 74 98
79 72 96
87 82 110
87 87 110
107 117 141
108 119 137
100 105 128
104 117 139
114 123 145
109 118 142
94 102 126
109 119 143
110 122 145
113 126 148
107 119 140
112 124 147
118 128 147
125 141 163
118 131 154
114 127 148
116 128 150
124 137 160
116 128 148
123 137 160
116 127 147
117 131 151
111 122 143
111 124 146
128 143 164
117 128 147
122 136 157
116 127 145
122 133 154
123 138 159
120 134 155
118 130 153
117 132 150
119 133 155
120 136 159
108 121 138
128 142 162
122 137 159
118 131 150
123 138 158
114 126 146
118 131 149
120 136 158
142 167 192
155 186 208
163 197 220
158 194 220
159 195 222
157 194 222
154 192 222
153 192 222
152 191 222
152 191 222
150 190 222
151 191 222
152 191 222
153 192 222
153 192 222
154 192 222
154 192 220
155 192 220
157 194 220
150 186 207
148 179 203
110 121 166
97 98 142
101 109 127
123 135 152
109 118 133
117 128 146
117 130 150
122 134 153
129 141 160
113 124 141
107 108 143
94 63 152
92 58 149
92 58 147
100 64 160
95 60 153
96 61 154
97 63 158
101 64 161
94 61 153
98 64 159
103 66 163
98 63 156
102 64 160
105 68 169
104 66 165
108 68 172
98 63 157
101 64 161
91 60 148
98 63 156
92 59 146
99 64 158
103 64 163
90 63 142
95 113 126
62 134 102
50 149 99
28 149 87
28 148 87
29 154 91
29 155 92
28 149 87
29 155 93
30 159 93
29 156 91
32 166 97
29 155 92
29 153 90
28 150 89
27 144 85
29 152 91
28 147 87
35 153 94
64 136 100
96 140 132
101 111 126
117 127 143
116 126 144
116 125 140
115 127 143
120 130 148
112 122 140
114 126 140
115 127 145
113 123 141
112 123 141
121 132 152
119 131 149
105 114 129
118 129 146
120 130 149
110 122 138
123 135 153
121 131 150
119 131 152
115 128 149
109 117 135
116 127 148
115 128 147
115 124 143
114 128 146
109 122 139
109 121 141
110 120 138
129 142 162
111 116 135
127 140 159
107 118 140
22 20 84
24 22 89
24 22 91
24 22 95
24 22 93
25 24 98
24 22 93
25 23 95
24 22 92
24 23 96
25 23 96
24 22 93
23 22 91
24 22 92
27 25 103
26 24 101
24 22 91
23 21 88
26 25 103
25 22 94
30 31 96
89 99 128
120 135 157
113 122 142
115 127 148
117 130 150
124 139 158
116 126 148
123 135 155
117 129 150
114 127 147
114 121 148
100 61 114
99 17 105
106 18 112
99 17 105
103 18 108
102 18 110
104 18 111
108 19 115
99 18 107
103 18 110
124 139 159
130 146 169
119 136 155
78 92 132
19 49 112
9 48 119
8 44 109
9 47 117
8 45 111
8 43 107
9 49 119
8 45 113
8 44 109
9 48 117
9 50 122
9 47 117
9 50 122
8 47 116
9 47 115
8 46 114
8 44 108
8 43 108
9 50 124
21 52 117
91 105 138
121 135 156
114 127 147
109 117 134
117 128 148
117 126 148
119 134 155
117 131 154
113 123 143
119 132 152
116 127 147
118 128 149
106 119 141
113 126 147
115 129 151
121 133 154
103 112 135
114 126 150
124 139 160
119 132 153
115 129 150
112 126 151
130 144 165
125 138 160
109 119 141
116 128 149
123 138 161
121 133 154
123 136 159
136 152 174
124 138 162
126 140 163
119 130 152
113 125 146
117 130 152
121 135 159
113 130 150
122 134 156
110 122 143
118 132 154
119 133 155
125 138 161
109 120 144
118 129 152
127 143 165
118 132 157
120 133 158
115 122 151
91 73 132
92 63 133
85 45 128
89 46 132
84 44 127
87 46 132
91 47 134
91 48 137
86 45 129
84 44 125
87 46 129
88 46 132
89 47 133
84 44 127
87 46 131
85 44 127
83 44 123
83 44 125
83 44 127
88 66 123
91 74 127
92 94 123
82 80 106
91 90 110
85 81 104
87 81 107
77 70 92
78 71 92
72 65 88
71 66 89
94 92 114
86 91 116
92 100 122
94 102 125
100 107 127
105 115 134
116 128 149
102 110 132
100 108 132
116 127 150
108 119 143
109 119 138
109 117 139
116 129 151
106 116 138
114 126 146
117 129 155
115 130 149
118 132 153
111 125 148
123 138 160
115 128 151
111 123 144
114 127 147
111 126 149
121 134 155
121 135 156
117 131 153
123 138 159
126 139 160
118 131 152
110 121 142
111 124 146
123 137 158
123 137 160
114 127 147
114 127 146
109 120 139
125 139 159
114 126 147
112 125 144
124 138 157
120 134 153
121 135 154
115 130 147
102 117 137
148 175 195
151 180 201
161 194 216
159 192 216
161 197 222
160 196 222
158 195 222
156 194 222
156 193 222
155 193 222
155 193 222
155 193 222
156 193 222
153 191 220
153 191 217
150 187 211
137 175 193
119 159 168
114 153 159
110 149 152
114 147 158
102 128 148
74 89 113
90 107 116
99 111 122
111 123 141
114 124 142
118 130 147
121 136 155
118 128 147
123 137 157
110 107 148
96 66 152
93 61 155
95 61 152
101 64 160
89 59 147
94 60 153
100 64 161
101 63 159
93 60 149
95 62 152
103 65 165
101 66 164
97 62 155
95 61 151
91 60 147
98 64 156
86 57 139
100 64 161
87 56 139
97 62 155
86 55 137
99 62 157
95 62 153
90 78 144
61 126 98
31 138 84
28 150 90
28 148 87
27 148 89
27 145 87
26 140 83
28 147 88
28 149 88
28 148 87
28 150 88
30 157 92
28 148 88
30 161 95
28 147 88
27 146 87
29 154 91
28 151 89
27 144 84
28 147 87
76 145 116
109 137 142
121 134 157
110 118 136
115 127 146
124 135 153
113 122 139
120 132 152
117 130 148
118 128 145
125 139 158
115 123 141
112 122 139
120 131 149
116 128 148
117 129 145
111 120 137
123 137 155
117 128 142
121 133 150
119 131 148
107 115 135
120 134 152
120 135 156
109 119 136
112 124 142
109 122 144
105 115 132
121 136 154
121 132 152
121 137 156
119 130 150
121 135 155
117 128 147
60 66 104
21 19 80
24 22 91
26 24 98
20 19 79
24 22 92
22 21 87
24 22 93
23 22 91
24 22 91
25 23 94
22 21 85
23 21 89
24 22 93
22 20 84
24 23 94
21 19 80
22 20 84
22 19 83
23 21 88
57 63 104
100 113 133
119 133 153
123 138 158
117 133 153
128 144 164
119 134 154
117 128 150
125 137 157
121 137 156
122 138 160
100 72 117
95 27 104
92 16 98
100 17 104
103 18 109
99 17 106
102 18 110
103 18 109
97 17 103
106 19 111
102 18 107
123 140 162
127 144 165
123 139 160
116 132 153
68 84 124
9 49 120
8 44 109
7 40 100
8 45 111
9 48 117
8 45 112
8 43 108
8 45 111
8 46 115
9 47 115
8 46 112
8 46 113
8 44 108
9 47 116
8 43 106
8 44 110
8 43 107
7 39 98
78 94 128
118 131 153
112 125 150
124 138 160
125 141 162
122 135 155
122 135 157
124 137 158
127 140 164
119 131 153
123 137 160
111 123 145
116 130 151
113 127 149
124 139 161
121 135 159
111 122 148
121 134 157
121 134 158
115 128 150
122 137 161
118 133 157
126 140 161
126 140 163
123 137 161
120 133 155
123 137 159
128 141 163
111 125 147
121 136 160
121 137 165
121 136 162
127 142 166
122 136 159
124 139 161
120 134 155
127 141 164
122 136 162
128 142 164
124 137 158
118 133 156
112 126 151
121 136 158
123 137 158
125 138 161
125 141 165
123 139 162
120 129 155
101 93 141
85 57 127
84 44 126
84 44 125
78 41 117
88 46 131
87 46 132
87 46 131
84 45 128
87 45 131
87 45 130
86 45 130
83 44 124
82 43 124
88 46 131
86 45 126
87 46 131
86 45 127
82 43 124
84 44 126
81 42 119
89 69 124
91 89 123
99 106 124
86 88 105
91 96 117
73 72 91
61 61 78
79 82 98
79 82 97
68 71 87
92 95 112
86 89 111
94 101 119
95 103 123
101 107 124
98 106 125
103 111 136
109 118 139
109 121 143
118 129 150
115 126 152
101 108 129
103 114 136
116 129 152
111 125 145
118 132 153
120 135 158
121 135 158
116 129 149
114 127 150
117 130 150
120 134 157
114 127 150
116 127 148
123 137 157
124 137 160
121 134 156
127 141 159
113 123 144
128 142 165
113 124 141
115 127 148
115 129 152
116 129 153
117 130 153
125 139 163
122 136 159
123 137 156
128 141 161
113 125 144
114 127 147
121 134 155
119 135 157
115 126 144
122 136 156
108 126 146
122 144 165
151 179 198
145 170 191
159 191 215
163 197 220
161 196 219
160 195 220
161 196 222
160 196 222
159 195 222
159 195 222
154 190 215
155 192 217
127 166 180
130 169 183
80 126 115
64 116 95
62 111 88
49 108 73
44 105 66
42 101 65
48 101 75
43 97 66
60 100 84
86 114 108
94 117 119
109 122 139
105 118 137
113 124 142
121 134 154
118 131 149
113 117 150
94 65 148
94 59 150
91 56 147
97 62 155
90 57 144
102 66 165
91 59 149
89 57 143
95 61 151
95 61 152
103 65 164
97 63 156
93 60 151
105 66 167
93 60 151
94 60 150
98 62 156
96 62 154
101 65 164
87 57 142
94 61 150
91 59 145
93 59 148
76 103 129
34 130 87
27 146 87
26 139 82
28 152 90
27 144 86
27 144 84
27 144 86
30 159 94
28 149 88
27 144 86
28 149 88
28 149 87
28 148 88
30 157 93
28 149 88
26 138 82
28 148 88
29 151 89
29 155 92
27 143 85
35 146 90
87 146 125
111 128 139
111 125 143
113 125 143
122 134 154
110 122 140
114 125 143
117 129 144
125 140 159
122 132 150
118 126 143
116 126 144
113 126 145
121 132 152
111 126 141
114 127 146
114 125 142
115 124 141
117 130 147
111 125 143
114 123 140
114 125 142
122 132 154
123 137 157
113 124 142
118 132 148
106 116 138
112 124 142
112 125 143
119 132 151
122 135 157
120 131 149
115 127 146
107 116 139
45 49 92
22 20 83
24 22 93
25 23 95
25 23 94
24 22 91
25 23 96
24 22 91
24 22 92
22 20 86
23 21 89
23 22 91
23 21 88
24 22 90
22 20 85
24 22 92
22 20 83
23 21 88
24 22 93
99 109 137
119 133 151
127 142 163
115 129 149
123 136 156
120 130 149
118 132 154
105 112 131
114 126 144
125 138 160
113 113 142
96 42 103
94 16 99
100 17 105
104 18 109
102 18 109
103 18 110
104 18 110
103 18 109
101 18 108
99 17 105
108 19 114
117 131 152
116 129 150
120 135 155
126 140 163
112 128 156
46 65 114
8 43 107
8 43 104
8 42 104
7 41 102
7 39 97
8 42 105
8 43 104
8 43 108
8 43 105
8 46 113
7 39 99
8 43 106
8 44 107
8 47 114
8 42 104
7 37 94
60 75 117
106 118 143
110 124 146
122 134 155
123 138 159
119 132 152
117 131 151
123 137 158
121 137 158
120 132 151
115 128 150
115 130 151
121 136 157
119 133 158
118 130 154
122 136 157
120 134 155
120 134 156
125 140 165
114 128 147
115 130 153
127 138 160
123 140 163
120 134 157
117 132 154
126 142 162
128 139 161
114 126 148
132 147 171
128 140 163
137 157 172
130 144 166
129 143 168
120 133 156
120 134 159
124 137 160
114 127 151
131 146 168
129 145 169
124 138 160
124 137 159
116 129 154
124 138 163
127 142 162
122 138 164
118 132 154
120 135 158
124 136 157
109 112 143
85 56 125
80 42 120
82 43 123
85 44 126
88 46 131
85 44 128
87 46 128
83 43 124
92 48 137
88 46 133
88 46 133
88 46 131
88 46 131
85 45 127
82 43 123
80 43 124
85 44 127
83 44 125
78 41 118
89 47 134
83 43 123
84 45 123
88 69 123
108 113 137
105 112 133
101 107 126
94 98 115
93 98 116
107 112 130
95 100 116
87 93 109
96 102 121
103 110 130
102 110 131
113 124 148
113 125 146
104 113 133
101 106 127
117 128 147
105 115 134
116 129 149
104 116 142
112 123 149
113 125 148
124 136 158
114 127 151
120 130 152
121 134 155
119 129 148
112 125 147
119 132 153
124 138 158
124 137 158
117 129 152
121 135 156
114 127 147
118 130 150
118 131 152
126 140 162
118 133 154
122 136 158
115 130 148
122 137 159
116 129 149
123 137 158
119 134 154
123 137 156
125 139 160
125 138 158
117 129 151
122 135 156
123 137 156
119 133 153
123 135 156
121 136 160
119 133 153
96 114 136
125 151 169
128 151 171
124 145 169
129 149 174
153 184 205
157 188 211
161 193 214
163 197 220
162 196 221
164 198 222
159 195 219
138 175 190
107 145 149
95 136 133
61 111 88
37 100 58
36 98 57
36 100 58
37 99 57
38 102 58
37 100 58
37 101 58
36 100 57
36 97 55
35 90 52
60 103 80
79 114 103
105 124 132
115 130 146
121 134 153
117 128 147
113 118 147
93 64 147
92 59 149
89 55 142
83 52 131
93 60 151
92 58 146
93 59 148
82 53 134
96 62 154
98 62 158
94 60 150
96 62 155
91 58 144
86 55 138
93 60 150
83 56 136
91 58 147
89 59 144
87 59 143
88 56 140
94 61 149
89 58 144
75 72 127
43 112 92
25 137 82
25 136 81
26 140 82
27 147 88
27 142 84
26 139 82
27 145 87
27 146 85
25 130 76
26 142 84
26 136 81
27 143 85
27 147 87
27 141 83
28 148 87
29 152 89
26 138 83
28 149 88
28 149 88
28 147 86
29 151 90
59 134 99
89 135 121
126 138 157
116 127 145
119 133 154
120 134 152
118 130 150
121 132 150
119 132 148
121 135 153
118 131 151
117 129 148
116 128 146
116 130 151
110 117 136
107 119 138
107 117 139
120 131 150
108 118 137
121 136 156
116 126 146
112 123 142
105 113 131
112 126 145
111 124 141
115 127 144
114 126 144
124 135 156
114 129 147
124 135 155
120 131 149
111 123 140
116 130 150
119 131 151
89 97 122
24 23 83
23 21 88
23 21 88
22 20 84
19 17 75
23 20 86
23 21 88
23 20 86
22 21 86
22 21 88
21 20 82
24 22 92
22 20 84
22 21 86
22 20 84
20 18 77
28 29 82
74 80 107
114 125 145
110 123 143
110 121 140
115 129 150
111 122 144
111 124 144
113 127 147
117 126 145
109 120 141
125 140 162
108 91 131
91 16 98
93 16 99
92 16 99
103 18 106
92 16 99
107 19 114
104 18 111
105 18 110
105 18 109
103 18 110
97 17 102
119 134 157
111 127 151
121 137 159
124 140 164
120 135 158
119 134 159
60 75 111
8 42 105
7 40 102
7 41 103
9 49 119
7 37 94
7 42 103
8 44 110
8 43 109
8 44 108
7 41 102
8 45 109
7 41 103
7 39 97
28 51 107
65 80 118
110 124 148
116 129 149
108 119 140
108 122 145
106 117 140
117 132 154
110 125 149
121 135 159
121 136 159
119 134 154
119 133 155
113 126 149
121 137 160
119 133 157
111 124 144
120 135 158
121 134 154
121 134 156
125 140 162
113 126 146
126 143 166
113 126 146
128 143 166
108 118 138
123 136 159
134 149 173
137 151 173
138 153 174
129 143 169
141 156 180
139 154 178
149 168 189
131 144 165
139 155 182
145 162 184
128 140 170
123 136 160
125 139 162
125 142 163
122 138 161
124 138 162
117 127 151
122 137 158
125 139 159
130 147 171
126 141 163
120 135 156
126 138 166
85 62 124
84 44 125
77 40 116
83 44 126
83 43 125
85 45 128
83 43 122
84 44 126
83 44 126
85 44 126
83 43 125
78 41 116
84 43 123
87 46 130
83 43 124
87 46 132
82 43 121
83 44 128
85 44 126
81 42 121
84 44 127
75 40 114
84 44 126
82 47 121
105 102 139
108 115 134
109 117 136
112 121 140
96 105 125
113 124 143
108 115 136
111 117 136
112 121 138
109 120 142
122 131 147
113 123 142
107 117 138
120 133 154
117 128 149
118 130 152
116 126 145
115 125 149
120 132 155
117 129 148
117 130 150
120 134 155
118 131 151
123 137 157
120 135 159
122 134 157
122 136 159
112 123 146
121 136 157
118 132 155
126 140 160
120 134 155
113 126 150
118 133 153
121 136 158
132 148 169
122 136 160
121 135 156
120 134 157
126 142 166
118 133 154
127 141 163
122 136 158
118 131 152
131 144 165
122 136 155
127 142 163
121 134 154
126 139 160
129 144 166
130 145 165
118 131 152
111 125 145
96 114 133
114 134 153
119 142 164
121 141 163
121 140 164
137 164 187
147 175 197
145 173 192
154 183 206
155 185 207
158 192 212
128 161 172
100 135 135
64 108 91
41 99 64
33 92 54
36 98 57
37 101 58
37 101 58
36 98 56
37 102 59
36 98 56
36 99 57
35 97 56
35 96 55
36 100 57
36 98 56
35 94 54
69 105 90
89 120 118
113 128 145
115 127 147
123 134 156
92 72 140
90 57 144
87 56 143
93 59 150
83 53 135
84 54 137
82 54 134
89 58 146
93 59 146
99 64 161
87 57 141
98 62 154
95 61 155
89 57 143
94 59 148
83 55 134
89 56 142
81 52 127
81 53 131
86 56 142
84 53 134
82 59 134
72 97 123
27 147 87
26 142 84
26 139 82
27 144 85
27 143 85
25 135 80
27 144 85
25 132 78
28 150 89
28 150 89
26 141 83
26 140 82
26 139 83
28 148 87
28 146 86
27 145 87
26 141 84
25 134 80
28 146 86
27 144 86
26 140 83
24 126 75
26 138 83
76 137 115
110 137 142
126 139 159
126 138 159
119 133 152
101 113 130
116 127 145
116 127 146
115 125 144
115 125 144
113 123 142
116 127 144
123 136 155
115 127 149
114 124 146
114 125 145
117 129 148
112 124 143
111 119 137
108 118 137
112 127 148
117 130 148
106 116 132
118 131 151
109 123 141
108 120 140
114 124 142
102 113 132
114 122 139
112 125 142
113 124 144
99 106 123
113 125 144
106 115 133
79 86 111
57 63 100
20 19 76
19 17 73
20 19 78
21 20 83
22 20 85
23 21 88
19 17 74
21 19 81
24 22 91
19 17 72
22 21 86
20 19 78
22 20 85
35 37 86
73 80 111
107 118 139
115 126 147
121 134 157
120 135 156
119 132 155
120 133 154
120 134 156
112 124 145
106 118 136
112 123 146
124 129 156
101 63 115
83 14 88
97 17 101
99 17 104
98 17 102
95 17 102
100 18 109
91 16 96
102 18 110
97 17 104
106 19 112
95 17 101
118 132 153
119 133 154
115 125 146
117 130 153
119 133 154
120 132 152
103 115 137
87 98 124
40 57 101
6 36 91
7 40 98
6 34 89
7 38 96
7 41 101
8 43 107
7 39 97
7 41 103
7 39 97
7 39 98
41 54 90
85 96 123
102 117 142
102 114 132
97 109 130
112 126 148
113 127 150
111 124 147
114 129 154
104 118 145
114 128 149
116 131 153
117 130 152
111 124 146
105 116 136
121 137 159
122 135 154
114 127 148
127 141 164
120 133 156
121 135 159
118 133 156
119 136 157
118 132 152
136 151 173
125 142 165
134 147 169
139 153 175
145 159 180
144 159 182
146 163 188
139 156 180
134 148 170
138 156 180
150 167 192
131 146 170
135 148 170
144 160 183
130 145 170
129 143 163
131 145 168
124 138 161
114 130 149
126 143 164
129 146 169
125 139 163
121 136 161
123 138 160
127 142 166
122 138 161
115 122 152
78 50 117
80 42 120
85 45 127
84 44 127
82 43 122
78 41 119
86 45 128
81 43 123
79 42 120
80 41 116
86 45 127
85 44 126
82 43 123
84 44 126
80 42 119
85 45 128
78 41 117
76 41 117
85 44 127
81 43 122
77 40 114
77 41 117
80 42 121
81 42 121
97 90 131
115 124 146
116 128 151
115 126 145
106 113 132
114 124 145
121 135 155
123 134 154
118 130 150
117 127 148
109 120 138
108 120 140
120 133 153
116 130 148
115 127 146
119 131 156
120 134 158
109 120 146
112 123 143
117 131 152
119 134 156
122 135 157
115 128 149
123 137 158
121 133 155
119 134 156
115 127 151
123 137 157
124 139 166
122 136 156
118 133 154
120 133 155
122 135 157
111 127 150
121 135 158
117 131 151
116 128 148
126 139 160
122 136 159
119 134 155
124 137 159
121 135 157
132 148 171
129 142 165
124 138 160
122 134 156
123 138 160
124 138 161
112 125 144
119 134 155
120 134 157
123 137 156
109 123 143
101 119 145
92 114 132
94 112 133
91 100 126
104 121 144
109 128 151
124 147 168
129 154 172
141 167 188
137 163 187
145 177 193
82 120 111
35 95 55
34 93 55
37 99 57
37 100 58
36 97 56
37 99 57
37 99 58
36 98 56
36 98 57
36 98 57
36 98 56
36 98 56
35 96 56
36 98 57
35 95 54
35 96 55
35 94 55
64 98 85
91 116 118
107 128 138
113 124 147
109 103 152
84 52 136
85 54 137
83 55 137
90 57 146
72 48 121
86 56 140
87 56 141
79 51 127
83 54 135
89 57 140
84 54 134
84 56 135
90 56 143
85 55 136
89 57 138
86 55 138
84 53 132
94 61 148
81 54 131
85 55 135
82 66 131
38 126 90
23 125 75
25 135 80
26 141 84
27 146 85
27 144 85
27 146 85
26 138 82
27 142 85
25 135 79
28 148 87
25 136 81
27 144 85
27 143 85
29 153 89
27 148 87
25 137 81
25 135 80
27 146 86
27 141 83
25 129 75
26 140 83
27 144 86
28 148 88
45 134 91
108 146 145
114 127 145
121 135 155
112 123 140
119 131 149
112 126 145
123 137 157
112 124 144
116 129 148
123 137 155
121 132 152
108 120 140
119 132 152
113 125 143
114 126 146
121 133 153
116 130 148
110 122 141
117 131 150
112 125 146
101 106 125
114 127 147
110 122 142
116 129 150
111 122 144
110 122 142
112 124 140
106 117 133
102 114 134
98 107 126
105 116 132
99 111 128
106 114 133
103 112 128
90 98 116
57 57 96
30 31 86
19 17 73
20 18 77
22 20 84
19 18 75
16 13 59
21 19 81
22 20 82
21 19 80
18 15 69
20 18 78
48 50 88
90 100 123
110 121 140
115 128 148
103 112 131
120 134 156
115 126 146
111 121 143
118 131 151
115 127 147
108 118 136
117 127 146
121 136 157
118 123 146
95 27 100
91 16 96
93 16 100
97 17 102
99 17 105
93 16 98
99 18 107
91 16 97
96 17 102
93 16 101
93 16 100
102 18 108
116 133 153
107 119 140
105 116 138
118 131 154
109 121 142
111 123 145
99 112 134
98 108 130
85 98 125
78 89 117
22 45 94
30 47 92
21 45 102
6 35 86
7 37 94
22 43 93
14 33 82
37 49 86
73 84 114
80 94 117
98 109 128
97 108 127
96 108 131
110 123 143
94 107 129
111 123 144
103 115 138
107 120 141
112 126 146
111 125 148
100 113 134
118 133 156
118 129 149
124 139 163
125 141 162
119 135 158
123 137 158
109 123 147
116 131 155
118 130 150
115 129 151
127 143 167
128 144 167
134 143 162
141 157 182
139 155 176
138 152 175
141 159 183
136 153 176
124 139 161
127 143 168
122 138 160
132 148 173
127 144 168
124 138 162
129 144 165
143 160 184
125 139 161
120 133 153
138 151 172
120 132 157
125 141 163
114 130 150
124 137 159
130 146 167
124 140 167
120 132 155
119 134 162
126 139 163
99 92 140
80 42 119
83 43 126
79 41 120
79 41 118
76 40 116
84 44 127
79 41 118
80 41 120
79 42 119
83 44 127
84 44 126
79 41 119
84 44 125
79 42 121
83 44 125
81 42 121
80 42 117
81 43 123
79 42 120
80 42 121
81 43 125
78 40 115
78 40 116
76 40 114
91 77 127
100 103 134
121 134 157
117 131 151
114 123 143
109 120 140
117 131 153
123 136 157
125 135 158
115 127 147
125 138 159
114 126 145
120 134 154
119 131 150
121 135 156
123 139 161
125 136 155
123 136 156
124 139 162
123 138 161
130 143 166
119 134 155
114 128 150
118 132 153
127 142 164
124 139 161
129 145 167
127 141 162
121 134 154
119 131 155
124 139 159
109 119 139
126 141 164
130 143 164
122 137 156
118 131 150
124 138 160
132 146 168
124 138 157
125 141 164
126 139 162
124 137 158
124 140 164
115 126 145
123 137 159
122 135 155
112 123 145
124 137 158
120 135 155
122 136 159
115 131 153
115 126 145
111 122 141
99 118 139
96 118 137
100 122 141
83 97 122
103 122 144
99 122 141
104 128 145
115 137 154
113 136 155
105 131 144
93 127 130
53 103 76
36 97 56
36 97 56
34 93 54
36 100 58
35 97 56
36 99 57
35 94 54
34 93 54
36 98 56
34 94 54
35 96 55
35 95 55
34 92 53
35 97 56
35 95 55
33 92 53
32 89 51
38 94 58
57 104 78
87 116 113
112 129 144
113 119 152
85 62 132
79 51 130
79 51 131
83 53 136
81 52 130
78 51 127
87 57 142
90 59 147
83 53 134
79 53 128
81 52 128
85 54 138
87 57 137
83 55 134
89 57 142
77 50 123
85 55 135
89 57 141
91 58 143
90 58 145
77 83 126
41 114 89
25 134 80
24 130 77
25 136 81
26 138 82
25 137 80
26 140 83
26 140 83
27 146 87
26 139 82
27 143 85
27 144 85
28 148 88
27 141 83
27 147 86
26 142 85
26 138 82
27 142 84
27 145 86
26 139 83
28 146 87
26 139 82
27 132 79
27 133 79
33 128 79
92 134 125
111 133 144
111 121 140
113 128 147
116 129 148
122 133 153
111 124 144
116 129 149
114 129 149
134 148 169
106 118 134
111 122 139
122 136 156
114 129 144
124 139 158
116 127 147
110 124 142
108 117 139
112 124 145
117 131 150
109 117 139
111 121 141
108 118 140
116 129 149
114 126 147
110 123 143
107 117 136
104 113 131
96 104 120
110 121 140
97 106 124
97 107 125
94 105 121
92 100 118
86 94 107
84 91 108
75 79 102
54 56 80
16 15 64
26 27 68
17 17 68
17 15 66
18 16 68
17 16 65
20 19 69
43 45 77
69 74 101
104 115 134
100 110 132
107 118 137
103 111 129
104 118 139
114 126 146
103 115 135
107 117 137
109 122 143
107 116 137
112 124 145
103 113 133
116 129 150
113 118 145
98 49 108
90 16 95
96 17 101
97 17 103
91 16 95
100 18 105
96 17 102
93 16 99
100 17 104
98 17 105
90 16 97
98 17 105
103 115 137
97 109 132
112 126 148
108 121 143
97 109 131
111 123 144
104 115 137
100 112 135
91 104 123
84 93 112
82 92 113
67 72 90
54 60 85
49 59 89
52 58 75
57 66 87
82 91 108
77 84 102
90 101 119
92 104 123
90 101 117
88 101 122
99 110 130
102 114 135
97 109 127
99 111 132
108 119 139
108 121 141
112 124 145
121 137 158
104 117 138
112 127 151
116 131 156
118 134 156
117 132 154
117 131 153
116 129 151
119 133 160
110 123 147
125 140 164
121 133 154
120 135 162
134 147 168
118 131 150
140 156 181
139 154 177
126 140 161
124 141 163
125 141 162
126 142 166
134 151 174
122 139 161
125 143 164
125 141 161
123 137 158
118 136 153
127 144 166
120 135 159
128 142 163
135 150 172
134 145 171
124 139 163
125 141 162
119 132 158
122 137 160
128 143 167
120 133 156
123 137 160
113 125 153
97 86 139
81 47 121
82 43 122
82 43 124
81 43 122
75 40 116
80 42 121
74 39 114
84 44 124
83 43 124
82 43 125
78 41 117
80 42 120
84 44 125
79 42 119
80 41 118
80 42 120
84 44 126
81 43 123
83 44 124
81 43 123
77 40 115
80 42 120
78 41 116
75 39 111
85 60 122
116 119 151
131 144 165
125 139 160
127 140 162
128 143 166
120 134 154
117 132 152
126 141 161
120 133 153
111 124 146
118 132 154
121 134 155
126 141 163
123 134 153
116 128 147
119 130 153
120 135 156
115 128 149
123 134 153
125 140 161
121 136 156
130 146 166
120 135 155
121 133 154
122 138 159
117 130 150
121 136 156
118 131 151
116 130 150
128 143 167
124 139 161
116 129 149
127 141 163
121 134 157
134 148 171
124 140 162
121 134 155
123 137 159
121 136 158
124 140 160
112 126 146
128 139 161
120 135 156
125 139 160
122 136 157
122 138 159
119 134 154
121 135 153
126 141 163
117 131 154
114 125 145
119 132 153
98 115 134
97 119 136
94 117 134
94 116 133
88 107 126
95 117 137
100 125 145
94 115 135
95 121 136
78 111 115
49 100 74
35 94 56
34 94 55
35 94 55
34 94 54
34 93 55
34 94 54
34 94 54
35 95 55
35 96 56
36 97 56
36 99 57
35 95 55
35 95 55
35 95 55
35 95 55
34 91 53
37 99 57
35 96 56
33 93 53
33 91 52
53 96 71
97 120 127
113 119 145
109 107 148
77 52 121
85 54 137
88 55 139
87 56 143
81 53 134
82 52 129
65 43 106
81 51 129
85 53 135
85 54 136
81 52 129
80 52 129
86 55 137
81 51 127
68 46 112
85 56 136
75 48 119
87 55 137
75 47 120
66 94 114
31 116 77
24 131 77
25 133 78
23 125 73
27 142 84
25 135 80
26 138 82
27 142 85
27 141 83
24 129 76
26 140 82
26 139 83
26 142 85
25 137 82
24 131 77
27 143 86
25 136 81
27 124 74
39 140 83
37 121 73
48 115 69
44 121 73
51 122 73
46 119 71
41 128 76
84 122 109
116 130 145
114 127 144
120 133 153
114 125 146
122 138 157
119 132 149
116 128 147
121 134 154
119 134 151
112 128 147
117 129 148
111 126 145
116 130 150
120 133 152
118 132 153
118 130 148
106 117 136
109 123 141
114 126 148
104 116 135
119 132 152
114 128 147
120 134 151
105 115 136
105 116 135
110 121 141
99 107 128
104 115 135
108 120 139
101 111 128
101 112 129
90 101 116
94 101 116
83 93 106
75 80 95
73 81 92
91 98 114
79 81 101
59 62 80
47 45 70
56 59 83
54 61 80
63 65 90
72 75 97
84 90 107
73 79 96
103 112 130
93 101 118
110 120 139
92 102 122
91 97 115
103 111 133
103 115 136
102 114 136
104 117 140
109 120 142
109 119 138
112 125 148
116 125 148
105 100 130
96 36 103
88 15 90
99 17 105
84 15 89
94 17 101
90 16 96
99 17 105
86 20 94
90 34 100
92 26 99
89 36 99
86 33 95
104 118 141
99 113 133
105 117 136
102 117 139
107 119 138
102 115 137
100 110 128
93 104 123
97 106 124
93 104 124
82 89 109
68 76 99
68 75 95
72 84 107
86 95 113
70 76 93
85 93 108
72 77 94
75 86 102
84 95 115
79 90 108
99 108 131
112 126 149
103 116 140
111 125 143
109 123 146
116 130 151
104 117 141
104 119 142
110 124 147
105 119 140
114 126 148
117 132 153
118 133 158
119 132 152
114 126 148
112 126 149
117 130 152
114 128 152
119 134 160
131 145 167
128 143 166
139 152 173
133 146 168
133 149 172
128 143 166
114 127 148
121 136 159
120 135 158
132 150 173
125 139 163
130 145 167
132 150 176
125 143 164
131 149 171
127 145 168
127 141 164
126 143 165
133 150 172
134 148 172
135 150 172
136 152 174
125 138 159
134 147 171
123 140 164
122 136 162
120 133 156
132 147 169
114 121 151
90 75 129
78 40 117
85 44 128
81 42 120
75 40 115
79 41 119
74 39 113
81 42 121
81 42 121
75 39 115
79 41 118
77 41 116
88 46 130
81 42 121
80 42 120
85 44 126
78 41 119
81 43 123
83 43 123
76 40 115
82 43 121
78 41 116
76 40 115
76 40 114
81 42 120
82 55 119
111 118 145
121 135 156
120 135 156
128 143 166
125 141 161
123 138 159
123 137 158
122 136 158
124 138 160
133 149 171
123 136 156
119 132 153
114 129 151
123 138 159
124 140 163
123 137 159
125 140 161
122 137 156
118 128 150
117 130 149
117 131 151
123 137 159
121 135 153
125 138 160
120 134 155
124 137 157
124 139 162
113 126 148
125 141 164
121 135 159
122 134 153
125 139 159
120 134 156
121 135 156
113 125 145
122 136 157
126 142 163
125 141 162
123 138 161
123 137 160
121 135 157
122 137 157
117 131 151
129 144 164
122 137 160
125 139 159
118 131 152
123 140 161
110 122 143
119 134 155
120 131 152
116 128 150
106 121 138
96 118 136
94 116 135
101 125 142
89 111 128
97 119 135
92 116 131
94 116 132
82 113 119
57 102 82
34 93 54
34 92 54
34 93 54
34 93 54
33 90 52
36 98 56
33 91 53
35 96 56
35 94 54
34 94 54
35 95 55
35 96 55
35 96 56
32 88 51
36 96 56
33 90 52
35 96 56
33 90 52
32 89 51
31 87 50
33 91 53
39 95 59
74 107 100
111 128 141
101 107 131
74 53 113
78 50 127
74 47 121
86 54 136
75 49 122
71 46 116
81 53 134
73 47 119
81 53 132
80 51 128
76 48 123
81 52 126
83 54 134
91 57 145
81 52 131
80 51 128
85 54 137
80 52 126
85 54 133
60 95 105
34 136 87
25 134 80
25 135 80
24 132 78
25 132 78
24 128 76
23 125 74
25 136 80
25 132 78
27 143 84
25 133 78
23 122 71
27 146 86
25 133 79
27 136 81
28 137 81
38 128 76
46 124 74
49 109 65
61 94 57
63 95 58
62 93 57
65 96 59
68 83 52
65 97 59
70 95 70
90 103 102
92 102 108
104 115 129
106 117 132
120 134 154
109 121 141
112 126 144
119 131 150
121 133 152
115 127 147
119 132 152
110 122 141
123 137 157
115 130 152
122 134 156
118 129 146
114 127 146
119 132 153
104 117 133
115 127 148
111 121 141
112 124 143
109 118 139
110 122 140
115 127 149
104 113 133
108 117 139
96 106 124
110 120 140
94 98 119
90 100 116
93 102 121
89 98 115
88 94 110
80 86 104
92 98 117
90 97 113
65 73 85
83 93 107
67 74 87
72 77 96
45 37 56
86 94 109
60 64 78
80 87 102
100 108 127
93 103 123
94 99 120
102 111 130
99 109 127
93 99 119
92 100 120
110 120 141
109 120 140
111 123 143
113 126 149
113 125 145
107 120 142
112 123 142
106 98 129
88 56 99
95 16 97
90 15 94
86 15 93
89 16 94
97 25 104
79 44 94
73 54 93
76 54 96
61 68 92
50 75 89
54 72 91
102 117 156
98 111 133
111 124 145
109 122 144
108 122 141
110 123 145
101 111 130
90 101 119
102 115 135
91 100 121
96 106 126
80 88 107
94 105 127
91 101 122
91 101 119
100 110 131
96 108 129
90 99 123
96 107 130
99 112 133
106 117 140
97 106 128
115 129 151
108 124 149
109 121 143
110 123 147
104 116 139
117 131 155
119 134 159
106 118 140
122 136 161
117 130 153
118 131 155
121 136 160
117 131 156
120 133 158
129 145 169
124 140 164
122 136 160
111 126 151
122 138 164
124 139 165
136 150 174
138 156 178
123 136 158
130 146 170
121 136 158
121 136 160
119 133 158
133 150 173
119 132 152
125 141 167
121 137 164
137 155 182
121 137 160
127 146 170
130 146 169
128 143 167
126 141 164
128 142 163
134 150 173
126 139 160
120 133 154
115 124 149
123 139 160
127 142 163
125 138 159
116 131 154
119 129 156
86 63 126
77 40 116
84 44 126
80 42 119
75 39 114
87 45 129
74 39 109
80 42 119
73 38 110
80 42 120
83 43 123
78 40 116
76 40 112
88 46 131
80 42 119
80 42 120
80 42 120
80 41 117
74 39 111
85 44 125
73 39 110
79 42 119
80 42 119
78 41 117
73 38 108
75 48 109
105 109 140
124 138 160
125 139 160
126 143 166
130 145 165
117 131 151
123 136 161
126 140 160
118 132 155
129 143 164
133 149 171
118 131 153
121 134 154
124 139 162
122 136 157
131 147 170
121 136 158
122 136 158
124 137 158
124 140 162
125 137 160
121 137 160
125 139 161
124 138 158
130 146 168
126 141 164
118 129 153
125 140 162
116 129 149
118 132 154
127 140 162
131 145 168
127 139 159
129 145 168
128 145 166
120 133 158
121 134 158
129 145 166
123 136 156
121 135 155
121 136 157
120 134 152
121 134 156
123 136 157
126 137 157
120 132 156
123 137 158
121 135 157
113 124 146
123 139 160
126 140 161
121 134 154
108 121 139
97 118 135
97 121 139
97 123 142
93 117 134
98 124 140
92 114 130
91 115 129
71 109 104
40 96 62
33 90 52
34 93 54
34 92 53
34 94 54
34 93 54
36 99 57
34 92 53
34 93 54
34 93 54
34 92 53
34 92 53
35 96 56
34 93 54
34 93 54
32 89 52
35 94 54
32 88 51
32 90 51
32 88 51
33 91 52
32 90 51
31 85 49
38 88 59
98 118 127
123 139 157
99 99 137
82 65 125
78 49 123
86 54 137
78 49 125
80 51 128
82 52 131
87 55 138
83 53 131
73 47 118
70 47 114
86 54 138
76 47 120
77 50 124
82 52 129
77 50 124
81 52 129
70 47 114
76 59 118
65 98 110
35 123 78
24 131 78
24 129 77
24 132 78
24 133 79
24 131 77
25 132 77
26 138 81
26 137 80
26 136 80
24 131 78
27 145 86
25 135 80
25 125 73
34 125 72
43 113 68
54 95 57
62 84 52
62 79 50
70 76 49
70 73 46
68 70 44
70 72 46
71 73 47
67 72 46
71 74 51
70 74 54
79 82 70
81 87 83
100 111 120
116 127 144
121 135 154
115 126 144
118 130 150
113 125 145
117 128 150
120 135 155
111 123 145
128 145 167
118 133 154
109 122 139
113 126 146
118 131 151
114 126 145
120 133 154
119 134 154
116 128 148
110 120 139
111 126 143
116 129 148
105 116 136
105 117 137
117 130 149
101 107 125
96 104 121
104 118 138
98 109 127
112 126 148
96 100 117
100 110 127
100 113 133
97 101 119
105 114 133
81 89 105
84 90 110
95 102 120
72 75 92
89 97 113
96 107 124
93 102 119
88 95 115
97 107 128
90 97 117
96 106 127
102 113 133
109 121 141
97 108 127
114 126 148
110 121 141
110 123 145
106 118 141
107 120 144
98 109 130
108 119 141
111 122 145
110 107 137
97 47 107
87 15 93
86 15 91
95 21 102
86 35 95
78 48 94
53 73 90
49 79 93
34 82 87
33 87 92
20 86 86
22 91 90
111 126 177
104 121 161
111 125 148
113 126 148
101 114 137
110 122 141
110 122 142
91 101 128
113 127 148
112 125 145
96 108 130
102 114 138
106 119 139
102 114 136
114 125 146
109 123 142
101 113 135
108 120 145
108 121 142
114 129 154
112 123 142
112 127 151
104 116 140
117 128 146
119 132 153
116 131 155
125 138 161
110 124 148
113 128 148
123 139 162
110 124 148
115 130 151
121 136 159
120 135 157
124 140 164
127 143 166
118 131 156
124 140 164
120 135 160
125 140 165
128 140 164
128 139 162
128 141 165
124 137 159
130 145 166
128 142 161
125 140 162
129 145 168
129 146 173
118 131 154
125 140 165
133 152 176
125 140 160
129 146 170
122 134 155
131 145 170
127 142 167
124 139 160
126 143 166
126 141 165
138 155 181
136 151 175
121 133 157
122 133 158
117 126 153
125 139 162
130 147 171
125 140 161
110 115 146
90 73 130
77 40 117
72 39 110
76 39 115
74 38 111
73 38 111
71 37 109
69 36 104
75 40 113
78 41 118
75 39 111
81 42 122
81 42 120
71 38 109
80 42 122
74 39 113
75 40 114
78 41 117
77 41 116
78 41 116
82 42 120
76 40 114
78 40 115
78 40 114
73 38 111
79 54 115
102 100 140
124 139 162
120 133 155
121 136 157
127 142 163
120 133 154
117 131 150
125 141 164
126 141 161
127 142 163
125 140 162
130 144 167
124 138 158
123 137 158
126 142 166
124 135 156
123 137 157
129 145 166
123 138 162
130 145 167
117 129 148
123 138 160
125 139 163
122 137 158
125 137 159
124 138 157
127 143 164
126 139 159
115 128 150
121 135 157
128 141 161
126 141 164
121 135 157
125 139 161
120 133 155
120 132 153
128 142 164
124 138 161
123 138 159
119 134 153
128 144 167
122 135 158
122 139 162
120 134 156
117 133 154
124 137 158
121 136 157
118 132 152
127 142 164
115 130 152
121 135 155
114 128 148
118 136 159
106 125 142
87 112 126
94 115 134
94 116 135
92 116 133
96 121 138
80 108 117
46 93 70
34 91 53
33 90 53
33 90 52
32 88 51
35 94 54
33 92 54
34 94 54
34 93 54
33 91 53
33 89 51
33 90 52
34 92 53
34 93 54
34 94 55
34 92 54
33 90 52
32 89 52
34 92 53
33 92 53
32 87 50
33 90 52
32 87 51
34 93 53
40 90 57
75 105 98
99 109 126
106 117 141
87 81 121
83 60 130
78 49 125
69 44 110
77 50 124
76 48 124
75 49 120
68 45 109
78 50 124
74 48 118
80 50 127
85 54 133
84 53 136
79 49 123
80 52 127
81 51 127
80 50 125
93 95 126
74 110 107
22 117 68
25 132 78
25 134 79
21 116 68
25 135 80
23 122 72
26 137 81
23 124 73
23 126 74
23 123 73
25 138 81
22 120 70
29 132 78
40 105 63
53 102 61
61 77 48
67 69 44
68 71 45
67 69 44
69 72 46
69 72 46
71 74 47
71 73 47
65 67 43
71 74 47
71 73 46
68 70 44
66 69 44
64 67 43
72 78 66
91 99 98
98 108 113
112 125 144
113 128 149
117 129 149
124 137 157
116 129 148
124 139 159
111 123 143
118 131 151
120 133 153
105 116 132
121 132 153
116 128 148
118 129 151
117 129 149
109 122 143
111 123 141
97 105 126
105 119 140
112 127 145
116 131 152
111 125 144
115 130 151
106 118 138
108 119 139
114 125 147
105 114 129
108 121 139
109 120 140
109 119 140
109 118 137
101 113 134
99 110 129
99 113 132
94 104 124
100 111 130
105 116 133
107 121 142
108 120 140
97 107 126
109 123 145
96 108 127
91 100 119
100 111 131
103 115 132
108 119 139
109 121 144
114 125 145
111 124 143
115 127 149
117 126 150
115 128 148
116 129 151
102 114 134
111 119 143
101 66 112
80 14 84
86 27 95
66 55 87
55 69 89
36 82 89
19 86 85
10 89 86
10 86 83
10 87 85
10 92 90
10 88 85
102 121 188
104 122 180
109 123 147
114 127 148
114 127 147
106 120 141
102 114 136
101 114 138
119 134 157
112 127 148
114 128 148
118 132 155
113 127 147
114 128 149
96 108 130
113 129 149
111 121 143
117 133 152
106 120 141
117 131 155
119 135 158
111 126 151
116 130 152
116 130 154
115 129 154
114 129 152
122 138 162
120 133 158
122 138 161
115 129 151
115 129 153
124 139 163
121 135 157
127 142 165
119 136 159
123 140 163
125 141 166
123 139 162
130 146 167
133 146 167
115 125 150
133 147 168
117 128 150
123 136 159
131 146 169
122 137 160
119 132 152
130 145 168
123 138 161
128 143 165
127 144 169
115 128 148
115 128 153
122 137 161
123 137 161
130 143 165
128 146 171
127 144 167
130 145 168
140 154 175
130 145 167
132 146 167
135 149 173
120 131 154
115 129 152
125 140 163
125 138 160
114 126 146
124 137 163
91 80 126
71 37 108
78 41 120
69 36 105
77 40 115
76 39 112
76 40 114
71 37 107
76 39 113
78 41 114
78 40 116
74 39 113
78 41 116
70 37 103
72 38 108
84 44 124
78 41 117
77 40 117
79 41 117
71 38 108
74 39 109
79 41 117
76 39 114
75 39 111
76 39 112
79 53 115
106 113 142
130 145 167
123 137 159
127 142 163
122 136 157
130 145 168
124 137 158
127 142 164
128 143 164
123 137 159
136 150 171
125 139 160
126 141 161
126 140 161
117 132 153
127 141 162
123 137 159
130 145 167
130 145 165
124 138 160
124 139 160
121 136 156
120 135 156
121 137 160
124 139 161
125 139 161
123 138 159
123 136 156
128 143 165
119 133 155
123 135 156
122 136 156
120 135 156
126 140 162
125 139 162
129 144 165
122 135 153
125 140 160
117 132 152
116 128 148
120 135 156
127 142 166
124 138 156
113 125 147
119 135 155
114 128 146
117 130 150
121 136 156
109 123 142
125 138 160
125 141 161
116 131 153
113 126 148
110 123 144
98 118 136
89 112 128
90 112 130
94 117 134
95 121 138
76 104 109
50 96 75
34 93 54
32 88 52
34 94 55
34 92 54
32 89 52
33 92 53
33 90 52
32 88 52
34 94 55
32 89 52
34 93 53
33 91 53
34 91 53
34 92 53
34 91 52
32 87 51
34 92 54
32 87 50
33 89 52
32 89 51
33 89 52
30 84 48
31 86 49
33 90 51
70 98 94
87 100 114
99 106 124
108 120 142
93 89 131
79 63 116
71 44 116
78 49 124
73 46 116
72 46 116
69 44 111
72 47 113
69 44 112
71 47 117
63 42 103
78 49 123
71 46 110
71 45 113
71 55 110
79 76 111
104 115 136
77 115 107
40 116 81
23 125 74
21 113 66
22 121 71
23 122 70
25 135 79
24 129 76
23 124 74
24 127 74
22 120 72
25 134 80
26 129 76
44 123 74
53 83 50
61 75 47
65 68 43
69 72 46
65 68 43
67 69 45
65 68 43
67 69 44
69 71 46
70 72 46
65 67 43
69 72 46
69 71 46
67 70 45
67 70 44
67 70 45
67 70 45
66 69 50
79 86 80
102 112 120
110 122 137
109 121 138
111 122 140
111 125 142
120 132 153
118 131 150
118 132 152
124 138 159
113 126 147
125 139 160
124 136 155
123 138 158
109 119 138
119 133 154
114 125 144
114 126 149
115 130 151
118 133 152
111 125 143
119 133 155
113 126 146
120 130 148
114 125 146
109 119 141
111 124 143
116 129 150
101 116 138
110 121 140
116 129 147
113 126 147
101 110 129
92 101 121
111 124 143
109 121 145
98 107 125
114 126 147
111 122 144
105 113 135
108 120 142
96 106 127
112 124 144
116 128 150
110 117 139
116 130 152
114 124 144
114 128 146
118 134 156
122 135 158
109 123 142
118 131 155
118 129 149
111 122 143
120 133 155
109 109 137
86 31 94
79 49 94
38 79 87
26 78 80
10 90 87
10 86 83
10 86 83
10 88 86
10 88 86
10 90 87
10 90 88
99 118 187
108 128 195
113 130 176
112 129 161
108 119 141
101 114 133
109 121 142
112 127 151
120 134 155
107 120 140
110 123 147
118 132 152
110 123 148
123 137 161
115 130 153
114 128 150
124 138 160
117 134 158
116 132 154
122 137 162
123 137 159
107 120 142
121 136 157
115 129 152
120 136 158
121 136 159
123 138 161
117 130 152
113 129 151
118 133 156
120 134 154
120 135 158
117 131 154
128 142 162
119 134 157
112 127 150
127 142 162
113 128 150
118 134 157
111 128 150
129 143 164
129 142 163
141 154 175
125 140 162
116 129 153
125 139 164
122 135 163
127 142 168
123 138 158
130 146 172
125 139 160
125 140 164
123 138 163
122 136 159
131 145 168
128 141 163
132 147 170
132 147 172
136 151 177
130 144 167
131 146 170
126 141 163
133 148 172
124 135 156
114 121 148
129 143 166
127 145 169
124 139 159
122 135 160
90 85 127
79 41 117
70 37 105
77 40 116
70 37 106
77 40 117
74 39 113
79 41 119
70 37 105
73 38 110
78 41 118
74 39 110
75 39 115
77 40 115
84 44 124
76 40 113
78 41 118
74 39 111
79 41 118
75 40 113
77 41 116
73 38 110
79 41 116
73 38 110
75 39 111
76 52 111
117 126 154
124 137 159
130 145 168
130 146 167
119 135 155
121 134 156
121 135 156
126 141 162
118 130 154
119 132 153
126 142 165
124 140 162
117 129 154
126 141 163
123 137 158
129 143 164
117 130 151
125 142 164
129 145 168
125 140 162
121 136 156
125 140 162
120 132 152
132 147 169
117 130 152
129 145 168
125 139 163
125 138 159
120 136 158
127 141 163
122 135 152
125 139 160
120 135 156
121 135 158
126 142 161
124 140 161
122 137 156
123 139 158
121 137 160
126 141 162
123 136 158
123 138 159
124 140 163
119 131 151
121 135 156
126 142 163
127 143 163
111 127 149
108 120 139
119 133 152
112 126 143
120 134 158
116 131 153
113 127 150
112 130 149
95 116 131
81 102 118
91 112 128
85 112 125
66 99 97
34 88 55
31 85 50
35 94 55
31 85 50
34 94 54
32 88 51
31 83 48
34 91 53
33 89 52
34 92 53
31 86 51
33 90 52
33 92 53
32 89 51
32 88 51
32 87 51
31 85 49
31 84 49
34 93 54
33 90 52
33 90 52
31 86 50
33 90 52
33 90 52
33 91 52
49 89 67
91 111 123
108 116 140
99 103 127
102 112 130
89 88 116
84 74 119
67 50 103
66 43 109
73 45 114
57 36 94
67 42 107
71 44 110
67 43 108
66 42 105
74 48 116
66 46 107
73 62 107
89 92 118
103 110 132
109 117 136
90 117 121
43 117 81
24 127 75
23 125 73
23 122 71
23 123 72
23 126 73
23 122 72
24 127 75
26 138 82
24 131 78
27 125 74
43 119 72
56 81 49
62 79 49
68 71 45
61 64 41
64 67 43
67 70 45
70 72 46
66 68 44
68 70 45
67 70 44
68 70 44
69 71 45
66 69 44
68 70 45
68 71 46
66 69 44
66 69 44
63 66 43
68 71 45
66 68 43
79 85 78
102 113 120
117 131 147
112 128 149
115 127 145
114 129 146
119 133 153
123 137 159
113 126 145
115 127 146
131 142 161
115 129 147
125 139 159
116 131 150
113 125 143
115 128 145
116 130 151
114 128 149
115 126 145
122 136 157
105 119 139
116 127 149
116 128 148
112 124 144
117 130 151
108 119 140
109 120 139
115 129 149
114 128 149
103 112 133
93 102 119
109 122 143
124 135 155
108 119 139
105 113 134
107 119 139
116 128 147
101 113 131
110 123 146
112 124 147
108 119 138
106 121 139
117 129 151
110 124 147
113 125 146
103 115 135
122 137 159
117 128 152
109 124 142
119 131 155
113 127 150
102 110 129
111 121 143
112 126 147
100 103 126
63 74 93
35 77 84
15 81 80
9 84 81
10 88 85
10 88 86
10 87 85
10 88 86
9 83 81
10 88 86
10 85 84
92 110 173
98 117 183
99 114 167
118 134 169
106 121 144
115 130 152
108 121 142
122 137 160
113 129 151
118 133 155
123 136 159
116 130 152
119 134 157
120 137 159
121 136 157
126 142 165
124 136 160
118 132 154
121 136 160
117 131 153
116 131 155
123 138 162
123 138 159
109 121 141
119 133 156
121 137 162
120 134 157
121 136 158
119 134 157
117 130 152
125 140 162
111 126 150
125 140 162
120 134 158
116 130 153
123 138 159
116 128 150
123 138 159
120 132 155
117 131 155
126 139 161
135 148 169
134 149 172
132 145 168
126 139 161
121 133 154
130 146 169
116 132 154
119 133 158
130 145 168
116 129 153
128 145 164
116 128 154
123 136 159
135 151 175
122 138 159
128 140 163
130 145 169
124 138 161
134 150 173
128 143 165
143 159 180
142 158 180
122 134 156
130 142 169
117 129 156
128 144 168
124 138 159
118 131 155
91 83 127
73 39 109
86 44 125
72 37 107
78 41 115
73 38 107
81 42 118
77 40 114
79 41 115
72 38 108
80 42 120
75 40 114
74 39 111
74 39 111
73 38 110
77 40 115
74 38 108
75 40 114
76 40 114
78 41 116
80 41 118
69 36 104
74 39 111
71 37 104
69 36 103
92 84 125
119 128 154
127 142 166
126 140 164
117 130 151
128 143 165
126 143 166
125 139 160
122 134 155
125 140 162
125 139 159
116 132 152
125 141 164
122 137 159
118 132 153
118 131 152
121 137 159
126 140 162
124 139 160
124 139 162
120 135 158
118 132 152
124 141 165
130 147 170
128 143 166
128 143 164
125 140 163
128 145 169
123 138 159
124 138 162
120 133 155
124 139 160
116 128 151
129 144 166
130 145 167
127 142 162
114 126 147
120 135 158
120 135 158
125 139 161
116 130 150
120 133 154
125 141 161
117 130 150
115 129 149
116 131 150
123 139 159
122 138 159
113 126 144
121 139 161
123 138 160
118 133 154
124 136 158
121 135 156
118 133 153
113 130 151
102 119 137
102 122 139
92 114 129
84 108 118
66 96 95
34 91 53
31 85 49
31 84 49
32 88 52
32 88 51
34 92 53
32 87 51
34 93 54
34 93 54
31 85 50
33 91 53
31 85 49
31 84 49
34 91 53
33 90 51
33 91 52
31 86 50
33 87 50
30 84 48
31 86 50
32 87 50
31 86 50
31 86 49
31 87 50
31 87 50
37 82 53
68 88 90
106 115 135
101 110 130
102 110 130
94 102 121
91 91 115
90 92 119
75 74 94
67 56 97
63 47 94
54 37 90
65 41 101
78 60 116
75 59 110
75 71 104
91 95 117
91 97 117
95 103 126
83 90 111
101 107 130
99 117 129
60 115 95
22 116 67
21 113 66
22 118 70
21 115 67
24 128 75
22 117 68
25 132 77
24 128 75
25 124 73
43 94 57
49 92 55
61 76 48
67 70 44
63 65 42
64 66 42
68 71 46
65 67 43
65 69 44
68 72 46
69 71 45
67 70 45
65 67 43
67 69 45
67 70 45
68 71 45
66 69 44
68 71 45
65 69 44
71 74 47
66 68 43
68 70 45
66 68 44
84 91 85
96 105 112
113 126 144
122 136 155
115 129 150
119 131 149
122 133 157
124 138 159
115 130 150
115 127 148
121 137 160
122 135 156
121 134 155
119 131 150
112 127 146
119 132 152
116 129 151
121 131 152
107 121 140
119 132 149
120 134 154
119 131 153
116 128 148
109 120 144
105 116 135
120 135 156
111 126 147
115 123 145
115 129 149
110 120 140
110 124 146
112 126 144
118 129 149
117 129 148
112 126 148
101 110 130
111 126 146
114 127 148
116 128 149
116 129 150
110 123 145
115 126 150
109 117 139
111 121 146
105 115 137
122 139 159
114 126 147
117 130 153
115 126 149
111 122 144
110 121 143
103 112 131
104 117 137
92 108 126
41 77 81
9 84 82
9 84 81
9 83 81
9 80 79
9 84 82
10 90 88
10 88 86
10 85 83
9 82 80
10 88 86
102 121 191
89 106 169
96 113 174
104 122 168
110 125 151
117 133 152
120 135 157
122 138 159
125 140 162
112 126 147
123 138 158
121 135 157
121 136 159
117 131 153
121 139 161
111 125 149
114 126 148
123 137 158
113 126 148
119 134 155
121 137 159
129 145 170
120 137 161
123 140 164
119 133 157
124 139 162
123 139 161
121 137 163
124 139 160
124 140 162
122 136 158
129 145 167
126 140 160
129 145 170
119 133 155
120 134 156
123 138 160
118 132 155
111 123 144
113 127 146
129 143 166
129 143 165
126 141 163
128 142 163
134 150 172
135 149 173
119 133 154
123 138 160
120 135 155
124 141 164
126 140 167
126 139 165
123 138 162
130 146 168
123 133 155
127 142 166
134 149 172
134 151 174
130 146 168
132 147 167
131 145 167
136 151 173
138 154 177
125 139 162
121 132 154
112 121 149
124 135 160
120 134 154
123 138 159
111 117 147
86 72 122
69 36 105
77 40 115
75 40 115
75 40 112
76 40 114
73 38 110
74 39 111
73 38 107
74 39 110
75 39 112
74 39 110
77 40 115
83 44 125
70 36 104
82 42 120
67 35 100
78 42 117
77 40 114
68 36 104
79 42 119
71 36 102
74 39 109
67 35 101
104 108 139
117 130 153
121 135 158
128 143 167
126 141 164
117 130 150
130 146 169
122 136 158
117 131 152
124 135 156
122 134 156
125 140 163
130 146 167
125 142 163
124 138 160
126 139 161
122 135 155
126 141 164
122 138 161
128 143 164
122 138 160
113 125 143
121 135 155
126 142 166
127 143 166
123 138 157
119 130 153
126 140 160
123 136 157
128 144 166
117 131 150
121 135 156
121 136 156
124 139 162
125 141 164
124 139 160
126 141 162
123 137 158
119 136 154
125 139 159
119 134 156
123 138 161
122 136 155
123 139 163
118 136 157
119 132 156
115 131 151
127 141 162
126 140 163
121 134 157
123 135 154
123 135 157
118 132 153
113 126 145
120 136 157
116 130 154
120 136 154
112 128 146
92 112 129
80 104 113
55 99 81
32 89 52
28 78 45
34 94 55
32 87 50
31 85 49
33 89 51
32 87 51
32 86 50
33 89 52
31 85 50
34 91 52
33 89 51
33 92 53
32 88 51
31 86 50
32 88 51
33 89 51
32 87 50
32 88 51
30 82 48
34 94 55
30 84 48
30 82 47
32 90 52
31 85 48
31 78 49
77 98 106
86 94 113
89 96 116
92 99 120
97 108 127
71 71 96
69 66 89
65 64 87
88 90 111
67 64 91
51 46 70
66 66 84
66 66 86
73 77 93
77 79 97
80 85 101
87 92 111
77 84 101
92 99 112
89 94 114
93 101 121
61 110 92
23 120 70
24 129 77
22 120 70
24 127 75
23 121 72
22 120 70
21 116 68
21 112 65
29 119 70
46 94 56
58 79 49
63 66 42
64 68 44
58 61 39
70 72 46
67 69 44
62 64 41
66 68 43
63 65 42
65 68 44
68 71 45
66 69 44
68 70 45
66 68 44
67 68 44
68 70 44
67 70 44
65 67 44
66 69 44
69 71 45
64 67 43
67 69 44
61 63 41
83 87 80
104 112 124
120 137 155
122 135 155
118 131 152
115 126 145
120 136 154
116 132 153
126 142 163
117 128 148
113 127 147
116 129 149
116 131 149
115 124 144
108 119 139
124 139 161
118 134 154
111 125 143
109 124 143
128 143 163
113 129 149
120 134 157
120 135 155
110 122 142
113 125 145
111 122 142
118 131 153
117 131 153
118 130 151
111 123 141
121 138 160
102 113 134
119 130 151
119 133 154
121 136 158
123 139 160
119 128 150
117 132 153
114 126 149
108 118 138
118 133 153
109 117 138
105 114 132
112 124 144
111 121 141
122 137 156
106 119 141
108 123 142
109 118 139
108 121 142
100 110 127
86 110 124
60 89 96
20 86 86
9 79 77
10 86 83
10 86 83
9 82 81
9 83 82
10 85 83
9 79 77
9 82 80
10 90 88
10 86 84
99 119 188
94 112 177
100 119 185
106 124 176
112 128 163
121 138 160
115 129 153
121 135 157
119 134 156
105 121 145
124 140 162
113 128 151
123 138 163
118 132 153
121 139 162
128 146 169
127 143 165
120 134 155
126 141 165
121 137 161
115 131 153
128 144 167
122 138 162
123 138 160
120 136 158
122 137 159
123 139 162
120 134 155
124 138 160
120 135 156
120 134 157
123 139 162
127 143 166
124 139 159
121 136 160
118 131 154
122 135 157
106 118 143
112 121 141
120 132 154
108 119 140
121 134 154
124 135 155
137 151 173
120 132 154
131 145 168
141 156 176
133 148 170
128 142 164
134 150 174
117 132 156
128 142 167
120 132 158
119 133 154
122 136 158
130 145 168
129 144 166
132 147 170
130 145 171
127 143 162
130 145 168
131 146 168
126 142 164
124 139 160
121 134 158
107 115 143
121 136 161
126 141 162
131 148 171
117 128 151
85 74 123
72 37 106
69 35 102
71 36 103
77 40 113
72 37 107
78 41 116
71 38 106
73 38 110
74 39 111
70 36 104
74 38 110
80 42 119
73 38 109
71 37 106
73 38 110
78 41 116
75 39 110
72 38 108
77 40 114
75 39 111
74 38 108
71 36 103
84 75 114
109 116 141
118 131 156
124 138 161
127 144 166
116 131 154
127 142 163
121 136 157
126 142 163
130 147 169
116 129 149
117 130 152
122 135 157
126 141 165
121 136 158
118 134 155
130 145 167
119 133 157
131 147 169
124 140 164
128 142 163
129 145 168
130 145 165
120 133 154
114 128 148
127 142 164
122 136 158
123 137 161
126 140 162
119 134 154
119 133 154
117 132 153
122 139 161
121 138 160
122 138 161
124 138 159
121 135 155
112 124 144
123 135 153
125 138 159
115 129 146
120 134 155
117 131 154
126 141 162
120 135 155
116 129 149
126 141 162
118 131 153
117 131 148
118 131 149
111 125 142
112 124 144
107 118 136
117 133 154
115 130 150
100 113 132
105 117 132
113 124 142
113 127 144
102 115 131
83 101 110
55 90 79
32 88 51
31 83 48
32 86 49
32 89 52
32 86 49
33 90 52
32 87 50
34 94 54
31 84 49
32 88 51
32 88 50
32 87 50
33 92 53
32 87 51
31 85 49
31 84 48
32 88 51
35 96 55
30 84 49
29 79 47
31 86 50
32 86 50
30 84 48
30 82 46
29 81 46
40 81 58
76 95 101
93 99 122
97 109 128
81 90 109
82 91 110
86 97 113
92 99 119
88 96 115
73 79 99
87 91 111
66 72 87
76 78 99
78 80 102
86 94 109
85 91 112
87 97 113
84 93 111
88 98 115
96 103 124
92 101 118
95 104 125
79 100 107
50 108 82
18 99 59
24 130 76
20 107 63
20 108 63
23 122 72
23 122 72
22 120 71
35 111 66
53 72 45
60 63 41
62 64 41
63 65 41
61 63 40
67 69 44
68 71 45
63 66 42
66 69 44
63 66 42
61 63 41
59 62 40
68 70 45
66 68 44
66 69 44
65 67 43
67 70 45
61 64 41
65 69 44
64 66 43
63 66 43
65 68 44
65 68 44
64 67 43
70 75 64
87 96 96
115 129 147
121 133 153
117 130 149
115 128 148
114 128 146
117 132 151
116 128 149
123 142 161
128 143 164
120 134 155
118 131 152
109 122 142
124 139 160
119 133 153
120 133 155
120 133 153
111 124 144
120 136 156
119 135 155
106 117 137
119 131 152
121 135 157
116 130 150
116 130 150
119 133 153
123 137 157
113 125 144
118 134 155
122 135 156
114 126 147
112 123 141
111 122 139
114 126 147
129 142 163
111 125 147
108 119 140
107 119 136
99 110 133
114 127 147
111 120 141
113 120 143
111 123 142
111 120 142
104 115 137
112 124 148
111 125 143
110 121 141
107 116 138
101 120 139
63 93 103
35 89 89
9 82 79
10 86 84
10 85 82
9 80 78
9 85 83
10 86 83
10 86 84
10 86 84
9 83 82
10 87 85
9 84 82
93 112 177
92 109 173
100 118 187
100 118 178
106 120 158
121 136 159
120 135 157
114 128 151
116 129 152
127 143 166
119 132 154
119 136 159
125 140 162
117 131 156
118 132 154
120 132 152
121 139 162
128 144 166
126 141 162
123 139 160
115 131 153
122 137 160
112 126 151
126 140 162
122 138 161
123 137 160
114 127 148
127 144 168
130 144 166
119 134 154
127 143 167
121 137 159
127 143 166
119 133 155
124 139 163
128 145 169
114 128 151
115 128 152
99 105 133
98 108 130
111 123 149
126 138 163
132 149 173
130 144 167
116 130 151
133 148 169
127 141 162
123 139 162
131 146 169
129 143 165
136 154 180
129 145 169
124 139 159
120 132 157
128 140 160
130 142 164
129 143 167
131 146 169
134 149 171
133 149 173
137 153 175
128 143 166
124 140 161
126 141 163
117 130 151
103 116 141
117 129 151
131 148 169
128 145 167
125 138 158
101 100 139
72 54 105
71 37 107
70 37 104
64 33 96
77 40 114
73 38 108
72 37 107
64 34 98
77 40 113
75 39 110
73 38 108
69 35 100
77 40 113
69 36 103
74 39 111
73 38 109
74 39 110
66 34 98
69 35 103
73 38 107
78 41 117
76 44 111
96 96 127
104 112 138
121 134 156
120 134 154
121 135 155
126 139 163
119 135 154
118 130 152
133 147 170
119 131 153
125 137 158
122 136 157
129 143 165
119 135 157
114 128 150
122 135 156
125 139 160
129 145 166
118 134 155
116 130 151
125 141 163
120 136 159
123 138 164
126 142 162
121 136 157
127 142 163
125 140 161
123 137 157
118 132 152
124 141 163
128 145 168
132 147 169
125 139 161
121 138 157
124 137 160
124 139 159
125 140 159
123 139 160
125 142 162
121 136 156
117 132 151
120 137 157
115 129 149
121 137 158
120 137 158
123 138 159
113 129 147
104 118 136
120 136 155
116 131 149
112 127 145
123 138 156
116 132 151
112 127 145
118 132 150
117 133 152
108 122 139
108 121 138
99 111 128
99 112 126
94 111 119
71 103 92
30 83 49
30 83 48
33 90 52
31 83 48
31 85 49
33 88 51
32 88 51
32 87 50
34 94 54
32 87 51
32 86 50
30 83 48
31 85 48
31 85 49
29 80 47
30 83 48
32 87 50
32 87 50
33 91 53
28 77 44
27 75 43
30 82 47
27 75 44
29 81 46
28 77 44
45 83 64
59 87 83
86 93 117
104 115 139
99 104 128
98 106 128
95 102 125
87 96 118
78 86 105
88 96 115
102 112 133
81 91 111
83 89 110
92 101 120
97 108 127
92 98 121
83 93 110
98 109 126
98 109 126
96 106 126
94 101 124
85 92 116
100 116 128
74 120 113
23 100 62
21 114 67
20 107 63
20 109 63
21 111 66
22 117 68
27 121 71
45 82 49
51 76 47
63 65 42
60 63 41
64 68 44
62 65 42
64 67 43
61 63 40
65 67 43
65 68 43
64 65 42
63 66 43
64 66 42
64 67 44
65 69 44
64 66 42
63 64 41
64 67 43
64 67 43
64 67 43
63 66 42
67 69 44
68 71 45
62 64 41
65 68 44
66 68 43
71 75 63
96 105 113
120 135 153
115 126 146
118 132 152
122 141 159
113 127 148
117 134 152
113 128 150
117 129 150
121 136 155
117 131 153
114 132 150
124 141 161
117 131 150
123 138 160
116 131 149
127 143 165
125 140 160
114 128 148
114 132 151
112 123 143
116 131 151
112 125 147
108 121 140
119 134 156
119 133 156
122 135 158
125 139 158
121 135 156
112 123 144
115 131 149
107 116 136
117 130 150
116 130 150
108 121 140
118 129 152
119 130 152
108 117 134
125 139 162
109 120 142
121 137 155
117 128 151
117 130 151
112 120 143
118 132 153
109 118 139
110 120 142
103 114 132
84 101 116
53 91 95
9 82 80
9 80 77
9 78 76
9 77 75
9 83 81
9 79 76
9 79 78
9 80 78
10 88 86
9 83 82
10 86 84
9 85 84
98 116 184
101 121 190
96 115 181
106 124 184
102 118 160
106 120 143
124 140 163
115 132 154
114 129 153
125 141 163
116 132 155
126 143 164
119 133 154
125 142 165
120 137 161
124 139 161
126 142 164
123 137 160
118 133 153
121 136 160
121 138 158
114 127 150
127 143 166
120 135 159
114 128 152
126 140 161
114 128 149
118 133 154
119 137 159
122 136 159
109 121 145
119 135 159
126 143 167
123 138 161
124 138 160
125 139 160
123 138 161
107 116 142
101 99 134
108 119 143
107 119 140
128 142 166
121 133 156
128 144 166
137 152 175
131 145 168
123 137 160
142 158 180
140 154 177
138 153 175
131 147 169
144 159 181
132 146 170
129 145 168
138 155 178
131 146 170
126 140 161
140 155 179
131 146 167
127 142 165
135 150 171
117 132 152
131 148 170
121 137 157
111 123 146
104 117 146
115 130 156
120 136 157
111 122 143
121 135 160
119 133 158
82 68 116
70 41 104
72 38 108
71 37 106
71 37 106
74 38 111
77 40 112
71 37 104
72 38 107
67 34 97
73 38 108
78 41 115
72 37 106
69 35 103
66 35 100
75 38 110
68 35 99
76 39 111
65 34 97
69 35 101
62 35 92
86 74 120
113 121 145
121 134 156
117 131 150
115 129 151
116 130 151
128 143 165
120 133 154
118 132 153
122 134 156
126 143 166
125 139 160
116 130 150
120 134 154
126 141 163
117 129 151
116 129 150
116 129 151
127 144 167
128 143 164
112 126 146
122 137 159
122 136 155
125 140 163
130 146 167
122 137 158
121 134 157
127 141 164
127 143 164
118 134 153
125 141 161
118 133 155
122 136 156
124 140 164
122 137 158
127 142 162
123 140 163
122 137 159
121 136 156
123 136 159
123 139 158
126 143 165
114 129 149
122 138 160
121 135 157
118 132 152
121 137 155
117 132 152
122 137 156
115 129 147
120 135 155
121 136 156
106 117 134
117 130 148
113 128 147
106 118 136
104 117 135
113 127 144
113 126 142
97 107 121
109 122 138
90 104 115
63 90 81
37 90 57
32 86 49
30 80 47
31 84 49
33 89 51
32 88 51
33 90 52
32 89 51
32 89 51
30 82 47
28 77 45
30 82 47
31 86 50
30 82 48
31 84 49
31 84 49
30 81 47
30 81 47
31 85 50
27 74 43
30 82 47
33 90 52
31 86 49
30 82 47
28 78 45
32 74 48
74 98 99
88 101 119
104 115 134
85 96 114
98 111 131
98 108 128
104 116 136
104 118 137
99 112 131
96 105 123
100 110 130
98 111 128
102 115 133
100 113 126
91 105 124
101 113 134
91 101 121
91 101 122
110 125 145
102 116 132
108 121 140
108 121 141
93 120 125
71 119 103
29 109 68
19 104 62
21 114 68
19 106 62
21 112 64
37 110 64
55 84 51
59 64 41
63 67 43
54 57 37
64 68 44
58 62 40
64 67 43
63 66 43
66 69 44
63 65 42
68 71 45
63 66 42
65 67 42
63 66 43
65 68 44
63 65 42
65 68 43
64 67 43
63 65 42
58 61 39
64 67 43
65 67 43
62 64 41
64 67 43
60 63 40
64 67 43
64 67 56
94 102 110
101 115 129
110 121 141
117 133 151
117 130 151
116 130 148
123 137 157
112 126 148
116 131 151
125 140 161
125 139 160
126 140 161
121 137 159
117 131 152
121 136 157
121 135 154
124 138 158
116 130 150
119 132 152
121 136 155
124 141 160
126 143 165
130 147 168
111 122 142
115 129 149
122 137 159
119 132 154
105 114 134
115 129 150
119 132 155
110 124 144
110 121 143
103 116 135
112 125 145
112 126 146
121 136 156
116 129 153
110 121 140
119 133 152
117 130 152
116 131 151
115 128 150
116 125 147
103 112 133
113 123 144
111 122 144
109 119 140
94 108 126
64 93 101
28 75 77
9 78 75
9 82 81
9 80 78
10 85 82
9 82 80
9 81 79
9 79 78
9 80 78
9 79 77
9 81 79
9 82 79
9 80 78
96 114 179
97 115 180
97 116 181
94 110 173
104 121 165
116 131 155
122 138 163
122 137 160
113 126 148
113 127 148
121 137 159
112 128 149
112 126 151
122 136 159
127 142 166
123 139 162
125 141 164
122 139 162
123 138 159
129 145 169
115 126 148
118 134 156
114 130 150
125 141 166
122 135 156
118 134 156
124 139 161
122 135 157
128 144 166
129 145 168
121 135 158
121 133 159
117 132 157
120 134 155
116 133 156
128 145 164
131 148 169
122 130 160
105 104 140
114 122 151
118 132 154
133 146 170
131 145 167
133 147 171
127 140 162
133 147 168
143 157 179
146 163 185
125 141 162
140 155 178
126 140 163
124 139 164
136 153 175
142 159 180
135 151 174
140 156 178
129 145 168
125 137 159
131 146 169
138 153 175
136 152 175
117 131 153
123 139 162
115 127 149
107 114 137
97 104 135
112 123 149
121 134 155
125 140 163
130 144 166
115 129 151
107 114 139
83 70 115
63 32 94
70 36 105
68 35 101
71 37 105
73 38 107
70 36 103
67 35 100
62 32 93
70 36 105
74 39 109
70 37 105
66 34 98
65 33 96
71 37 105
74 38 110
65 33 98
67 35 98
74 43 108
76 53 108
109 117 142
109 120 141
120 134 157
124 138 160
117 130 152
119 133 153
125 139 162
117 130 150
121 134 157
124 140 162
126 141 164
118 133 155
128 143 165
125 141 163
120 135 159
114 130 149
131 145 167
131 144 164
119 133 155
130 145 164
120 135 155
124 140 161
126 140 161
115 129 150
133 148 169
127 141 160
125 139 160
119 134 154
124 139 158
128 142 163
129 143 165
113 129 151
123 137 158
128 143 165
121 137 157
114 128 149
127 144 166
122 138 158
124 139 160
122 137 157
123 137 157
114 129 150
120 135 154
121 137 156
124 136 158
115 131 150
124 138 158
121 136 156
113 130 148
123 136 157
114 129 146
121 136 156
123 139 158
113 128 146
115 130 151
111 125 144
116 133 151
110 123 140
102 115 132
100 114 134
102 115 131
104 119 135
78 99 101
41 83 58
30 82 47
30 83 48
29 80 46
30 80 47
30 81 47
32 88 51
31 83 48
33 90 53
31 84 49
32 88 51
28 78 45
32 86 49
29 80 47
29 78 45
30 82 48
31 85 50
30 81 46
30 83 48
29 80 46
30 83 48
30 81 47
31 85 49
29 81 46
28 79 45
44 82 60
96 113 129
110 125 144
106 119 140
92 106 123
108 119 141
103 117 138
101 115 139
112 126 146
109 125 144
112 123 147
107 122 141
108 122 145
107 120 138
110 122 143
105 119 138
107 118 139
99 112 130
114 126 145
103 118 135
99 111 130
102 114 135
103 120 135
105 120 139
91 119 127
45 110 80
22 105 62
20 110 63
20 109 64
24 108 65
31 82 47
52 74 45
63 65 42
61 62 40
64 67 43
63 65 41
67 68 43
61 63 40
61 63 40
64 66 42
59 61 40
59 62 40
63 66 42
58 61 39
65 68 44
60 63 41
57 60 39
64 66 42
62 65 41
65 68 43
62 64 42
63 66 42
66 69 44
61 64 41
67 69 44
64 67 43
63 65 42
65 68 43
79 85 84
107 117 132
118 134 153
115 130 150
121 138 158
110 120 140
113 128 147
119 132 152
126 141 161
118 132 154
118 132 151
127 141 162
121 139 157
115 130 148
122 137 159
121 135 155
126 141 159
119 131 153
120 136 156
118 134 155
117 131 152
121 139 159
117 131 151
117 132 151
121 135 158
117 134 152
116 131 150
115 127 148
123 137 158
116 129 149
118 133 151
120 134 155
116 130 153
115 126 144
115 130 149
116 128 149
114 128 151
119 129 153
112 125 145
115 127 146
109 122 144
113 125 148
111 121 141
110 120 140
111 123 144
102 112 132
112 122 144
101 119 136
50 87 93
9 81 79
9 77 74
9 82 80
9 82 81
9 76 74
9 82 80
9 78 75
9 79 78
9 82 81
9 81 80
9 78 76
9 83 80
9 83 82
95 113 176
86 101 161
101 119 185
87 106 165
105 120 167
119 135 168
122 138 161
119 133 156
117 137 160
125 141 164
126 142 164
122 137 158
123 139 162
119 131 155
119 133 154
121 138 160
125 140 162
119 134 157
126 141 163
125 142 165
121 136 159
121 135 156
128 144 167
124 138 159
118 132 157
118 132 155
118 135 158
118 131 153
124 138 160
128 144 166
130 145 167
126 141 162
116 132 155
121 138 161
121 133 154
120 135 157
132 147 171
110 122 148
82 78 115
122 131 156
120 134 157
121 134 156
135 152 174
133 149 170
131 147 168
141 155 177
128 144 165
138 151 171
124 140 161
136 151 174
122 133 154
139 154 177
125 141 164
125 141 164
133 149 174
125 141 162
132 146 166
118 131 153
119 133 157
117 132 154
110 123 146
118 132 155
120 136 156
111 117 138
115 120 147
90 98 125
105 122 146
118 130 152
113 125 147
121 135 159
117 131 153
118 132 154
94 94 124
75 57 106
72 42 104
67 35 99
68 35 100
64 33 95
75 38 109
63 33 93
65 33 97
70 36 103
71 37 106
70 36 103
70 36 103
70 36 103
68 35 100
71 37 104
68 34 98
62 31 90
81 75 110
89 90 120
104 116 138
115 128 149
115 126 146
120 135 160
107 121 139
128 141 165
112 124 143
116 129 151
113 124 147
124 139 161
112 123 143
125 141 163
120 134 155
122 135 156
124 138 161
117 130 152
124 140 162
121 136 158
125 140 162
117 132 153
126 142 163
126 142 164
123 138 158
127 143 164
119 132 151
120 133 152
116 132 153
125 141 161
121 136 157
130 145 167
119 132 153
129 146 168
129 144 166
126 143 163
119 132 150
120 136 156
117 132 151
116 133 151
114 127 147
120 135 154
122 139 160
111 125 144
113 129 151
122 136 157
116 131 150
111 127 147
125 140 160
117 133 154
112 127 146
116 132 157
124 139 160
119 132 154
108 126 143
107 123 140
113 128 146
121 137 157
116 130 150
114 129 147
104 120 136
112 128 144
101 114 132
108 122 138
90 109 118
46 85 65
30 82 47
29 79 46
30 82 48
30 83 48
32 86 49
29 80 45
31 84 48
31 84 48
31 85 48
31 84 48
28 79 45
28 78 45
32 87 50
28 77 45
31 83 49
31 84 49
29 80 46
29 80 46
29 80 46
30 82 47
30 81 47
28 78 44
27 72 42
24 67 38
63 95 85
107 125 144
113 128 147
109 124 146
99 113 132
109 122 145
122 135 158
109 123 143
110 125 144
100 112 131
97 110 127
96 106 129
114 131 152
106 121 140
97 112 130
105 121 140
96 108 129
106 121 141
106 122 140
98 112 130
108 124 143
112 126 147
100 113 132
108 124 141
96 108 125
93 123 129
45 92 74
18 98 56
19 104 61
24 92 54
41 94 55
58 68 43
56 59 37
62 65 41
57 60 39
63 66 42
62 65 42
61 64 41
62 65 41
64 66 42
61 64 41
61 64 41
63 65 42
63 66 42
63 65 42
58 61 39
61 63 40
61 64 40
66 68 44
63 66 42
63 65 41
61 64 40
65 67 43
62 65 41
63 65 42
58 61 38
62 65 42
57 60 39
75 82 77
99 110 116
125 141 160
117 132 154
119 133 156
119 134 156
111 126 144
119 133 155
109 124 144
120 136 156
123 139 161
123 138 155
122 136 157
122 136 157
111 129 145
115 131 153
117 130 149
118 131 149
116 130 149
117 131 152
121 137 154
106 119 137
117 131 150
110 123 140
116 131 150
122 135 157
114 127 145
118 131 149
124 137 158
126 140 161
111 125 148
124 141 163
116 130 148
126 142 163
120 135 156
119 133 153
120 133 153
118 130 151
109 119 138
104 116 135
99 112 133
109 117 139
124 135 158
106 119 138
115 125 147
108 116 134
105 112 131
82 106 117
48 89 92
8 75 74
9 80 79
9 79 77
9 81 78
8 72 70
10 85 83
9 79 77
9 79 77
8 74 72
10 86 84
9 80 78
9 77 75
9 78 76
93 112 177
93 111 177
92 108 167
91 108 170
102 118 169
125 141 169
112 127 147
120 134 158
109 123 146
126 143 163
121 136 158
127 140 161
115 129 152
121 137 159
123 138 160
117 133 155
122 135 157
118 133 157
125 142 164
124 141 163
126 141 164
119 132 154
127 143 168
125 141 167
123 138 159
129 146 170
127 141 163
118 130 150
118 133 153
122 138 160
121 136 159
121 135 158
126 140 165
121 135 154
127 142 165
126 139 158
121 136 157
119 133 160
97 98 133
97 99 130
115 125 147
111 124 146
125 137 158
127 140 163
115 130 150
121 138 160
128 143 164
131 147 169
124 139 161
133 147 169
133 150 173
130 145 170
127 143 167
134 149 172
127 143 166
117 132 156
130 146 170
120 136 158
125 140 165
99 112 137
70 82 111
106 129 146
90 111 121
115 123 145
141 142 167
125 135 157
119 135 156
117 130 153
123 137 158
112 124 147
123 137 159
120 133 156
116 128 149
98 102 130
75 67 106
70 41 103
66 34 98
68 35 101
58 30 87
63 32 93
59 30 88
59 31 89
68 35 102
66 34 98
61 31 90
69 36 102
63 33 95
64 33 95
73 46 104
89 86 120
87 92 117
105 115 134
111 124 142
116 128 148
115 128 150
114 128 148
118 131 155
116 127 152
119 130 149
119 132 154
117 129 150
120 134 155
117 131 154
126 140 162
129 145 166
122 138 159
118 132 152
126 140 162
125 138 160
121 135 156
125 140 161
126 140 160
122 134 156
128 144 166
119 133 157
119 133 154
127 142 163
122 135 157
134 151 173
123 139 160
124 139 159
118 131 149
120 136 157
123 138 160
120 136 157
125 140 160
112 126 143
117 131 153
124 139 161
120 135 153
124 139 159
126 142 164
126 141 162
117 134 153
128 145 167
120 138 159
112 128 147
125 140 160
118 134 152
119 134 154
120 135 153
110 125 144
124 141 162
110 126 144
112 127 144
119 134 155
109 126 143
120 136 155
114 130 148
118 134 153
109 125 145
115 132 152
114 128 147
97 113 133
98 116 129
62 93 83
27 74 43
27 75 44
28 74 42
31 84 49
29 79 46
30 81 47
29 78 45
30 83 47
32 87 50
31 84 48
28 77 44
30 83 48
28 78 45
29 80 46
29 79 46
29 78 45
30 81 46
28 76 43
31 86 49
28 78 45
29 79 46
26 72 41
27 76 43
36 82 53
73 97 98
111 126 145
105 124 142
95 106 124
112 126 149
110 124 146
112 127 148
103 119 139
104 119 142
105 120 140
113 126 149
109 126 145
102 121 139
106 121 142
111 126 145
107 120 141
102 117 136
103 120 138
100 113 129
98 114 125
101 116 135
105 118 135
99 114 131
105 121 135
101 118 135
102 116 133
103 118 133
63 100 91
37 96 68
29 99 57
50 73 45
59 61 39
59 62 40
57 60 38
59 62 40
53 56 36
61 65 41
60 62 40
62 64 41
61 63 41
60 62 40
61 63 41
63 65 41
58 59 38
62 65 41
60 62 39
63 66 42
62 65 42
61 63 41
60 63 41
61 63 41
60 63 41
65 68 43
61 64 41
62 65 41
62 65 41
65 67 43
63 65 42
71 77 68
77 88 89
122 139 158
120 136 156
124 138 160
122 138 158
116 129 151
118 134 155
117 128 149
123 136 157
119 132 153
110 126 144
116 131 148
117 130 153
105 119 138
116 130 151
120 137 155
120 138 158
112 126 144
121 134 155
121 135 156
111 123 146
112 124 146
121 134 153
122 139 160
124 139 161
120 135 153
103 116 134
111 125 145
126 140 161
117 131 152
104 117 133
127 142 164
112 126 146
118 129 150
111 124 144
112 127 147
117 131 152
115 125 145
119 133 153
110 123 143
106 115 134
108 121 140
113 124 146
120 135 154
105 115 131
115 126 146
74 97 108
41 80 82
8 76 74
9 78 75
9 80 78
9 81 79
9 82 80
9 79 77
9 81 78
9 78 77
9 82 79
9 83 81
9 81 80
9 80 78
9 81 78
94 113 178
89 106 168
89 108 170
93 110 171
112 127 174
123 140 171
124 141 164
119 134 157
112 124 145
129 142 163
110 127 150
119 135 156
122 137 161
126 144 166
124 142 164
118 133 155
118 135 158
116 131 152
121 135 159
117 131 151
123 138 159
126 143 164
117 132 154
118 134 160
120 134 157
122 136 160
123 137 157
125 140 161
122 137 158
120 135 156
113 128 151
126 140 162
125 139 160
121 136 158
121 134 159
117 132 154
121 136 159
120 126 155
98 96 132
94 98 130
114 125 153
110 121 143
101 106 132
107 117 147
112 125 146
124 137 161
124 140 165
125 139 170
118 129 153
122 136 161
126 140 163
124 137 160
127 139 161
120 132 153
128 135 156
128 135 155
115 125 143
118 132 148
111 124 144
79 97 134
61 81 126
80 105 135
128 151 161
151 160 180
154 162 186
149 163 185
105 115 140
116 130 152
116 128 149
113 125 147
119 132 153
120 133 153
111 120 141
114 127 147
95 100 125
101 103 131
73 65 104
68 49 97
62 32 92
66 34 97
66 34 100
62 31 89
65 33 97
71 37 104
60 31 87
54 27 79
61 37 88
66 57 90
82 75 111
102 107 128
104 115 134
104 113 134
117 128 150
114 126 145
119 130 150
116 130 154
119 131 149
118 133 152
119 133 154
114 127 149
121 135 155
110 120 142
113 125 146
111 123 145
119 133 152
121 136 160
126 140 160
121 135 160
120 134 155
118 133 153
116 130 147
131 147 168
122 137 160
122 135 157
122 136 159
121 136 157
126 141 162
131 147 167
123 139 160
121 137 158
128 145 166
118 132 155
123 138 161
125 140 161
123 140 162
129 145 166
124 142 162
120 133 154
122 138 160
116 131 151
126 142 161
127 143 164
124 141 163
121 137 156
117 132 153
124 139 162
120 135 154
117 132 152
119 135 155
120 136 155
117 134 153
116 131 149
117 131 152
113 128 148
122 139 158
120 138 158
115 129 148
115 130 149
116 130 149
116 133 151
111 124 143
112 128 146
121 138 155
113 128 147
113 128 144
96 116 127
53 88 71
27 74 43
27 73 42
28 76 44
27 74 43
29 78 45
30 83 48
29 78 45
28 77 44
30 82 46
30 81 47
27 74 43
26 72 41
30 82 47
27 74 42
28 77 44
30 80 46
28 78 44
26 70 41
26 72 41
26 73 41
28 76 43
26 74 42
56 86 73
95 115 127
106 122 141
101 114 133
109 119 142
104 118 137
114 126 150
107 123 141
105 118 135
111 127 145
108 124 139
112 128 147
108 124 142
116 133 152
107 123 144
109 126 146
104 119 135
97 111 128
91 111 123
96 114 129
94 112 126
100 116 132
100 118 134
90 102 118
92 109 124
92 107 124
90 107 120
95 112 127
80 109 108
76 99 101
51 92 73
42 66 38
56 65 41
53 56 36
60 62 40
59 62 40
61 64 41
66 69 44
58 61 39
63 65 41
60 63 41
59 60 39
60 63 41
59 61 39
63 66 42
59 62 40
58 61 39
61 64 41
64 67 43
62 64 41
56 59 37
63 66 42
57 60 39
60 63 41
62 64 41
62 65 41
60 62 40
61 64 41
61 63 40
60 63 47
95 106 112
114 127 146
115 136 152
102 116 134
121 137 157
114 128 146
118 134 152
110 123 142
116 134 151
109 123 143
120 135 156
115 127 148
120 135 155
118 135 154
122 137 157
122 136 157
116 132 151
122 138 158
123 137 161
117 127 150
118 131 151
127 144 163
121 137 157
120 134 157
109 120 140
116 132 152
118 131 151
115 127 149
116 131 150
111 124 139
115 130 151
120 133 154
102 114 132
129 144 168
117 132 152
112 126 147
120 135 156
112 125 145
112 122 143
116 129 147
104 114 135
109 118 137
113 126 148
106 114 135
105 116 135
107 123 139
87 106 118
33 77 79
9 79 77
8 76 74
9 80 76
9 79 75
8 74 71
9 78 76
8 79 75
9 80 78
8 77 74
9 79 78
9 81 79
9 84 83
9 81 79
94 111 175
95 113 178
90 107 167
100 119 183
104 118 156
116 133 159
117 135 155
121 139 161
119 134 153
125 142 167
117 133 156
119 134 156
111 125 148
120 136 158
112 129 151
114 129 150
122 137 158
123 139 161
125 139 163
118 134 154
121 134 157
113 127 149
121 136 159
119 134 155
123 137 157
123 138 162
124 140 163
114 128 153
119 129 153
118 131 153
116 125 148
130 123 147
121 121 146
127 128 151
124 122 146
122 126 148
126 128 151
120 120 146
115 104 137
107 109 138
124 130 160
128 138 161
119 120 152
107 111 142
106 117 150
107 117 145
104 121 141
114 125 158
115 126 177
107 115 156
108 114 134
114 130 143
116 122 142
109 104 120
92 68 77
107 101 116
119 110 118
133 146 150
86 101 131
48 69 122
78 94 140
134 154 183
151 169 186
184 197 219
179 193 216
141 155 179
124 137 157
123 137 159
120 133 156
122 134 156
102 113 137
105 115 135
113 125 144
107 117 139
109 122 142
100 107 131
100 105 129
81 79 110
62 49 86
63 48 90
61 42 86
55 31 81
67 47 93
61 39 87
79 68 104
70 59 92
72 63 95
83 85 109
107 116 135
94 101 118
101 112 130
104 117 133
113 126 147
110 121 140
106 116 137
110 120 141
116 128 151
117 127 147
117 129 151
121 133 155
111 122 143
121 135 156
120 132 150
122 136 159
112 126 145
113 126 145
120 133 154
119 128 149
118 133 156
126 142 164
124 139 160
125 141 163
122 137 159
129 145 166
122 135 158
117 131 152
117 131 152
126 142 163
117 131 155
120 135 155
125 142 163
121 140 160
121 135 156
120 135 155
123 139 163
131 146 167
119 135 155
126 142 163
117 129 148
124 138 159
125 140 160
121 136 156
123 139 159
131 147 168
121 138 160
125 139 159
116 133 151
119 136 154
117 134 154
120 135 156
119 136 156
126 142 165
121 138 157
127 144 165
114 129 147
120 136 157
117 133 152
115 132 151
122 139 158
119 135 156
124 140 162
117 131 151
112 129 148
108 123 141
111 127 146
106 124 141
57 91 78
35 84 54
28 75 43
29 79 47
29 78 45
27 76 44
31 83 47
29 80 46
28 76 44
30 82 48
28 76 44
27 74 43
30 82 48
26 71 41
30 82 47
31 83 48
31 83 48
28 77 44
29 78 44
28 76 44
26 73 41
27 73 42
27 73 42
67 86 92
107 127 140
112 127 146
109 123 145
107 121 141
103 118 134
98 110 133
101 120 135
100 117 134
106 123 141
99 116 135
97 114 128
105 121 138
98 113 131
109 127 145
113 130 148
106 123 141
105 122 142
105 123 137
105 121 135
101 118 133
92 111 123
93 110 124
92 109 121
105 122 136
86 103 114
73 89 93
83 103 109
90 105 113
83 97 107
77 95 100
68 76 72
55 60 40
57 59 38
60 61 39
56 59 37
59 61 39
62 64 40
62 64 41
62 64 41
59 62 40
59 61 39
60 62 39
64 66 42
60 63 41
55 57 37
62 65 42
62 63 40
62 64 40
58 61 39
61 63 40
57 59 38
61 64 41
63 66 42
57 60 38
55 58 37
61 64 40
60 62 40
61 63 40
63 66 47
86 95 97
112 128 145
120 136 156
117 132 150
117 133 155
119 135 152
117 136 153
122 138 159
109 121 141
119 135 155
107 121 139
125 140 161
118 131 149
123 137 155
117 132 152
121 135 155
123 137 155
118 133 151
114 126 141
121 134 155
113 129 148
124 138 161
119 134 152
112 127 145
121 135 156
116 129 145
115 129 149
119 136 156
105 117 136
121 135 153
121 136 156
113 129 147
123 138 160
121 133 154
118 132 154
116 128 149
107 118 138
115 129 148
119 131 153
114 127 148
120 136 157
115 127 150
119 132 153
121 133 153
111 122 141
111 121 139
78 103 112
45 84 88
8 73 71
8 73 71
9 83 81
9 80 77
8 75 73
8 74 72
9 77 75
9 78 76
9 80 77
9 80 78
9 81 79
9 82 79
9 80 77
95 113 178
84 101 159
95 113 177
96 112 165
98 113 148
121 139 164
105 122 145
120 135 155
122 137 159
111 125 149
117 133 153
111 125 148
114 130 152
112 128 149
109 126 148
115 130 151
119 134 156
114 130 152
116 130 152
124 140 162
125 140 162
116 132 156
119 135 157
125 141 165
113 128 147
121 136 158
122 134 156
115 120 144
121 124 147
125 114 138
124 119 143
123 108 132
124 105 130
125 111 136
128 105 132
121 93 120
124 105 130
118 99 129
114 90 124
108 78 110
127 123 150
148 155 186
159 156 190
133 132 179
116 122 159
96 107 142
117 127 159
84 99 161
85 90 179
87 91 154
120 131 137
133 153 157
152 156 168
115 95 105
100 57 64
120 85 92
144 139 145
159 170 190
116 134 151
72 91 145
127 145 186
160 178 208
202 220 242
192 208 232
157 172 194
124 136 159
112 125 147
121 135 157
109 120 141
107 116 137
104 111 132
111 123 143
113 126 145
97 104 125
97 106 123
87 91 113
89 96 112
93 99 117
71 75 93
86 89 113
78 80 100
77 73 96
73 72 93
78 81 101
78 80 97
79 83 101
70 73 92
98 108 127
94 104 123
85 92 109
110 121 142
103 114 131
88 95 114
103 112 132
116 129 148
99 106 125
117 129 151
117 130 153
106 118 137
123 135 156
114 127 149
120 132 154
115 127 148
114 126 149
118 132 152
122 134 154
112 126 149
124 139 161
122 138 159
124 138 159
117 131 153
127 142 165
118 132 154
124 137 157
116 131 152
124 139 160
125 140 162
128 145 166
126 142 163
114 127 148
129 141 162
122 138 159
126 140 161
120 136 156
120 133 153
117 134 156
118 131 153
120 137 156
113 128 150
131 148 169
128 144 164
117 134 154
123 138 158
124 139 160
120 134 153
122 137 157
124 140 161
119 135 156
119 135 153
119 134 155
122 139 160
121 136 157
119 136 156
123 141 161
115 130 150
125 142 162
117 134 155
121 137 157
113 131 149
108 125 144
108 123 143
120 138 159
117 133 152
114 131 151
107 121 138
99 114 131
108 128 141
57 86 74
34 80 50
31 82 47
28 76 43
29 79 46
27 73 42
30 80 46
27 73 42
30 80 46
29 77 44
26 70 41
28 75 44
26 72 41
26 73 42
27 75 43
29 80 45
28 75 44
26 70 40
26 70 40
29 79 45
27 75 42
72 100 95
101 119 134
102 118 134
107 123 140
113 130 148
104 120 140
105 123 140
85 100 114
109 125 144
107 124 142
107 122 140
113 130 148
107 122 142
93 108 125
110 129 146
110 129 144
104 118 137
112 130 146
109 127 144
98 116 129
95 111 126
93 108 121
104 119 135
100 117 132
91 109 118
95 111 122
78 95 102
87 103 117
72 89 97
71 89 96
82 96 106
76 88 95
68 75 71
57 58 39
62 65 42
59 61 39
60 63 40
55 58 37
61 63 41
60 62 39
61 63 40
57 61 39
60 63 40
57 59 38
66 68 44
58 61 39
60 62 40
58 60 39
64 65 41
60 63 41
60 61 39
57 60 38
56 57 37
59 62 40
57 60 38
57 59 38
58 60 38
60 61 39
57 59 38
61 63 40
56 58 37
83 94 95
113 128 141
114 128 146
110 125 141
113 128 148
118 134 150
118 132 150
116 130 151
122 138 159
123 134 154
115 128 146
121 134 153
117 130 151
119 133 152
120 137 156
127 142 163
118 133 152
119 134 152
119 137 154
123 139 160
124 141 162
117 134 154
126 140 163
118 132 152
117 133 151
118 135 154
114 128 148
125 138 158
111 121 140
111 123 140
116 133 151
120 134 154
127 142 163
123 139 157
112 125 143
124 139 159
109 121 143
123 137 158
118 129 149
113 124 147
110 121 142
114 126 147
113 125 143
109 121 140
115 127 147
113 125 146
85 104 118
35 76 79
8 75 73
9 76 73
8 71 70
8 74 71
9 82 81
9 78 76
9 78 76
9 79 77
8 75 74
9 80 77
9 77 75
9 75 75
9 81 79
90 105 163
95 112 174
94 110 171
97 112 160
113 128 160
115 129 150
119 134 156
114 127 148
116 133 153
113 128 149
116 133 155
108 122 144
125 141 164
120 134 154
118 133 154
126 143 165
119 134 156
119 134 159
125 141 164
122 136 159
127 141 164
122 137 158
120 136 157
113 125 145
127 144 168
129 138 161
121 117 141
126 119 143
128 111 135
120 98 124
127 98 126
130 91 119
127 87 116
131 88 118
126 84 114
129 83 114
121 82 113
122 82 113
123 88 117
119 77 117
125 105 129
149 136 164
151 140 173
154 153 191
158 163 202
165 184 207
136 150 171
115 118 164
102 102 174
137 143 200
164 170 197
180 193 208
157 166 176
139 117 128
131 104 114
158 152 167
190 199 218
188 202 228
158 175 205
126 144 188
174 191 221
193 211 238
203 222 248
171 187 211
137 150 172
121 135 157
111 123 145
116 127 149
104 113 135
112 122 145
116 129 151
95 100 122
101 110 130
96 106 125
98 107 126
98 106 126
92 96 117
91 97 115
98 104 122
91 97 114
86 90 109
74 76 95
85 88 108
95 102 120
92 100 116
79 82 99
102 109 128
97 104 124
98 107 124
104 113 133
103 112 134
102 112 133
107 117 137
110 120 140
109 119 139
103 114 133
122 134 153
117 132 152
112 123 142
113 125 145
118 130 150
119 132 155
111 122 143
116 131 152
124 138 159
122 136 158
118 133 154
120 136 155
117 132 150
121 136 157
111 123 141
113 126 146
120 136 157
121 136 158
122 138 157
113 129 147
120 133 154
119 133 155
125 138 159
128 142 164
119 135 156
128 143 166
117 132 153
116 131 152
116 131 152
125 140 159
123 137 159
131 148 170
119 137 156
118 133 156
124 141 161
123 137 157
126 143 164
119 135 157
116 136 155
126 144 166
131 148 170
126 141 162
118 133 152
115 132 152
118 134 153
117 132 150
116 133 151
126 142 162
111 128 146
106 120 137
118 133 152
125 142 164
111 127 147
115 132 150
117 133 155
119 136 157
119 132 150
105 121 138
115 131 150
123 139 160
111 127 144
86 111 114
48 85 65
28 76 43
27 75 42
30 81 47
27 74 43
30 81 48
26 71 41
29 80 46
26 72 41
28 77 43
27 73 42
25 68 39
28 77 44
27 72 41
25 68 40
27 74 42
27 72 41
26 72 41
40 79 55
43 78 58
79 100 105
111 130 146
102 116 134
105 121 138
113 130 149
104 120 139
111 129 147
104 120 137
106 121 139
104 122 138
115 131 149
109 124 141
103 119 136
109 127 141
109 128 145
109 122 143
101 120 138
110 126 144
104 118 137
111 129 144
107 124 141
88 102 120
96 116 131
100 121 132
88 103 115
86 105 115
86 102 117
95 110 123
88 106 117
76 92 101
85 100 109
64 79 83
70 81 76
58 61 44
56 58 37
60 62 40
55 58 37
57 59 38
58 61 39
57 59 38
58 61 40
60 63 40
63 64 41
60 62 40
58 60 39
57 60 38
59 61 38
59 61 39
60 62 40
58 60 38
61 64 41
54 57 37
58 60 39
59 62 39
56 58 37
59 61 39
56 59 37
56 59 37
57 59 38
58 60 39
74 82 82
87 94 98
110 124 139
120 136 156
117 132 149
110 125 143
111 126 146
114 129 149
118 132 152
121 135 155
119 133 151
112 126 145
123 138 158
127 144 164
110 124 142
119 133 154
116 130 150
120 131 151
111 123 143
117 133 150
121 135 157
124 140 162
119 135 156
129 145 167
124 139 158
120 134 155
123 138 157
116 133 151
121 136 159
121 134 153
130 142 164
120 134 154
117 130 149
115 130 150
117 126 145
115 130 149
112 128 146
120 135 155
118 131 148
114 129 146
112 127 148
101 111 128
119 135 152
108 118 138
124 138 156
110 118 139
117 132 151
71 92 104
56 86 92
8 73 71
8 75 73
7 66 64
9 77 75
8 75 72
8 76 74
9 79 77
8 74 72
8 72 70
8 75 71
8 75 73
8 73 71
8 69 67
86 104 160
87 104 164
89 107 165
102 117 154
97 111 136
109 122 140
109 123 144
101 115 135
109 125 148
117 131 150
101 116 138
124 141 165
118 131 153
108 124 147
109 123 146
121 139 163
122 138 161
125 140 162
120 137 159
114 126 146
122 134 155
121 132 153
115 128 149
122 135 157
122 129 152
118 118 140
122 107 132
117 91 118
123 88 117
126 85 115
123 83 113
127 84 114
129 82 113
125 80 111
127 82 113
127 80 110
126 81 112
127 81 113
124 79 109
121 78 108
120 81 112
134 110 136
144 124 152
147 132 158
160 159 184
172 180 201
168 175 195
149 152 179
165 175 208
183 196 231
200 216 243
214 231 254
206 220 242
191 201 221
190 198 218
198 206 227
203 216 238
211 228 253
188 205 234
193 211 239
202 220 247
207 227 253
187 206 232
161 178 202
127 141 164
118 133 153
122 136 154
119 131 154
114 126 146
123 135 155
111 121 142
98 107 127
112 122 143
92 100 122
104 115 134
102 112 131
105 113 135
104 112 130
91 100 119
98 105 124
89 93 112
85 90 108
86 90 111
90 96 112
100 110 129
89 97 119
101 109 128
103 112 130
90 98 118
105 115 136
108 117 137
102 111 127
112 124 144
115 127 149
117 128 149
110 123 144
114 127 147
114 126 144
123 136 158
126 139 162
115 130 149
115 128 150
119 132 154
121 136 157
115 128 148
122 139 161
115 129 148
121 138 156
122 136 159
123 138 159
122 138 158
126 142 163
121 136 156
123 139 160
123 138 158
129 146 168
126 142 162
126 141 163
119 134 155
116 131 152
123 139 160
127 145 167
124 141 160
119 136 158
123 141 161
125 140 161
121 136 158
128 145 165
118 133 153
119 133 151
121 138 159
121 137 156
121 136 158
119 134 154
118 134 156
123 140 162
119 134 155
124 140 161
124 140 161
127 144 164
118 134 152
118 134 156
115 131 151
112 128 146
121 135 156
117 132 151
111 126 146
120 137 158
119 137 158
120 137 156
108 124 141
101 115 133
123 137 159
113 130 148
113 129 149
108 122 140
109 124 142
112 126 147
88 107 116
61 87 82
26 71 41
25 69 39
29 79 45
28 74 42
28 75 43
27 74 42
26 70 40
24 66 38
26 70 40
23 65 37
27 74 42
28 75 43
29 79 45
27 72 41
27 73 42
21 61 34
70 91 92
85 107 112
97 112 126
103 123 137
109 124 143
99 117 134
112 126 145
108 126 143
108 123 140
106 123 137
115 131 149
107 123 141
104 121 138
111 125 143
97 114 128
106 120 138
100 114 130
105 121 138
86 103 122
97 110 130
99 117 136
90 107 129
88 106 123
102 118 138
93 109 123
82 101 117
90 111 120
98 114 129
105 120 136
89 108 116
105 122 137
103 119 134
97 112 126
83 96 106
90 102 109
62 70 57
57 59 38
57 60 38
55 57 36
57 59 38
59 62 39
56 58 37
60 63 40
55 57 37
60 63 40
57 59 38
55 57 36
55 57 36
57 59 37
59 62 40
53 56 36
59 61 40
58 60 39
61 63 40
56 58 37
60 63 40
56 58 38
59 62 39
59 62 39
55 57 37
58 61 39
54 56 36
68 70 63
100 112 123
110 126 141
115 131 150
114 130 144
115 130 149
122 138 159
119 134 154
114 131 147
115 128 149
128 146 167
115 132 149
126 142 163
123 141 160
115 132 149
129 145 165
118 134 154
111 126 142
123 138 158
120 135 153
123 138 160
116 129 149
113 124 142
119 135 155
120 136 158
126 142 163
110 122 141
119 134 154
118 132 154
117 131 152
123 138 159
114 127 146
112 124 143
116 132 155
120 133 155
115 130 147
122 137 158
114 128 145
110 126 143
116 133 152
120 134 154
110 125 143
109 121 140
110 122 144
112 123 141
121 137 161
106 120 137
90 112 125
46 82 84
20 71 70
7 67 64
8 75 73
8 75 73
8 70 68
9 78 76
8 74 72
9 78 76
9 78 75
9 78 77
9 80 79
8 72 69
8 72 70
83 100 156
88 105 166
96 112 161
98 112 151
108 123 149
110 124 145
109 124 143
113 127 146
117 135 157
118 135 155
114 127 149
118 133 156
116 129 151
111 124 147
114 131 150
120 134 157
120 134 156
115 130 155
117 131 151
118 134 156
111 125 149
114 129 151
126 137 159
111 115 137
124 114 139
121 96 123
118 85 114
122 82 110
125 81 113
122 79 108
130 84 115
127 82 112
129 81 111
123 79 110
125 81 112
124 80 110
127 81 111
125 78 108
125 80 112
124 80 110
119 77 107
123 84 113
128 94 122
127 106 125
138 133 151
169 176 193
173 183 203
194 209 228
199 213 236
209 226 250
214 231 255
212 229 253
210 227 252
207 224 248
204 220 244
206 223 248
210 229 254
204 222 248
209 228 254
201 221 248
204 224 252
192 212 240
166 183 209
139 155 180
126 140 161
123 135 156
105 114 136
113 123 148
110 119 144
113 126 149
115 127 149
109 119 139
106 115 136
122 135 154
100 106 132
114 127 148
112 124 147
90 96 118
101 110 129
104 112 133
96 101 124
92 100 117
106 116 138
102 110 131
105 114 135
93 99 120
110 119 140
103 113 135
97 105 125
102 113 131
112 123 145
121 134 158
110 120 141
114 126 148
109 123 142
113 126 147
112 126 144
123 136 159
116 130 152
114 127 149
121 136 157
119 133 157
121 136 156
125 140 162
117 130 152
117 130 151
129 146 168
119 134 154
119 132 150
126 142 163
115 130 152
118 133 156
123 138 159
123 136 159
120 134 154
129 145 168
114 130 149
123 138 158
126 140 161
121 138 160
127 142 165
127 145 164
122 136 156
125 139 161
121 137 156
120 137 156
124 138 162
128 144 164
119 135 153
116 130 150
125 142 163
121 137 157
115 131 149
125 140 162
125 144 165
123 139 159
132 149 173
116 134 157
116 131 151
123 140 160
105 122 139
115 130 150
120 135 155
118 135 153
124 140 160
119 137 157
110 127 145
115 133 153
119 137 153
117 132 153
117 133 152
114 130 147
119 136 154
118 134 155
99 114 132
107 122 140
107 125 140
103 117 135
102 118 134
88 103 116
64 92 86
34 80 51
26 71 41
24 66 38
25 67 38
25 69 40
25 68 39
27 74 42
26 69 40
27 75 43
26 71 41
25 68 38
24 65 37
24 66 38
36 69 50
71 92 93
78 95 101
106 123 139
112 127 146
111 127 145
92 108 122
111 127 146
114 129 147
111 129 146
108 124 141
107 124 141
113 129 146
100 117 131
97 117 129
104 121 138
111 128 148
103 120 139
103 121 142
91 108 135
77 92 120
80 96 130
74 90 125
76 93 128
86 103 134
77 92 131
88 105 129
89 108 133
83 100 126
95 116 133
106 123 142
96 114 128
100 116 133
106 122 138
99 120 129
102 121 132
89 103 111
60 72 61
54 55 35
53 55 35
55 58 37
56 58 37
58 61 38
55 57 36
57 59 37
58 60 39
60 62 40
60 62 39
58 60 39
58 61 39
57 59 37
52 55 36
55 57 36
53 55 36
55 58 37
54 56 36
60 63 40
61 63 40
55 56 36
58 61 38
57 59 38
57 59 38
59 61 39
56 58 38
87 93 97
98 116 128
105 121 135
122 141 160
122 134 154
122 139 158
114 131 148
117 134 151
119 134 151
124 141 162
107 123 140
124 140 162
119 136 155
111 128 145
107 123 139
118 136 154
112 128 147
117 131 149
111 127 145
118 134 154
113 127 144
116 129 148
118 131 149
121 137 155
126 140 158
123 138 160
121 136 156
118 134 151
113 126 146
117 134 151
111 126 145
119 133 154
120 138 156
124 142 160
116 130 150
117 130 147
110 124 140
126 140 163
123 140 161
125 141 161
121 134 154
123 136 157
119 134 152
120 135 156
116 129 149
116 129 150
115 128 151
96 109 127
77 100 110
20 69 68
8 77 72
7 67 64
8 73 71
8 75 73
8 71 69
8 73 71
9 79 76
8 76 74
8 73 71
8 75 72
8 69 67
8 74 73
83 98 156
91 106 164
94 108 148
106 122 149
106 120 143
111 125 144
122 139 164
116 130 150
113 126 148
121 137 162
113 129 152
114 128 150
114 129 149
116 131 153
112 128 151
119 133 153
117 133 153
119 132 154
120 135 157
119 134 156
124 137 158
113 122 144
121 120 144
122 111 137
122 97 122
122 85 113
125 80 111
124 79 110
118 77 107
121 77 108
124 80 109
119 77 107
122 78 109
126 80 110
126 79 110
120 77 108
123 79 110
125 80 111
123 78 108
121 77 107
123 79 110
122 78 110
124 79 110
115 74 104
123 98 125
137 124 148
173 177 201
187 200 224
208 226 252
207 227 253
211 230 255
204 223 249
210 228 254
206 226 252
207 226 253
205 225 252
207 226 252
207 227 254
200 221 249
201 222 250
190 211 239
175 196 224
140 157 181
128 143 166
117 130 152
122 136 159
111 123 145
128 142 164
114 126 149
108 120 142
128 143 166
114 124 145
116 129 151
116 128 147
110 120 144
114 125 147
104 114 137
120 133 155
120 133 154
102 112 133
113 123 144
109 119 141
107 116 137
98 108 127
104 115 136
110 120 143
114 126 146
120 131 154
108 123 141
123 135 156
117 127 150
110 121 142
106 115 135
115 129 150
112 125 144
125 136 158
121 134 154
119 135 155
124 139 159
122 137 159
109 125 146
120 135 155
122 137 158
123 139 159
120 134 156
127 144 163
128 141 163
120 132 151
120 134 155
130 147 168
126 144 164
120 135 156
121 136 156
130 146 168
116 132 151
115 128 148
124 140 161
125 142 166
124 137 158
121 137 158
128 142 164
119 135 157
116 131 148
123 138 158
119 134 156
119 135 157
117 133 153
122 136 161
115 129 146
118 133 155
125 139 160
119 135 154
120 138 158
116 133 155
127 142 162
119 136 156
126 139 159
119 134 155
126 142 162
123 139 160
114 127 145
120 137 159
119 136 157
116 132 152
115 131 151
118 135 154
114 127 145
110 125 144
112 127 147
112 128 145
113 128 147
117 130 149
118 133 151
107 125 142
101 117 131
115 130 147
98 113 129
109 124 142
95 112 124
97 112 127
98 115 124
72 93 95
51 79 66
33 72 47
25 67 38
23 62 35
27 72 41
26 70 39
25 68 39
26 70 39
30 67 43
21 58 33
31 63 44
59 88 78
63 81 84
88 104 112
87 102 115
94 108 124
98 108 124
92 111 122
92 109 123
94 111 125
105 120 138
105 121 137
101 119 135
101 117 132
96 111 126
115 128 149
93 107 125
99 116 140
97 111 137
82 100 130
58 75 117
63 79 120
50 65 112
65 86 129
40 64 119
54 73 122
45 66 117
44 65 114
64 84 127
65 81 114
83 103 137
72 89 122
70 95 114
83 99 121
98 114 132
108 122 141
104 119 134
104 123 136
107 120 137
91 104 112
62 67 60
55 57 36
55 56 36
57 59 38
59 61 39
55 57 36
54 55 35
56 58 37
57 60 39
59 62 40
60 62 40
56 57 37
60 62 40
57 59 37
53 55 35
59 62 40
59 62 39
55 57 36
57 59 38
56 58 37
55 57 37
54 55 35
55 58 36
54 56 35
58 60 38
61 62 47
80 87 89
112 127 141
114 130 147
107 125 140
115 133 150
120 136 154
115 131 149
116 133 151
124 139 159
113 128 147
113 129 147
123 140 158
112 130 144
125 145 164
118 133 150
119 134 155
116 131 150
118 135 154
118 136 157
121 137 158
121 135 155
114 129 149
115 130 147
113 126 145
108 121 139
115 131 150
121 137 156
119 137 159
117 129 151
117 129 149
117 132 152
124 139 159
121 137 156
123 138 158
126 139 159
116 129 149
110 123 140
126 142 160
125 140 163
115 129 148
123 137 158
124 140 160
124 142 162
118 135 153
111 124 145
121 132 151
122 136 158
110 126 143
80 100 112
8 71 69
8 69 67
8 73 70
8 73 71
8 71 69
7 67 65
9 76 74
8 73 71
9 78 75
8 73 71
8 71 70
8 73 72
8 71 70
85 99 155
89 107 157
97 112 141
107 121 144
116 130 150
107 120 142
114 129 152
112 124 144
107 123 144
99 114 135
111 127 147
115 129 152
110 126 145
113 129 151
109 122 142
112 128 151
113 126 149
120 135 159
122 139 161
117 131 152
111 122 144
114 106 129
123 114 140
123 94 122
119 78 107
113 73 101
120 78 108
111 71 99
125 81 112
122 79 110
119 76 106
122 78 108
124 80 112
120 77 109
126 80 109
124 79 110
115 73 104
117 76 109
121 78 109
115 74 103
113 73 104
113 73 103
112 71 104
113 71 100
111 75 102
116 84 111
149 137 163
176 183 209
184 197 223
200 219 248
195 214 244
196 214 245
201 221 249
194 213 244
197 217 246
196 215 246
201 221 250
196 217 245
190 213 244
190 213 243
173 195 223
152 170 196
125 140 164
120 132 151
117 131 152
120 134 156
129 144 168
125 140 161
115 127 147
112 124 146
124 137 159
116 129 152
119 133 155
107 120 140
113 126 146
115 125 144
117 130 152
126 141 161
114 126 148
107 117 137
113 126 149
116 130 150
119 133 155
114 126 148
114 127 149
115 128 151
114 126 145
113 124 145
115 126 149
121 135 157
124 136 157
109 121 142
117 130 152
126 141 165
124 139 160
120 135 157
112 123 146
113 124 144
118 132 152
125 141 162
130 147 169
119 133 153
122 136 157
121 136 157
119 133 154
125 138 159
131 149 171
127 141 165
125 141 165
124 140 161
122 136 157
119 133 156
127 141 163
121 137 157
124 140 160
121 136 158
116 130 151
132 151 172
127 141 166
124 141 164
119 135 157
128 144 165
121 138 159
125 137 159
117 133 153
123 138 158
125 141 161
121 138 159
126 142 161
124 140 162
116 129 148
128 144 166
123 139 159
124 140 160
132 149 171
119 136 155
120 134 156
117 132 152
117 133 152
118 133 153
121 138 156
117 133 153
125 140 162
126 141 161
120 135 157
120 135 154
109 123 144
114 129 147
120 136 153
121 137 157
116 132 151
120 137 155
103 115 137
119 134 153
105 121 137
115 130 146
104 118 135
112 127 144
99 112 128
108 123 136
89 103 113
81 93 104
74 92 97
62 82 78
63 80 79
37 64 51
29 62 41
36 65 48
30 62 43
36 64 52
38 69 53
54 72 68
60 81 77
80 94 105
89 106 114
104 119 134
99 112 127
84 99 111
94 108 122
95 109 121
105 120 136
110 126 143
112 126 145
107 125 139
98 116 132
112 127 145
102 119 134
102 117 138
99 113 139
78 95 125
87 103 138
49 68 116
50 68 115
34 57 115
30 54 116
29 54 117
22 50 116
22 50 115
22 50 116
22 49 113
30 53 115
47 67 119
30 55 112
60 76 121
73 89 126
83 98 125
83 102 132
98 116 136
110 123 143
105 119 135
112 126 143
87 97 105
73 81 79
49 52 39
50 53 34
56 59 38
54 56 36
52 54 34
56 59 37
59 61 39
51 53 35
55 58 37
56 58 37
59 60 39
51 53 34
55 58 37
56 58 37
57 58 38
57 59 37
59 61 39
52 54 34
55 57 36
59 61 39
53 56 36
56 56 36
55 58 37
56 58 37
62 70 65
84 95 102
107 125 136
108 128 142
112 127 146
119 135 155
107 121 136
119 137 156
111 128 144
121 135 155
108 124 138
129 145 166
122 138 158
117 135 152
126 143 164
117 134 151
120 134 156
121 138 156
119 134 154
121 137 155
127 143 161
115 132 151
110 125 145
121 135 157
119 133 154
117 133 152
121 135 155
114 131 151
121 137 158
111 127 146
106 122 141
123 139 158
121 137 154
117 132 151
110 126 143
121 134 152
120 137 157
122 136 157
120 134 153
121 133 152
127 143 162
120 135 157
120 135 153
116 130 149
121 137 156
102 116 134
117 131 149
119 134 155
111 123 142
96 116 132
61 90 97
7 66 64
9 76 73
8 73 70
8 69 67
8 75 73
8 71 69
9 79 76
9 76 75
8 72 70
8 75 73
8 72 70
8 67 66
86 98 142
97 112 143
99 114 140
105 119 141
108 124 146
102 115 136
115 129 151
112 126 148
113 127 148
117 133 156
102 117 139
114 128 152
123 138 160
110 126 148
113 128 152
117 131 151
117 132 156
112 128 153
114 129 149
111 125 145
118 122 146
118 111 135
117 88 114
120 80 109
118 75 105
117 73 100
112 73 102
122 79 109
121 77 107
124 78 108
116 73 101
117 74 104
121 76 107
114 74 105
125 80 111
118 75 105
114 72 102
115 74 106
115 74 104
110 70 101
119 77 107
114 73 104
113 72 101
112 71 101
112 72 102
118 80 109
128 106 135
147 144 175
163 170 209
184 201 238
192 211 245
166 179 224
169 182 226
175 191 232
165 180 222
176 192 232
164 180 221
171 189 230
162 180 218
161 180 207
134 149 177
125 138 160
116 131 150
120 135 156
118 133 156
127 141 164
119 133 155
120 136 158
123 136 158
119 132 152
117 129 153
120 132 154
122 135 157
122 135 158
117 131 152
114 130 149
119 133 154
114 126 148
108 119 139
119 132 155
121 135 157
121 135 156
111 123 145
112 125 145
111 125 143
119 130 152
120 133 153
124 139 158
117 132 154
123 139 160
116 130 153
122 134 155
122 138 160
113 128 149
127 142 163
118 132 153
123 136 156
125 140 164
121 136 157
125 140 162
124 137 160
124 138 160
120 135 159
122 136 158
122 135 158
117 130 150
122 139 158
122 138 160
129 145 167
130 144 165
117 132 154
128 144 166
123 139 159
125 140 160
131 146 166
125 138 160
123 138 161
114 128 147
133 150 173
118 132 152
113 127 146
126 140 162
119 136 157
122 138 160
126 141 163
127 140 162
126 140 161
123 138 159
125 141 162
125 142 165
123 138 160
121 136 158
118 134 155
126 143 164
123 139 159
121 138 160
112 127 146
113 129 149
123 140 158
123 139 160
124 139 157
116 131 152
117 130 148
120 135 156
112 128 148
119 137 158
118 135 151
122 139 159
111 124 143
108 126 142
114 131 149
100 113 127
95 109 127
104 119 136
109 124 139
101 116 131
100 113 128
103 117 131
96 112 124
107 119 132
108 121 135
76 88 96
96 109 120
94 105 116
93 105 115
67 79 86
57 71 75
75 86 91
42 61 60
69 80 88
89 100 106
88 101 112
79 87 97
91 104 113
88 101 112
83 93 106
82 98 108
86 99 109
96 112 123
85 103 111
112 126 143
100 115 128
95 111 126
107 120 137
106 122 139
115 131 149
99 119 135
95 112 141
69 83 114
52 70 118
35 57 117
35 57 115
22 49 113
21 49 113
21 47 109
21 49 113
22 50 116
21 48 110
22 50 116
22 49 114
22 49 115
21 48 112
31 54 115
22 49 114
36 58 113
51 70 117
73 89 121
91 106 135
99 117 138
112 131 149
118 136 151
107 120 138
80 87 88
56 61 49
52 54 34
52 54 34
54 56 35
54 56 35
52 54 35
50 52 34
55 57 36
53 55 35
57 59 38
54 56 36
57 59 37
60 62 40
54 56 36
53 56 35
56 58 37
55 55 36
61 63 40
53 55 35
57 59 38
51 54 34
54 56 35
57 59 38
53 53 36
76 83 84
103 118 128
111 131 147
109 125 143
108 123 140
112 126 145
118 135 154
120 135 157
120 136 155
109 126 145
122 141 161
117 132 149
119 133 153
109 128 144
108 123 138
123 140 162
123 139 160
117 131 152
119 135 157
118 136 154
126 142 163
118 135 151
113 127 144
117 134 154
111 130 146
118 135 153
122 139 158
119 134 153
118 132 151
120 135 156
120 136 156
122 136 157
119 133 154
120 134 154
130 147 168
118 131 151
113 129 147
114 129 147
115 131 148
116 131 152
119 133 152
101 111 128
116 132 154
121 138 157
116 131 151
117 134 153
108 119 139
113 130 148
126 141 161
116 132 151
85 102 113
47 79 82
7 66 65
8 68 66
8 70 68
7 66 64
8 71 68
8 72 70
8 71 69
8 69 66
8 75 73
8 72 70
8 74 72
97 112 144
103 116 139
102 114 135
102 115 137
97 113 136
110 125 147
103 118 141
118 134 158
109 122 143
107 121 144
111 126 151
107 123 146
125 141 165
121 134 155
111 126 146
114 131 154
123 139 163
117 132 156
114 124 146
120 123 145
121 108 130
120 92 115
120 78 106
119 78 107
117 75 103
123 79 109
114 72 100
115 74 104
116 74 102
111 71 99
119 77 107
122 77 108
121 77 108
120 77 108
112 70 100
114 72 100
124 79 111
111 71 103
116 72 101
122 77 108
118 76 107
125 80 112
108 70 101
109 70 102
116 76 112
116 79 126
105 75 128
131 119 165
138 138 190
141 147 201
154 165 216
144 153 209
134 139 205
147 156 212
134 140 204
133 139 202
131 139 199
135 145 198
136 148 200
124 136 175
113 123 156
127 140 169
124 140 163
113 127 150
121 134 155
121 132 153
119 132 154
115 129 152
113 127 147
120 136 158
122 136 157
116 131 153
125 141 165
119 133 153
123 133 154
125 141 164
118 131 151
118 129 153
120 134 155
119 134 156
114 126 146
122 136 157
118 131 152
113 127 148
120 135 157
112 127 147
115 129 149
119 133 155
114 126 149
122 137 160
111 124 143
114 128 147
127 142 163
122 136 159
128 144 167
123 138 157
124 137 160
123 138 160
130 145 167
120 135 157
120 135 157
116 130 146
119 135 154
113 126 146
124 140 163
126 140 159
127 144 166
124 139 161
119 132 155
123 140 163
122 136 157
125 142 161
125 141 162
122 135 157
130 145 167
123 140 163
126 141 163
126 137 157
117 131 151
121 135 154
131 147 171
120 136 157
123 139 161
119 133 152
119 135 153
120 135 158
121 137 155
121 137 160
124 140 160
125 140 161
120 133 154
120 135 154
126 141 162
124 140 160
129 146 168
130 146 168
127 143 164
123 140 162
128 144 163
126 143 166
119 136 157
120 137 156
125 140 160
129 146 168
118 133 151
120 136 155
118 133 152
116 132 149
102 117 133
124 138 159
120 137 155
113 128 146
119 135 152
119 134 152
112 127 145
107 123 140
108 122 138
92 104 118
109 123 140
95 107 123
80 94 104
84 97 108
95 107 118
84 96 106
77 89 96
78 86 97
76 89 95
82 92 101
75 83 94
79 89 100
80 90 100
77 91 95
72 84 88
76 90 97
91 104 114
95 107 117
93 103 114
90 106 115
96 111 123
100 114 129
110 122 142
108 121 141
99 114 128
108 120 136
102 116 132
110 126 149
87 101 132
57 77 110
34 55 109
29 51 110
21 47 109
22 49 114
21 49 114
21 48 111
21 46 108
21 47 110
21 47 109
22 50 114
21 48 111
22 49 113
22 49 114
22 49 115
21 48 110
22 48 111
21 48 111
29 52 112
40 59 111
59 77 120
63 82 123
99 116 142
102 116 136
112 126 143
102 117 127
72 84 84
57 63 50
49 51 32
48 50 31
51 52 33
53 55 35
55 57 36
51 53 34
52 54 34
58 59 37
52 53 34
57 58 37
52 54 34
50 52 33
52 54 34
53 55 35
57 59 37
51 53 34
55 58 37
56 58 37
50 53 34
52 54 34
49 51 32
73 80 81
96 110 118
107 124 138
112 128 145
115 131 147
117 134 151
114 130 151
102 118 135
106 124 139
114 133 149
119 132 150
116 132 150
116 132 151
118 133 154
122 138 157
112 127 144
112 128 145
126 140 160
129 145 166
121 138 159
120 136 155
128 144 165
114 128 145
125 139 158
119 134 155
125 141 161
124 138 157
115 126 144
121 136 156
115 129 146
119 137 154
114 130 149
120 137 159
116 132 152
111 128 145
114 128 151
118 134 152
130 146 166
123 139 159
119 133 152
116 131 149
115 129 148
110 126 143
116 127 146
120 138 157
109 123 142
120 136 157
122 137 157
122 136 157
121 136 155
118 133 153
89 108 122
63 92 104
29 71 72
8 71 68
8 72 70
7 62 60
8 70 68
8 73 70
7 68 66
8 70 67
8 67 66
7 67 65
8 69 67
97 109 134
95 109 130
105 119 140
96 110 134
112 126 147
109 125 146
104 119 139
109 124 147
123 139 160
118 134 156
106 120 143
117 134 156
111 126 148
121 136 159
121 138 161
115 129 150
120 135 158
116 132 154
121 130 153
113 109 133
114 91 117
113 77 104
116 74 101
121 77 107
118 75 103
119 77 105
122 78 111
120 76 105
113 72 100
122 77 105
110 71 101
120 76 105
119 75 104
113 73 102
117 72 100
122 77 108
111 71 101
112 73 102
117 75 106
112 71 102
115 73 104
111 72 103
109 68 99
112 73 112
110 76 126
99 71 129
105 76 135
105 87 164
101 91 167
108 108 183
111 110 188
112 111 191
110 107 188
96 91 177
102 97 179
105 102 182
101 96 179
109 111 185
101 103 171
105 107 169
110 116 170
110 117 168
111 122 159
111 122 153
127 141 164
118 135 158
120 133 155
121 136 157
128 145 164
122 135 157
120 135 155
123 137 158
124 137 159
121 137 158
127 143 163
124 137 159
122 136 157
123 136 159
129 144 166
117 128 150
123 139 161
124 139 163
131 147 168
118 130 153
131 148 171
123 139 161
128 145 167
126 141 163
112 127 152
114 125 147
117 130 153
109 120 141
127 141 163
117 131 152
127 142 166
121 137 158
125 141 161
126 143 166
118 131 152
121 135 155
119 133 156
125 142 164
118 133 154
118 133 155
124 140 162
122 140 162
119 134 156
125 140 162
124 137 157
126 141 163
128 143 165
129 146 169
131 148 168
123 138 159
125 141 162
124 141 160
127 142 165
124 141 162
122 136 158
125 141 161
126 142 165
129 144 167
113 127 147
120 134 156
113 128 146
127 142 164
132 147 170
120 135 157
128 145 168
123 140 161
122 137 157
123 141 161
129 145 166
117 133 153
121 138 158
129 145 167
118 135 155
124 139 159
129 144 165
125 140 160
121 137 159
114 130 152
121 138 157
123 138 160
122 138 159
121 136 157
124 139 160
111 129 146
113 128 146
115 131 148
114 130 149
121 138 157
101 116 130
120 133 152
108 123 140
107 121 136
106 120 138
101 117 129
106 123 137
100 114 130
104 118 133
87 99 109
95 107 120
98 112 125
85 96 105
84 97 106
90 102 112
105 119 131
72 86 92
104 116 128
85 97 107
85 99 110
105 118 130
90 106 115
93 107 119
110 122 138
93 107 118
99 113 125
88 104 116
102 117 132
105 118 130
108 124 138
102 119 132
98 114 130
86 100 116
88 104 128
61 76 117
37 60 117
21 47 108
20 46 109
21 47 109
21 48 111
20 46 105
22 50 114
22 49 113
22 49 113
22 49 114
21 47 110
21 49 113
22 49 113
22 49 113
21 47 110
21 47 110
21 47 108
21 47 110
22 49 112
21 48 112
22 49 113
71 89 131
77 94 131
98 113 139
119 136 157
106 125 137
83 94 104
61 68 64
51 56 41
52 53 33
57 59 37
52 54 34
52 53 34
52 54 34
53 55 35
57 58 37
53 56 35
51 53 34
52 54 34
55 56 36
52 54 35
56 57 36
57 59 37
55 57 36
50 53 34
49 52 33
56 58 36
57 59 37
69 76 76
83 94 98
99 109 120
110 127 141
112 131 147
115 130 149
104 119 134
117 134 155
119 137 155
107 124 142
121 136 155
121 138 157
118 136 154
112 129 146
118 134 153
122 139 160
119 134 154
123 139 158
116 132 151
118 132 151
126 142 164
115 129 148
125 140 160
119 137 157
122 136 153
120 131 152
121 140 159
116 134 154
115 129 148
117 129 150
116 130 149
116 131 148
113 127 148
113 128 146
117 129 147
113 125 143
114 130 151
113 130 149
115 130 147
107 125 142
118 129 147
115 129 146
110 122 141
110 126 145
126 142 162
118 133 154
116 130 149
112 127 146
115 131 151
122 139 161
119 132 152
116 133 152
118 133 151
96 114 128
45 79 81
8 69 67
7 62 59
7 65 63
7 63 60
7 62 61
8 75 72
7 65 62
8 67 65
8 73 71
19 76 70
96 110 131
107 119 141
94 106 130
98 111 133
99 111 129
105 117 139
96 110 131
106 118 140
104 116 138
106 121 144
111 125 145
117 133 156
103 117 139
116 129 150
114 129 153
111 126 149
118 135 158
105 116 140
118 119 140
111 92 117
109 77 103
120 77 106
111 70 98
107 69 94
117 76 103
120 75 105
114 72 103
117 75 103
123 78 109
109 67 93
116 72 100
118 74 103
114 73 102
116 74 103
107 68 99
111 68 98
110 68 98
107 69 99
108 68 98
109 70 102
109 69 98
115 73 103
116 76 117
100 74 136
99 75 143
94 75 148
94 79 162
89 76 156
93 81 171
92 85 172
90 81 175
95 84 178
94 83 177
91 82 175
94 83 177
92 83 175
94 88 180
91 83 171
96 91 177
91 84 172
97 92 175
104 106 166
106 110 167
117 128 161
106 115 144
114 127 149
120 134 155
124 137 158
119 131 154
122 137 160
123 139 162
128 144 166
128 141 164
122 136 159
119 134 156
122 137 159
125 141 165
127 138 160
122 136 157
127 140 161
121 136 159
122 134 153
121 135 154
120 134 157
120 133 153
125 139 161
127 144 167
119 129 150
124 140 162
125 138 160
131 148 170
123 138 159
125 140 163
126 141 164
121 135 155
129 144 165
122 136 159
119 134 156
122 137 158
115 128 150
124 139 161
126 142 165
119 134 158
125 140 162
127 144 166
130 145 166
116 130 152
132 147 170
124 140 159
122 137 157
124 140 160
128 143 164
126 140 162
122 136 159
126 142 165
127 142 162
127 142 163
125 141 163
121 136 157
135 152 175
121 134 156
125 141 165
116 131 149
124 139 161
125 139 160
132 146 169
126 140 163
119 133 153
130 147 168
123 136 157
127 142 163
119 134 158
122 138 159
117 131 153
127 143 166
116 132 151
121 137 157
125 141 163
115 129 151
112 125 143
130 146 167
115 130 148
111 126 146
123 139 160
116 129 150
120 134 152
124 141 158
120 136 155
109 125 143
112 127 146
117 132 150
114 130 149
112 126 146
120 136 154
111 126 143
115 129 146
118 135 153
115 131 147
95 110 124
105 119 133
102 116 134
99 112 127
92 108 118
107 122 137
80 93 101
84 100 107
93 108 118
95 107 119
87 100 114
80 96 102
112 126 141
94 104 118
90 103 114
95 107 121
88 99 107
105 118 132
112 127 143
103 117 132
97 111 125
91 107 120
98 110 126
104 118 133
106 125 137
97 112 132
79 92 121
52 68 111
52 70 117
33 55 111
22 49 113
21 48 112
20 47 108
21 47 108
21 48 111
22 48 109
22 49 113
21 48 110
21 47 110
21 48 112
21 49 115
21 48 111
21 48 111
20 47 108
21 48 112
21 47 109
21 48 112
21 47 109
20 47 109
20 45 104
25 47 107
47 66 106
82 100 130
89 106 129
98 113 134
100 111 125
85 98 103
61 67 65
46 48 30
51 53 33
55 56 36
52 53 34
48 49 32
53 56 35
51 52 33
49 50 32
52 54 35
49 51 32
55 57 36
48 50 32
52 53 34
54 56 35
51 52 33
53 55 35
49 49 31
51 53 33
64 70 66
86 95 101
103 111 125
109 126 142
119 136 152
106 124 139
114 132 149
111 124 142
117 133 150
115 129 149
111 125 142
110 125 142
117 131 149
116 133 152
112 128 147
115 128 147
116 131 151
113 128 146
117 132 149
119 136 157
114 128 146
118 134 151
131 147 168
117 134 153
120 134 153
121 137 158
124 138 159
112 128 148
123 137 155
121 135 154
120 135 156
123 137 157
111 127 145
111 124 141
106 117 135
123 140 160
124 139 161
119 132 151
116 129 147
114 128 146
118 137 155
123 137 158
106 120 135
117 131 149
123 138 157
118 133 151
121 139 157
113 128 145
106 116 131
120 135 153
107 118 138
110 125 141
117 131 148
115 128 148
102 116 133
79 99 110
47 74 76
27 70 70
7 65 62
8 69 67
7 62 61
7 64 63
19 73 68
39 83 66
45 89 67
48 93 69
107 122 143
110 124 147
93 107 125
109 121 145
108 123 145
96 109 132
106 121 144
108 121 143
108 121 142
102 118 138
113 128 152
116 129 152
123 138 160
119 135 159
118 134 157
108 122 144
109 122 143
109 116 141
120 112 135
117 96 121
112 77 105
116 74 101
114 74 103
115 74 102
109 71 99
119 76 104
120 77 107
110 71 100
122 76 105
113 70 98
108 67 94
116 73 103
117 73 103
113 72 101
114 71 98
115 73 101
112 71 100
110 72 102
106 68 97
103 67 95
101 66 108
107 74 121
105 73 126
101 77 145
90 74 153
92 80 169
92 79 166
89 79 168
87 78 168
93 84 180
90 80 171
92 81 170
91 81 173
88 79 170
93 84 177
91 82 176
92 82 174
89 81 172
90 82 177
92 83 177
86 77 165
91 86 165
100 100 169
102 108 157
103 108 164
111 123 155
120 133 160
116 129 152
118 132 154
132 148 169
120 134 155
125 139 160
130 145 167
122 139 162
129 141 161
130 143 165
119 132 152
126 142 162
121 134 156
124 141 161
110 124 142
115 128 150
122 135 158
122 136 158
118 130 152
121 135 156
122 137 158
127 142 164
120 134 155
118 133 153
123 137 160
116 132 155
130 146 167
129 146 169
134 149 170
124 138 160
122 136 159
120 136 156
119 134 156
126 140 161
123 138 160
125 140 160
128 143 164
130 147 170
120 134 154
128 144 166
129 144 165
125 140 163
133 149 172
123 138 159
131 147 168
126 140 160
127 141 165
129 144 165
125 141 162
128 143 165
129 145 166
126 141 162
124 139 162
124 139 158
129 144 166
125 139 159
115 130 150
126 141 165
121 136 158
117 131 149
126 140 162
126 142 163
128 142 162
127 143 165
126 143 163
125 139 160
125 142 164
130 146 168
111 125 143
121 136 155
124 141 161
118 132 152
121 139 160
123 140 159
115 132 152
126 141 163
118 135 156
119 137 155
115 131 154
115 128 146
125 143 160
123 140 161
126 138 159
115 130 148
111 128 145
122 138 157
122 136 154
124 141 161
116 131 151
112 127 143
120 135 154
117 130 150
109 124 141
104 117 135
117 134 150
105 120 135
106 120 135
111 124 141
115 129 147
106 121 134
103 119 132
109 123 137
96 111 124
97 112 126
104 117 130
114 130 143
97 112 125
110 127 143
112 128 143
108 122 136
103 120 133
113 127 144
93 110 124
101 116 128
103 119 134
97 109 124
111 125 146
75 89 118
71 90 122
34 55 108
26 49 110
20 46 108
21 48 112
21 47 109
21 48 110
21 48 111
22 49 114
21 48 111
20 46 107
21 48 110
21 47 109
20 46 108
20 45 106
20 46 108
20 46 108
22 49 112
21 48 110
20 47 110
21 47 109
20 46 108
21 47 109
20 46 107
20 46 107
29 51 108
66 79 115
83 98 124
86 102 123
97 111 126
98 114 125
82 94 102
70 77 78
54 57 43
47 49 31
49 50 32
48 50 32
55 56 35
49 52 33
46 47 30
55 57 36
53 55 35
50 51 33
50 52 33
49 51 32
48 50 32
46 48 30
50 51 32
50 51 32
64 69 61
78 89 96
98 110 122
112 126 145
114 128 146
115 131 150
112 124 144
105 121 137
119 135 153
114 130 149
120 136 154
119 134 152
118 131 153
111 126 145
115 132 150
118 134 150
106 121 135
109 124 139
119 132 150
127 145 166
114 131 149
124 141 160
120 134 153
114 130 147
121 136 155
127 142 161
123 139 160
122 139 158
122 135 155
123 137 156
124 141 162
124 137 157
124 139 162
113 130 147
123 138 158
120 134 154
124 141 162
120 137 157
112 126 147
117 133 152
112 129 147
115 130 148
113 130 146
107 122 140
109 124 144
127 141 161
115 129 149
109 121 139
123 136 155
112 128 145
109 123 140
109 125 143
117 132 149
122 138 157
114 126 146
116 130 149
100 116 131
81 101 112
49 80 86
19 65 64
22 73 64
25 72 63
36 79 64
52 93 63
52 94 65
68 109 65
65 106 64
106 117 138
100 111 132
104 118 140
107 121 143
109 123 145
117 132 154
113 126 146
108 121 145
112 126 150
108 124 145
117 133 153
110 126 146
104 115 136
120 134 155
118 134 155
115 129 149
127 142 164
117 121 143
114 107 130
112 87 113
116 74 102
115 75 103
120 74 102
111 70 98
110 70 96
117 75 105
118 75 104
110 69 97
114 72 101
114 73 103
119 76 107
105 66 93
112 71 101
108 68 97
114 73 103
106 67 96
108 68 98
109 68 98
105 66 93
112 74 113
106 73 119
105 77 133
87 65 124
90 75 154
91 80 172
91 79 168
91 80 172
93 82 174
91 80 170
91 82 176
94 84 180
90 81 172
90 80 170
92 82 176
90 80 171
89 79 167
90 80 171
91 81 172
88 79 165
88 80 170
81 73 156
88 80 168
92 86 171
97 97 169
109 115 165
104 109 156
117 128 164
121 134 158
123 139 161
114 128 149
126 141 160
127 143 165
121 137 157
122 137 158
123 138 160
123 138 158
126 140 162
129 143 162
129 144 166
129 144 166
117 131 153
121 135 155
118 132 154
126 141 164
129 145 168
128 142 164
125 141 164
121 135 157
121 135 156
130 145 166
128 142 163
123 138 159
125 140 162
126 141 164
130 147 170
124 139 161
130 146 168
128 144 168
125 140 162
122 137 159
129 144 166
125 140 161
124 140 165
125 140 162
126 143 166
130 146 169
127 143 167
126 141 162
117 134 152
130 146 169
120 134 155
126 141 163
130 147 171
126 144 166
127 144 167
124 140 161
120 134 157
130 144 164
127 144 168
129 146 169
132 146 166
125 140 160
133 149 172
127 143 162
128 144 163
124 141 161
128 141 162
124 140 162
125 140 160
122 137 158
129 146 169
122 136 157
122 136 156
124 138 158
121 137 160
120 135 155
119 136 155
119 132 153
124 142 164
122 137 161
124 138 158
118 134 155
120 135 155
122 138 160
119 135 154
121 138 157
113 129 147
120 134 154
119 134 156
123 138 156
120 134 154
116 131 150
123 139 158
115 130 148
118 133 150
101 117 133
120 137 154
121 136 155
115 128 146
120 137 155
116 130 149
115 129 148
113 127 146
110 124 138
106 121 132
124 139 158
110 124 142
119 135 153
116 132 149
106 120 138
107 123 139
105 119 139
121 137 157
103 119 132
97 111 126
113 128 147
112 127 147
103 117 135
113 130 148
115 131 150
116 130 150
109 124 142
87 102 121
80 95 122
42 60 104
23 46 105
20 46 106
21 47 108
21 47 110
21 48 110
20 46 107
21 48 113
20 45 107
20 47 109
22 49 114
21 48 111
21 49 114
21 47 110
20 45 105
21 48 111
21 47 110
21 47 110
21 48 112
21 48 111
20 45 105
21 47 109
21 49 113
21 47 108
19 44 103
20 45 104
33 52 101
64 79 117
90 103 130
118 133 152
104 118 134
108 118 137
83 95 105
81 85 90
65 70 64
53 54 47
48 50 32
46 48 30
52 53 33
48 50 31
45 46 29
47 48 31
49 51 32
51 52 33
50 51 32
46 48 31
45 49 31
59 63 54
77 85 89
80 91 97
95 109 124
98 114 127
117 132 151
107 120 137
119 133 150
120 136 153
108 123 141
110 124 142
111 124 144
107 126 141
115 132 150
112 128 149
116 133 151
117 133 150
107 118 134
118 133 151
110 126 141
114 129 146
117 132 151
109 123 141
114 129 146
122 139 159
117 134 152
130 148 169
120 137 156
120 138 157
115 130 147
121 137 156
117 133 154
122 138 156
105 119 137
122 138 156
114 130 147
126 143 162
107 124 141
114 130 149
124 138 159
119 135 154
112 128 147
120 135 155
118 134 152
114 129 144
115 131 150
119 133 150
108 121 140
119 135 155
110 124 138
115 126 144
105 118 134
110 124 141
105 116 135
117 130 149
109 125 142
98 111 128
105 121 134
94 105 121
100 115 129
90 111 122
45 75 69
41 82 62
52 95 66
62 105 68
68 109 66
74 115 64
74 115 64
79 121 68
99 113 129
95 107 128
110 122 144
109 123 144
98 111 135
112 125 149
104 118 139
116 130 149
117 132 156
112 127 147
116 132 154
110 123 148
119 133 152
118 135 160
124 140 164
130 145 167
120 136 159
115 123 145
107 88 108
112 83 107
107 69 95
109 71 97
114 74 102
107 68 94
113 72 100
109 70 97
116 74 103
114 71 99
114 72 101
110 70 97
113 70 96
110 69 98
100 63 88
102 64 96
109 70 101
115 73 105
97 61 90
96 59 89
95 62 97
102 70 113
93 70 132
90 71 141
90 79 167
87 77 161
87 77 164
90 80 171
91 82 175
89 80 173
90 79 167
90 81 175
94 83 177
91 81 173
92 80 169
94 84 179
90 80 170
92 82 175
85 76 164
87 78 167
87 78 168
88 78 167
90 80 170
85 77 166
89 80 171
86 78 166
89 84 165
107 112 166
104 110 161
120 130 160
124 139 164
123 140 162
129 146 169
127 144 163
127 143 165
130 145 166
127 143 164
123 138 160
124 138 158
125 139 161
133 149 172
132 147 168
121 135 157
132 147 169
128 143 164
127 140 162
126 142 165
123 139 157
127 142 163
126 141 163
131 147 170
128 143 166
128 143 163
131 146 166
133 150 173
123 137 157
118 133 155
123 137 157
127 142 164
125 139 160
123 136 157
125 142 163
132 149 171
125 140 162
123 136 160
123 137 158
130 147 168
136 150 173
129 145 166
119 135 156
131 146 168
125 142 164
128 145 166
126 142 163
131 147 168
119 134 155
131 147 171
130 146 169
122 136 158
120 137 157
125 140 163
127 142 164
126 141 162
128 144 165
118 132 154
126 142 161
119 134 153
131 149 171
123 138 159
124 140 162
134 150 172
127 142 163
128 144 166
127 142 163
123 140 162
122 138 158
119 135 156
123 137 159
132 148 170
124 140 160
124 140 161
124 140 161
131 148 170
122 137 158
121 136 160
123 139 158
115 131 149
126 142 163
120 136 157
116 131 151
128 145 165
125 140 160
117 134 153
118 135 154
120 135 155
115 132 150
123 138 157
125 142 161
120 137 156
123 139 159
119 135 153
117 132 149
111 124 142
114 131 148
102 115 131
110 127 144
119 134 153
114 128 147
111 126 144
103 119 136
107 122 140
115 132 150
120 137 157
113 128 148
116 132 148
110 127 143
112 125 144
116 131 150
106 122 138
110 126 141
115 131 150
113 127 146
112 127 147
103 119 140
75 93 118
54 73 114
32 54 110
28 50 107
19 44 102
20 46 109
19 44 102
21 47 108
20 46 107
20 45 106
20 47 108
20 45 106
19 44 103
21 48 111
21 47 107
20 45 104
20 46 107
21 48 110
21 47 109
21 47 109
21 47 111
21 47 109
20 44 102
20 46 108
20 45 104
20 46 105
19 44 102
19 44 101
20 46 107
52 68 114
79 94 122
99 114 138
91 102 118
92 109 117
97 109 123
78 88 97
87 95 104
69 76 81
56 60 53
48 50 43
48 49 31
43 44 28
42 43 27
45 47 29
46 48 30
45 45 29
51 52 39
60 65 57
74 84 86
78 83 88
84 96 104
92 105 115
93 107 120
108 122 138
95 109 126
108 121 136
109 124 140
111 125 142
111 128 145
104 117 130
124 138 159
110 127 143
105 122 138
119 134 152
121 137 158
112 127 145
119 134 154
117 135 153
127 142 164
126 144 163
118 135 153
114 128 151
113 127 144
122 139 159
122 137 157
119 133 154
122 138 158
118 134 153
119 133 152
107 122 137
119 134 152
115 129 148
112 126 142
117 133 152
104 119 136
124 140 157
118 133 152
107 121 138
125 141 162
120 136 154
118 135 155
125 140 160
115 131 148
109 124 142
116 132 151
114 132 148
112 125 143
111 126 144
111 124 140
107 121 141
112 126 142
104 119 134
108 124 140
100 115 131
103 116 134
102 116 130
100 112 127
92 105 118
109 122 137
90 109 105
84 112 98
57 90 66
76 113 71
72 112 63
74 117 68
81 121 63
81 122 64
92 137 69
99 111 131
103 115 135
111 124 146
109 125 145
116 130 152
118 132 154
109 126 148
113 128 152
113 127 150
113 127 149
118 133 157
117 134 158
120 135 156
110 126 147
112 124 150
122 137 159
118 129 151
112 115 134
113 93 117
110 71 99
117 75 104
108 71 95
113 71 99
110 69 96
114 72 100
108 70 98
112 72 101
113 72 100
108 69 97
108 68 94
107 68 97
108 69 96
108 67 94
109 70 100
101 65 94
98 63 94
94 60 90
100 64 95
107 74 122
91 68 127
94 74 147
87 75 157
86 75 160
89 78 166
88 79 170
86 76 161
87 78 165
85 77 164
86 76 162
88 78 166
92 82 175
86 76 162
90 79 168
90 78 166
89 79 169
87 78 165
91 81 172
87 78 168
87 79 170
89 79 169
83 75 161
87 79 168
82 75 161
84 76 162
86 79 165
91 88 166
99 101 168
110 119 159
116 128 159
122 136 158
130 144 165
123 141 161
130 144 166
124 139 160
125 140 162
127 142 163
126 142 164
122 138 160
128 143 167
120 136 158
130 147 169
130 146 167
132 149 170
118 133 153
131 148 169
124 140 160
124 138 161
126 140 162
129 144 168
127 143 164
118 133 154
126 141 163
129 144 167
129 145 168
122 137 158
127 143 166
132 148 170
129 144 165
123 139 162
125 143 164
122 136 157
122 135 157
130 146 168
126 142 165
124 139 162
126 140 161
133 150 171
123 139 163
120 133 154
130 147 169
126 141 162
116 131 153
130 147 168
133 150 171
120 134 157
132 148 169
127 144 165
117 134 152
122 139 160
129 145 166
127 144 166
125 139 163
126 142 166
123 138 158
127 142 166
118 133 154
131 145 169
130 146 168
124 140 160
120 136 160
126 142 163
120 135 154
130 146 167
129 143 165
125 142 162
126 142 165
118 132 150
123 140 162
126 143 166
121 137 158
124 142 164
123 139 160
128 145 166
124 139 159
120 136 156
120 132 151
115 131 150
116 131 150
128 144 164
126 141 163
122 138 158
125 139 162
126 142 163
125 140 160
120 138 157
116 134 152
125 141 160
117 134 153
119 135 154
128 145 164
124 138 156
121 137 154
112 127 145
121 137 156
128 145 166
116 129 147
126 145 163
123 137 155
113 129 147
114 129 146
101 120 132
127 145 165
117 131 148
109 125 142
118 135 152
119 135 155
120 135 155
116 130 148
115 132 151
105 119 136
97 112 128
96 111 133
76 89 123
65 79 121
20 45 104
19 44 103
19 43 101
20 44 103
20 45 105
20 46 106
20 45 104
20 45 104
19 44 103
20 46 106
20 46 108
21 46 108
22 49 114
19 43 103
20 45 104
20 46 107
21 48 111
20 46 106
20 46 107
20 45 104
21 47 110
19 44 101
20 46 107
20 46 107
20 45 104
21 47 110
20 46 106
34 55 112
48 67 108
78 94 113
77 88 105
92 105 120
97 109 121
92 103 117
94 105 117
88 100 107
69 76 81
67 74 78
71 80 80
70 75 79
59 60 57
58 63 61
57 61 58
64 69 68
64 66 66
72 78 78
76 85 92
82 93 103
87 98 109
94 108 120
98 109 124
101 114 128
105 119 134
102 116 131
110 122 141
123 139 156
109 123 140
107 121 139
112 129 144
117 132 151
120 137 155
116 130 148
121 137 158
119 136 156
117 133 150
117 133 151
121 136 157
109 124 142
118 133 153
112 127 145
119 134 153
109 126 142
121 137 157
113 129 146
121 136 156
121 136 156
110 125 143
121 136 156
108 125 140
115 128 144
107 121 140
120 136 154
102 118 133
119 132 152
109 124 142
107 122 140
118 129 151
122 138 160
119 134 152
117 132 152
109 122 140
109 125 145
114 129 146
117 130 150
119 135 154
113 128 145
108 123 143
115 128 145
118 135 152
107 122 139
106 124 142
101 116 132
105 117 131
106 119 135
105 116 131
83 94 101
95 115 116
87 112 94
93 122 102
87 124 74
86 127 69
90 133 68
91 134 68
88 131 67
91 136 69
87 130 66
105 118 140
104 118 141
110 123 144
106 121 144
111 123 143
115 130 151
112 127 151
120 133 156
116 132 155
118 131 153
116 132 150
118 136 154
125 141 163
116 128 148
113 126 149
118 136 156
120 133 153
115 106 127
114 95 117
114 73 101
111 70 94
103 66 90
112 71 98
110 70 98
110 70 97
107 67 93
102 66 93
108 70 99
114 73 101
109 67 94
100 63 91
100 63 89
109 69 96
103 64 91
103 66 95
105 67 97
108 67 97
98 68 117
97 69 123
86 67 131
92 76 159
84 72 151
86 77 165
86 76 161
89 80 171
89 79 170
88 77 162
86 77 166
83 75 162
91 81 170
91 82 176
87 77 165
88 76 161
90 79 169
89 80 170
85 76 162
87 79 170
86 78 167
85 75 161
89 79 169
87 79 167
89 80 171
83 75 159
84 75 163
83 75 161
90 83 168
91 89 159
109 114 172
114 125 158
119 137 157
119 134 158
120 134 154
130 145 168
130 145 168
130 145 167
120 135 157
124 140 162
123 137 157
125 141 166
128 144 166
125 142 164
132 147 169
126 143 165
117 132 152
117 132 155
129 144 166
131 147 170
122 137 159
116 129 150
124 137 157
125 142 163
129 143 164
124 140 160
122 135 155
134 150 171
129 146 169
131 145 167
124 139 159
120 137 159
128 144 166
124 140 163
131 146 166
127 141 163
126 142 164
130 146 168
124 139 159
125 141 163
122 140 161
130 146 168
130 146 167
125 140 161
128 144 167
127 143 163
122 138 159
113 127 149
125 139 159
130 144 166
131 146 166
124 139 160
126 143 164
118 133 154
115 132 151
123 138 158
124 140 159
131 146 168
133 148 171
122 138 159
126 142 165
124 137 159
122 137 157
131 145 166
129 146 167
128 143 162
128 145 166
121 138 159
129 145 166
131 149 172
129 145 166
121 136 156
125 139 161
124 140 160
129 146 168
125 140 163
126 141 162
119 135 154
119 132 151
129 145 166
126 141 160
116 131 149
130 146 168
125 141 161
122 139 158
123 140 161
126 143 163
122 138 158
112 129 147
120 136 155
125 140 159
124 140 158
127 144 163
129 146 166
118 134 153
117 133 152
114 128 147
116 131 149
119 135 153
116 130 149
111 127 143
120 137 156
122 138 157
117 134 152
124 140 159
125 141 160
126 141 162
123 137 153
117 133 153
125 141 159
116 132 150
122 139 156
119 134 154
115 129 151
98 114 140
64 81 119
39 58 110
20 45 104
19 43 99
20 47 109
20 46 106
20 46 108
18 42 98
20 45 105
21 47 109
20 45 106
20 46 107
20 45 105
20 46 106
20 45 104
20 47 109
21 47 109
19 44 102
21 48 112
20 45 104
21 47 109
21 47 108
21 48 109
20 45 106
20 45 105
21 48 111
20 46 106
19 44 102
19 43 100
20 46 107
55 74 112
77 89 119
89 103 122
104 117 133
101 113 128
96 108 120
83 96 104
84 95 103
79 89 98
75 82 93
70 80 85
89 99 108
73 80 83
66 75 76
78 86 93
71 76 83
81 88 96
85 95 106
102 110 126
98 108 120
79 91 102
92 102 115
86 97 108
96 109 121
108 115 128
103 113 128
111 126 144
103 118 133
108 124 140
96 110 121
110 123 141
114 131 149
108 122 139
114 128 145
99 115 130
110 120 138
113 129 145
108 124 141
107 120 139
111 125 144
109 121 138
119 138 156
113 126 145
118 135 155
118 134 153
117 132 151
122 140 160
124 143 161
117 130 150
120 135 153
113 129 146
118 134 153
127 142 163
123 138 158
123 139 159
117 134 153
109 124 141
108 123 139
111 126 144
114 127 146
117 132 153
121 136 156
119 137 154
119 134 153
119 136 154
114 127 147
102 118 133
103 120 134
120 136 153
114 132 149
116 130 147
110 124 141
91 107 120
119 132 151
99 110 127
102 115 131
99 113 125
102 117 125
98 122 112
88 118 90
89 125 82
86 128 70
86 126 68
89 132 67
89 132 67
88 130 66
89 132 67
90 133 68
107 121 141
116 133 150
106 122 142
105 117 135
116 131 153
113 127 151
124 140 160
114 129 152
123 136 155
121 135 156
115 130 152
125 141 162
113 131 150
119 136 157
117 133 155
119 132 153
118 124 146
119 115 139
111 83 108
116 75 102
103 66 92
109 69 96
109 70 97
108 69 98
106 67 93
103 66 95
112 71 98
106 67 95
106 67 93
105 67 93
109 69 98
106 67 93
102 65 92
101 63 91
105 68 97
104 65 95
94 61 93
84 59 105
97 69 128
87 73 150
87 78 162
83 75 159
82 73 156
83 72 153
87 76 159
85 75 160
90 79 167
89 78 165
87 78 167
90 79 166
89 81 175
83 75 162
85 76 162
89 78 166
87 77 165
91 81 173
87 78 165
85 77 166
87 77 165
86 77 166
87 79 170
83 75 161
87 78 166
87 78 168
87 79 169
82 75 161
86 81 162
96 96 158
109 116 165
121 133 163
120 136 159
127 142 165
122 136 156
127 144 167
125 139 162
121 135 158
123 138 161
125 141 161
124 139 162
121 137 157
126 143 164
129 145 165
125 140 161
116 132 156
119 137 160
125 139 161
127 143 164
129 146 168
130 148 171
123 138 161
128 143 165
131 147 168
127 143 165
121 136 158
129 144 166
126 141 162
118 133 155
127 144 167
134 150 173
122 137 160
125 140 164
129 142 162
131 147 169
135 151 173
123 139 160
129 145 166
121 135 156
124 137 158
123 138 159
128 145 167
124 139 160
125 139 162
128 143 164
131 148 170
120 134 155
126 142 165
132 148 171
129 144 167
124 140 160
122 136 158
127 143 164
130 146 167
123 140 162
130 146 167
126 140 159
122 138 159
131 147 170
118 133 154
129 146 168
128 145 167
130 147 167
128 145 165
124 138 160
123 137 159
125 141 161
124 138 159
123 139 159
131 147 170
122 137 158
122 138 157
122 135 155
130 147 168
125 139 160
124 140 162
129 147 167
129 146 168
125 141 161
116 131 151
122 138 159
115 131 153
117 132 153
122 140 158
124 139 160
128 143 163
123 139 159
118 133 154
121 137 159
125 140 161
122 138 158
129 147 168
116 132 147
124 139 159
128 145 165
124 139 157
120 136 157
117 134 153
121 137 156
124 140 161
123 138 157
122 137 157
119 134 154
127 143 166
112 128 149
114 128 146
119 136 156
120 136 156
116 131 149
115 128 145
118 134 151
112 128 145
116 132 156
99 118 144
68 83 124
21 47 109
19 43 101
20 46 106
19 44 101
19 44 103
20 46 107
20 45 105
19 45 103
21 47 110
20 46 106
19 44 103
19 43 100
19 44 104
22 49 112
20 45 105
20 45 105
20 45 104
20 45 104
19 44 102
19 43 100
20 45 106
20 47 107
20 45 104
20 46 107
20 45 103
20 46 106
20 45 105
20 45 105
20 45 104
30 50 100
76 91 122
87 101 123
90 103 117
89 101 112
102 112 126
93 103 114
82 92 101
70 76 84
89 103 112
93 105 114
71 80 86
94 103 115
79 86 96
81 91 101
86 95 104
75 85 92
89 99 113
89 98 109
74 86 93
86 98 107
107 117 133
92 103 114
91 102 113
87 99 113
107 120 138
116 130 149
104 115 130
111 125 142
101 113 129
115 128 143
113 128 147
106 117 134
107 120 137
115 128 146
121 136 155
118 134 152
114 129 146
115 129 147
119 136 152
126 141 162
122 137 155
112 125 144
120 136 155
119 133 152
118 132 152
119 136 157
106 120 137
120 133 152
117 132 150
115 132 148
119 136 156
114 130 148
117 133 153
112 126 145
122 138 158
131 147 168
124 141 162
119 135 154
127 144 166
119 136 156
117 131 150
109 126 138
112 130 148
112 126 145
113 129 146
119 134 154
116 131 149
112 127 147
119 134 151
117 131 149
100 116 130
113 127 146
106 122 138
106 122 137
101 114 125
91 111 111
104 129 124
98 128 102
84 122 71
89 131 67
88 131 66
84 125 64
90 133 67
92 137 70
89 132 67
90 134 69
88 130 67
102 116 134
114 130 152
108 120 142
112 130 147
112 128 145
116 131 148
129 145 169
114 128 149
120 137 157
114 134 155
118 133 153
119 133 155
119 134 156
121 137 159
118 134 156
124 137 158
117 126 149
112 107 129
116 83 110
98 65 87
107 67 91
110 68 93
111 72 97
105 67 95
111 71 98
109 68 97
106 69 97
106 67 94
106 68 97
105 67 95
105 66 92
96 61 88
103 65 94
99 62 87
99 61 87
108 70 99
93 60 97
100 72 128
84 75 157
86 76 162
84 76 161
83 74 158
86 76 161
86 77 162
87 77 163
85 75 158
83 74 161
85 75 162
88 78 167
81 73 156
84 75 159
83 74 158
86 76 161
89 80 170
87 79 169
87 78 166
89 80 171
84 74 158
87 77 164
87 79 168
88 79 169
83 75 160
87 79 168
83 74 159
84 76 164
82 74 158
85 79 158
89 85 160
99 103 155
116 125 168
120 135 155
122 137 158
123 138 160
124 137 159
133 148 171
130 147 170
124 138 160
119 135 157
125 141 163
125 141 163
119 134 156
123 140 157
130 146 168
121 136 155
129 145 167
127 144 164
129 144 168
118 131 153
116 133 153
127 142 163
120 134 154
126 141 162
126 141 162
124 142 162
129 147 170
120 134 155
124 139 159
125 142 165
127 141 162
124 140 164
124 141 164
122 137 159
129 145 167
118 133 155
124 140 161
117 133 152
127 143 165
127 143 165
131 147 169
122 137 157
132 148 170
120 135 156
127 143 165
124 140 163
127 142 164
129 142 162
133 150 173
126 138 162
126 142 163
124 138 158
125 142 162
128 144 165
126 139 161
123 138 157
128 144 166
120 135 159
124 140 162
126 143 164
127 142 165
127 142 163
135 152 174
123 138 159
129 143 166
124 139 161
128 144 167
127 142 162
125 141 164
123 139 161
131 146 170
130 145 167
129 146 169
120 136 157
121 133 152
130 145 168
126 141 164
126 144 166
130 147 167
127 143 163
117 132 151
123 139 159
130 147 170
123 140 160
124 139 158
124 141 161
114 130 149
124 141 160
128 142 163
124 140 160
129 145 164
125 141 160
126 144 164
130 147 168
131 146 167
129 145 167
122 137 159
127 142 161
129 145 164
117 133 152
125 141 160
118 132 152
128 145 165
127 142 163
118 135 152
118 135 153
119 132 153
128 143 163
121 136 156
116 132 153
110 126 144
125 143 162
115 129 152
82 100 131
62 78 123
35 54 106
19 43 99
20 45 104
20 46 107
19 42 100
19 43 99
20 45 105
20 45 105
20 45 105
20 46 105
21 47 109
20 45 103
20 44 103
21 47 108
20 45 106
21 47 110
19 44 103
20 44 102
19 43 101
20 46 107
20 45 103
20 44 103
20 46 106
19 43 100
20 45 105
18 42 97
20 46 105
20 45 105
18 42 98
20 44 100
49 65 107
92 106 127
98 110 129
101 113 128
91 102 116
102 113 130
96 107 118
89 103 116
97 107 118
82 89 100
83 92 102
102 113 125
101 111 121
104 114 128
93 100 114
78 87 96
95 105 118
80 89 98
89 100 108
90 102 112
102 114 129
94 104 117
99 112 126
105 117 131
106 119 136
109 122 139
116 130 148
107 121 138
109 121 137
104 116 133
103 117 129
113 129 146
113 127 146
105 121 133
116 129 148
126 140 161
117 131 149
117 131 149
122 139 157
119 134 154
120 136 155
115 129 147
117 133 153
119 135 154
124 140 161
117 133 152
121 134 154
116 134 150
113 126 145
125 141 159
119 133 152
123 137 157
117 132 152
118 135 151
114 130 149
131 146 166
120 134 152
118 135 152
117 133 151
122 137 157
125 140 158
128 144 164
105 117 135
115 129 149
108 125 143
117 132 153
103 118 134
110 124 143
94 109 124
118 133 150
114 128 149
113 129 147
103 117 133
109 123 141
104 124 128
86 109 97
83 111 84
78 117 62
84 125 64
79 118 60
84 124 62
82 120 62
88 130 66
85 127 64
91 135 68
84 126 65
91 134 67
112 126 148
114 131 152
116 131 152
116 134 156
123 141 160
110 123 144
117 133 156
110 127 152
122 136 155
124 141 163
118 134 154
116 131 154
124 141 163
119 134 157
123 142 163
126 141 161
116 122 141
117 107 131
104 80 104
106 69 94
105 67 92
108 69 95
108 70 95
108 69 96
113 71 98
105 64 90
102 66 93
110 68 95
99 62 88
96 62 86
103 65 92
106 67 97
102 65 91
91 57 85
88 57 85
87 57 86
87 62 111
81 66 129
90 73 146
81 70 147
85 75 160
86 76 160
82 72 155
87 78 166
84 74 158
88 75 155
86 77 165
86 77 163
88 79 171
87 78 167
87 77 164
88 79 169
85 75 158
86 76 163
87 79 170
84 75 161
88 78 167
86 76 163
84 75 161
85 75 160
85 77 165
86 78 166
83 76 161
79 72 154
84 77 165
83 75 159
77 70 150
84 77 161
95 98 154
112 119 163
118 128 166
127 142 165
132 146 168
125 141 162
122 138 159
127 142 161
121 136 157
123 139 161
132 148 168
131 147 169
127 144 166
131 144 166
128 145 167
134 147 169
128 144 167
117 131 154
123 135 158
125 140 163
127 140 163
121 137 161
129 144 165
128 143 163
124 140 164
127 143 165
124 139 159
128 143 164
128 144 165
131 148 170
124 139 159
127 142 162
125 139 161
119 133 157
125 141 161
124 138 159
125 139 159
123 140 162
120 133 157
123 137 160
131 146 168
126 143 164
122 138 160
128 145 168
127 142 164
129 146 168
134 148 169
126 140 161
121 137 157
130 144 166
120 136 157
121 138 157
131 146 167
129 145 165
130 145 167
133 148 168
126 140 161
129 145 165
127 143 166
125 141 162
125 140 161
125 140 161
117 129 152
123 140 160
127 142 163
122 137 158
127 142 162
132 147 169
133 149 171
132 147 168
128 144 166
127 140 160
133 149 170
119 135 157
116 132 148
127 143 163
124 140 160
131 145 167
124 140 161
128 146 165
129 142 162
123 138 159
120 134 155
123 138 160
121 135 158
130 147 169
127 143 162
127 143 165
124 140 159
119 136 155
126 142 162
122 140 158
131 147 170
134 151 173
121 138 159
128 145 167
121 140 160
122 138 159
120 133 152
116 132 150
132 149 170
128 146 166
127 142 162
131 147 169
119 135 155
122 138 159
124 140 162
116 131 148
131 147 168
122 137 158
122 137 158
126 142 163
106 121 144
75 90 121
51 69 109
19 42 96
19 43 100
19 43 101
20 44 104
20 44 102
18 42 98
18 42 97
19 44 101
20 46 105
18 40 94
19 43 99
20 46 107
20 45 105
20 46 107
19 45 104
20 45 105
18 43 98
20 45 104
19 44 101
19 43 99
20 45 105
19 43 100
20 45 103
19 44 104
19 43 100
19 42 97
19 43 100
19 43 99
19 44 101
19 44 102
43 58 107
90 102 134
104 118 135
108 122 140
101 112 123
103 115 130
95 106 119
97 110 121
102 113 128
92 103 113
100 113 125
102 113 125
97 107 121
94 104 117
96 106 119
98 109 123
97 109 122
96 106 118
114 129 145
105 117 132
107 118 134
102 114 130
101 113 127
88 103 114
97 108 121
107 119 134
119 132 149
112 126 143
107 119 137
111 125 141
109 124 142
114 128 144
115 130 147
104 121 138
122 138 158
115 131 150
123 138 160
123 138 158
120 138 157
123 138 158
109 123 139
121 135 155
115 133 153
121 135 156
121 137 157
113 128 150
120 134 155
122 138 158
121 137 155
115 130 148
114 132 150
124 139 160
116 134 151
116 134 153
120 138 156
123 140 160
120 135 154
114 130 150
116 130 148
121 136 159
118 134 154
120 134 156
130 145 165
120 136 156
112 128 146
111 127 146
117 132 151
109 125 141
109 122 142
110 125 143
107 119 138
110 124 141
112 125 144
94 110 119
97 119 115
106 133 115
89 124 81
83 124 64
81 121 61
85 126 64
86 127 64
87 129 65
86 128 66
83 125 63
86 128 66
89 131 66
83 123 63
115 132 151
116 134 154
113 129 148
123 139 159
126 142 163
123 139 159
125 140 158
125 142 160
111 122 142
125 142 164
115 129 150
122 140 159
130 147 170
129 146 170
122 138 160
119 131 154
115 128 144
119 119 139
105 71 95
106 68 94
110 69 96
104 66 91
104 65 91
114 71 99
96 61 84
106 68 96
105 68 94
103 66 92
98 62 90
106 67 95
110 70 99
95 60 87
101 63 91
95 58 83
91 58 86
94 63 104
83 60 104
84 66 134
86 74 156
85 73 155
86 77 165
84 74 157
83 75 162
86 76 163
87 77 162
87 77 162
87 77 165
87 77 164
87 79 168
85 76 163
87 75 159
87 78 168
87 78 168
86 77 163
88 77 164
81 72 156
86 78 166
88 77 163
87 75 158
86 76 163
88 78 167
83 75 161
87 78 168
80 73 157
85 77 164
80 72 155
79 72 153
80 72 155
83 78 154
99 103 161
110 122 157
124 136 160
128 142 163
129 144 167
128 146 169
126 141 163
125 137 160
125 141 164
131 147 169
123 139 160
120 134 157
133 150 174
128 144 167
125 140 163
123 136 158
128 143 167
130 146 168
127 144 166
127 141 159
123 138 160
127 145 170
127 143 164
122 136 159
129 145 167
129 144 167
124 140 165
125 138 160
131 145 170
127 142 165
120 135 156
121 135 155
126 142 165
131 148 171
129 145 166
127 143 164
123 137 159
127 141 165
126 141 160
120 134 155
130 145 168
123 137 159
129 144 166
124 141 163
125 141 165
128 144 165
131 147 170
135 151 173
128 141 163
128 144 165
121 135 156
125 141 162
121 135 157
122 137 156
132 148 167
124 137 157
125 141 162
130 147 167
129 145 167
125 141 161
122 139 159
125 139 161
126 141 162
131 148 170
131 148 167
123 138 159
131 148 169
118 133 150
126 143 164
128 143 162
125 141 161
132 149 170
125 140 162
131 145 166
123 139 160
123 137 158
126 141 163
126 143 162
125 141 161
129 147 170
125 144 163
123 139 158
122 137 157
119 134 156
126 142 161
115 130 148
127 143 163
129 146 168
122 138 159
123 139 158
132 146 168
128 143 165
120 134 153
124 140 160
125 141 164
126 141 161
127 143 165
133 150 169
123 140 159
123 139 158
127 144 166
126 143 161
121 136 156
123 137 158
121 139 157
122 137 158
121 136 157
120 136 154
124 140 162
123 140 160
125 143 163
89 105 134
63 78 110
43 60 104
20 45 105
20 46 106
19 43 98
19 43 99
20 45 105
19 43 100
19 43 100
18 42 98
20 45 105
20 45 105
18 41 95
19 43 101
20 46 108
19 43 100
20 45 103
19 43 99
20 45 104
19 44 102
19 43 100
20 45 104
20 44 103
19 44 102
18 42 98
19 43 100
20 45 105
19 44 101
19 43 99
19 43 99
18 42 98
20 44 102
46 61 104
60 75 116
78 92 111
119 134 152
105 119 135
114 128 144
108 121 138
110 124 139
103 114 128
115 127 144
107 119 135
94 104 117
102 113 127
101 113 126
112 125 141
102 115 131
88 100 112
111 122 137
109 120 136
112 125 141
97 106 120
105 118 132
110 123 137
103 115 129
105 116 132
112 125 143
111 127 142
116 131 153
114 128 147
103 115 131
116 130 148
108 123 141
117 131 150
119 133 151
103 119 134
118 132 150
116 132 150
119 134 154
106 121 137
117 134 152
122 137 156
129 145 167
121 137 158
117 131 150
122 138 157
118 134 155
112 128 147
111 127 143
118 132 153
116 131 149
124 139 158
118 134 154
121 138 157
125 141 161
115 131 148
116 132 152
113 127 146
124 141 159
107 122 139
123 138 157
117 132 155
115 130 147
120 136 156
117 132 153
113 128 146
120 135 155
120 137 156
115 127 146
108 123 140
110 124 140
97 111 125
110 125 143
101 119 131
110 130 138
96 120 111
97 128 103
82 122 63
83 125 64
81 120 61
85 125 64
85 126 64
87 129 65
84 124 63
79 119 61
83 124 64
89 133 67
85 125 64
120 138 158
125 142 164
120 134 152
126 143 164
116 135 149
121 136 155
123 141 159
124 140 162
121 136 157
125 140 163
114 129 149
120 136 158
122 137 158
119 138 156
116 130 152
127 141 160
122 134 157
111 106 127
110 95 115
102 66 88
102 65 90
106 68 91
106 68 95
103 65 90
105 67 92
109 68 94
98 60 84
92 58 83
99 62 90
108 67 93
93 59 86
103 65 90
101 64 91
98 61 89
96 61 95
90 61 101
93 72 139
83 67 138
81 70 147
82 71 150
84 73 157
85 72 148
86 75 161
83 74 162
85 75 159
82 70 148
84 76 162
87 78 165
85 75 161
80 70 147
82 73 155
83 74 158
83 75 161
82 74 159
88 77 163
88 79 169
84 74 157
85 75 159
85 76 163
85 75 161
83 76 165
80 72 155
84 76 165
83 74 158
84 76 162
83 74 158
81 72 154
80 71 151
80 75 151
101 106 159
113 123 160
122 136 163
125 141 162
129 145 167
123 138 158
126 142 165
124 141 160
123 138 159
131 146 169
125 140 165
127 142 165
129 144 165
121 136 156
131 148 168
123 138 159
130 149 170
132 149 172
126 142 163
131 146 169
125 140 162
124 139 163
125 140 162
123 139 160
129 144 166
128 145 167
127 142 164
129 144 165
129 147 167
125 141 163
123 137 158
121 138 157
137 153 175
128 141 161
130 145 167
121 136 157
134 150 172
128 144 167
128 142 164
131 146 167
128 143 167
126 140 162
124 139 159
126 143 166
124 139 159
126 141 163
128 144 166
123 138 159
123 140 160
127 143 166
120 135 154
131 148 167
133 149 171
124 139 163
130 146 169
130 148 170
132 147 169
128 144 165
127 145 164
124 140 160
130 146 167
123 137 161
130 149 170
127 145 164
126 142 164
124 141 161
124 138 160
131 147 168
129 145 165
118 131 149
125 142 162
127 142 163
125 141 162
121 136 157
126 142 165
133 148 170
128 144 165
127 143 164
117 133 152
126 142 163
127 144 163
133 150 172
123 139 161
128 144 165
119 134 154
127 143 164
128 145 163
131 149 170
131 146 166
137 154 176
131 145 166
123 138 158
129 144 167
126 143 161
120 136 156
113 129 148
116 134 152
126 144 164
127 145 165
129 144 166
125 142 162
118 134 154
123 138 158
122 139 160
128 143 163
125 140 160
125 141 159
122 135 156
125 142 162
119 134 157
115 128 151
99 115 142
84 100 132
48 65 110
18 42 98
20 45 105
18 41 96
19 44 102
19 42 99
20 46 106
19 44 103
19 44 101
19 44 100
19 43 99
18 41 94
19 43 99
18 42 98
19 43 99
20 45 105
20 46 106
19 43 100
19 43 100
19 43 100
19 44 102
20 46 107
20 45 105
19 43 101
19 44 100
19 44 104
19 44 102
18 40 92
19 44 103
17 39 92
19 42 97
49 65 105
79 92 119
96 110 133
114 128 148
119 134 152
105 118 134
116 130 148
107 121 138
113 125 142
97 110 125
115 130 147
108 120 136
111 123 141
109 122 138
99 112 128
117 130 147
109 123 139
108 123 141
114 127 147
116 130 148
120 135 153
98 111 123
106 119 134
109 124 141
113 125 142
115 130 148
107 119 134
118 133 151
115 128 148
114 131 149
117 131 149
116 130 147
121 136 153
116 130 147
123 141 161
111 127 146
116 130 149
121 139 159
122 137 158
117 131 151
117 133 151
115 130 151
123 138 157
125 141 159
116 132 150
129 145 166
124 138 160
119 132 154
127 142 163
127 143 164
115 132 150
112 127 145
116 130 149
117 135 153
123 139 160
116 131 150
122 137 157
109 122 139
121 136 153
112 130 148
125 143 165
116 129 153
117 133 154
123 139 158
118 133 152
119 135 154
113 126 145
118 132 151
114 130 147
112 128 146
118 134 155
112 129 146
108 131 132
104 130 122
92 126 91
87 125 75
81 119 60
80 120 62
84 125 64
84 125 64
79 118 61
89 133 68
88 130 66
81 119 61
89 132 67
86 128 65
86 129 66
115 135 152
120 136 158
125 142 163
110 128 148
125 142 162
126 142 162
120 137 156
116 132 154
119 133 156
120 134 154
118 131 152
116 131 152
123 138 161
126 141 162
116 133 154
124 138 159
119 131 151
111 105 127
109 89 111
103 71 95
106 68 94
101 62 86
96 63 86
101 65 91
98 62 86
100 63 87
97 62 87
103 64 88
100 63 88
101 64 88
98 62 88
100 65 90
87 55 79
84 54 78
94 62 96
92 62 109
78 61 124
76 67 141
81 71 151
82 71 151
87 76 160
83 74 159
85 75 159
84 74 158
82 74 160
88 78 167
83 73 157
84 76 160
86 75 160
83 72 152
89 78 164
86 77 165
81 70 149
80 70 152
84 74 158
84 75 160
84 76 164
83 73 156
84 76 163
84 75 160
83 74 158
76 68 147
79 72 153
80 72 151
82 74 158
81 73 156
78 72 151
83 75 161
82 78 147
101 106 159
106 114 160
116 129 159
130 145 165
129 144 166
121 134 155
126 141 162
124 140 163
127 141 161
118 132 153
124 140 162
123 138 159
123 137 159
131 147 168
119 134 155
128 145 166
127 141 163
123 141 163
130 147 168
122 136 157
123 138 161
127 142 165
120 134 155
129 146 168
130 145 165
122 139 158
120 134 153
128 146 168
127 140 162
119 134 154
128 145 168
127 142 162
126 139 161
130 145 169
129 144 165
127 144 165
131 149 169
121 137 160
128 145 167
131 146 170
119 132 154
130 145 167
125 139 161
127 144 163
124 140 162
118 132 154
125 141 159
131 147 165
124 139 163
126 141 163
130 146 166
133 149 172
126 143 163
128 143 167
128 144 166
126 142 164
127 142 165
128 143 165
122 139 159
128 143 164
127 142 164
125 141 161
128 145 167
135 152 173
119 136 159
132 148 170
132 148 171
126 143 164
131 148 169
119 135 156
133 149 171
134 151 172
131 148 171
125 142 162
131 149 170
123 139 160
128 144 164
125 141 161
127 144 165
126 142 165
132 147 167
129 145 164
129 146 167
134 151 175
128 145 163
132 151 175
125 139 159
122 139 157
125 140 158
129 146 164
129 146 167
121 136 156
125 143 163
122 136 156
121 138 158
127 143 164
123 136 157
120 136 155
127 145 166
127 143 163
133 147 169
130 147 169
120 137 157
122 136 156
125 142 162
129 145 167
113 128 147
121 137 159
122 138 160
123 138 157
115 129 149
106 121 148
79 93 127
29 48 97
19 42 99
18 41 95
19 43 101
19 43 100
18 42 99
21 47 108
19 43 100
20 44 103
19 43 99
19 43 99
18 41 96
19 43 101
19 44 100
19 44 101
20 46 107
19 43 99
18 42 97
18 42 97
19 43 100
19 43 100
19 44 104
20 45 105
18 41 96
19 44 103
20 45 103
20 45 105
20 45 102
19 44 101
18 42 97
18 41 95
47 62 101
67 80 113
93 106 127
110 125 145
111 123 140
99 111 127
117 132 151
112 127 146
113 126 145
116 129 148
117 130 149
115 130 147
110 123 142
102 114 130
125 142 163
119 131 150
118 132 149
110 124 141
113 126 144
115 130 146
107 120 136
117 132 153
116 130 147
105 117 134
111 124 143
114 129 148
120 134 154
114 129 145
104 118 133
120 135 154
120 136 155
117 132 151
121 137 156
110 124 142
113 128 147
114 129 150
120 133 153
119 134 152
102 117 134
125 142 160
110 123 142
127 142 163
105 120 137
121 137 157
116 133 153
127 143 164
122 137 157
117 131 150
123 138 159
119 134 154
117 130 148
114 130 149
122 137 156
122 138 159
119 134 155
118 134 154
109 124 142
120 136 155
128 144 165
125 140 162
111 128 143
120 137 157
129 145 165
123 137 158
118 133 152
118 131 151
109 122 140
115 131 147
125 140 160
112 127 144
113 125 146
123 139 157
114 137 138
105 128 122
92 125 93
77 115 58
83 124 63
83 123 63
85 126 64
82 121 62
84 125 63
89 131 66
86 128 64
84 125 64
84 125 64
84 126 64
80 120 62
121 138 159
116 129 147
125 140 161
128 143 163
118 137 156
118 131 150
114 130 151
122 137 157
132 147 168
125 140 161
134 146 166
121 130 149
127 143 164
115 129 150
116 133 151
132 149 172
122 136 155
120 127 148
114 98 119
94 63 79
107 69 92
104 67 92
109 70 97
98 62 86
96 60 84
92 58 81
103 66 92
96 61 85
104 66 92
95 59 85
96 60 84
105 66 93
89 54 76
88 53 76
84 57 97
80 59 111
85 66 129
77 69 146
77 69 149
80 71 150
81 72 153
82 72 155
84 72 153
84 72 150
85 75 160
85 74 157
85 74 157
84 75 160
81 72 154
85 75 161
79 70 150
83 73 155
86 77 166
81 71 151
84 75 159
85 75 159
82 73 157
81 72 154
84 74 158
84 73 156
82 74 158
88 78 164
79 70 150
81 73 156
84 76 160
77 70 151
81 72 154
82 74 157
81 72 156
93 94 156
102 108 159
120 130 164
120 133 154
135 151 173
128 143 163
120 135 159
126 141 163
127 143 162
128 144 166
129 146 169
125 140 159
130 146 167
124 139 162
125 139 162
134 150 171
124 141 164
121 137 160
122 135 159
122 138 160
131 149 169
111 124 147
127 142 163
125 140 162
126 141 161
126 144 166
125 140 163
124 141 160
128 142 164
124 141 160
124 139 161
130 145 168
129 146 167
126 141 162
130 146 168
123 137 158
127 144 163
127 143 164
123 139 160
129 145 168
132 148 168
120 136 157
120 135 158
125 142 164
129 145 167
122 139 160
126 141 162
133 149 171
125 141 164
118 131 152
131 146 166
126 142 162
120 134 152
118 135 157
130 145 167
121 137 157
125 141 161
134 149 171
122 138 159
128 144 166
123 138 157
132 149 171
133 149 171
127 142 165
119 133 154
133 150 172
125 142 164
131 146 167
126 143 163
125 140 159
126 142 162
121 136 156
131 147 167
128 144 165
128 142 162
129 146 167
128 145 167
129 145 165
127 142 165
130 146 167
124 140 163
127 141 163
120 137 157
131 145 166
122 138 159
124 140 161
125 141 163
125 141 163
130 145 167
129 143 165
125 140 160
127 142 163
127 141 162
124 139 161
128 145 166
133 150 171
133 149 169
129 146 167
126 142 162
129 145 165
126 143 165
130 145 167
122 138 159
122 139 159
126 142 164
113 129 146
126 141 162
120 136 154
119 134 153
123 137 157
119 136 160
103 119 144
78 93 125
39 56 105
19 42 98
19 43 101
19 43 100
19 43 101
18 41 96
18 40 93
19 44 103
18 41 95
19 43 98
19 44 103
19 43 99
19 43 99
19 43 100
19 43 100
19 44 101
18 42 97
19 44 102
20 44 102
19 42 98
18 42 96
20 45 104
18 41 95
18 40 94
20 45 104
17 38 89
19 43 99
19 44 102
18 41 94
19 43 101
18 42 99
61 76 113
66 80 113
99 114 135
106 119 139
115 132 150
109 122 140
106 120 137
111 126 145
115 132 150
118 134 155
123 138 156
114 125 143
118 133 152
110 124 143
110 125 144
112 127 143
121 138 158
121 136 157
114 130 146
112 125 145
116 131 151
119 135 151
118 134 154
109 123 142
120 135 155
113 128 146
118 131 149
119 133 153
119 133 152
129 144 164
115 130 148
112 127 147
127 143 162
119 134 154
115 130 148
113 127 144
123 138 159
116 131 149
104 121 137
115 130 148
125 140 159
122 140 162
114 129 147
107 124 140
119 135 153
109 122 137
118 134 152
115 128 150
105 116 133
122 139 158
118 132 151
123 139 159
110 125 144
123 137 156
128 143 162
117 133 155
123 140 160
119 136 153
118 132 150
116 129 147
125 140 163
112 126 143
117 132 153
117 133 152
120 137 157
115 131 150
129 146 169
125 140 160
120 137 155
122 138 156
119 136 153
115 134 146
118 138 137
100 125 116
85 119 81
81 122 62
80 119 60
83 125 63
79 118 60
81 121 62
84 125 63
79 119 61
88 131 66
77 115 58
79 118 60
85 124 63
88 132 67
122 138 161
116 130 153
126 144 168
126 143 165
129 144 165
122 128 145
128 138 155
126 137 156
137 136 149
134 135 149
137 130 140
135 126 133
136 144 163
140 138 153
139 136 151
138 139 156
127 132 148
126 127 145
113 108 130
106 77 101
104 65 88
100 63 86
98 62 85
103 65 91
101 65 92
100 64 90
95 60 84
97 61 86
99 62 86
106 68 95
93 58 80
96 61 84
103 63 88
83 51 75
91 60 96
82 63 122
84 70 146
77 67 141
79 70 149
79 69 147
80 69 147
78 69 146
86 75 159
82 73 156
83 73 156
75 67 144
86 76 163
81 71 152
82 72 152
84 73 156
82 71 151
80 71 148
81 71 152
84 72 151
86 76 161
82 73 156
81 73 157
83 72 154
82 73 157
82 74 157
81 72 153
84 75 160
80 72 154
82 72 154
83 74 158
77 70 150
78 70 152
78 70 151
80 72 150
84 80 150
105 113 155
123 135 164
127 143 168
122 140 161
123 137 162
125 140 162
128 141 162
127 141 165
119 133 154
123 138 159
119 134 156
122 138 160
126 143 166
126 141 164
124 141 161
122 137 160
127 142 164
127 142 165
124 140 162
123 138 159
122 136 156
127 141 161
124 140 163
128 140 163
128 143 167
120 134 157
126 140 164
126 142 164
127 142 164
127 143 164
126 144 162
128 143 164
131 148 171
127 142 166
127 143 164
120 137 158
128 143 163
130 144 166
127 143 166
126 141 164
128 144 166
124 138 162
128 144 165
135 151 174
126 141 160
125 140 159
126 142 163
129 144 165
131 147 171
137 153 175
135 152 174
124 140 162
128 144 165
125 143 162
131 147 169
126 142 163
122 138 159
123 140 162
131 146 167
124 140 162
132 149 172
123 139 161
125 142 163
130 147 168
127 143 166
118 132 154
130 147 168
129 143 164
123 139 162
122 139 159
127 143 163
128 145 168
121 137 156
129 145 167
129 144 165
125 142 162
125 142 159
123 140 161
123 139 158
119 135 161
128 143 162
121 135 154
125 143 164
130 146 169
130 147 169
129 143 163
134 151 173
132 149 172
130 146 167
131 147 168
127 142 162
127 144 163
127 143 164
129 145 162
126 141 161
126 143 164
130 145 166
120 136 157
127 145 166
127 144 166
122 140 159
126 142 162
121 135 155
114 131 147
127 143 163
119 133 153
116 131 149
120 136 156
130 146 166
118 134 155
100 118 139
76 90 125
37 54 98
18 40 94
18 40 94
17 39 90
18 41 96
19 42 100
19 44 101
19 44 101
18 42 98
19 44 101
19 42 96
20 44 103
18 42 97
20 45 104
19 42 97
20 45 106
18 41 94
19 44 100
20 45 105
18 40 93
19 43 100
18 41 95
17 39 93
19 43 100
18 41 93
17 38 86
19 43 101
18 42 95
20 46 105
18 41 94
19 43 98
51 66 103
84 98 129
89 100 123
116 130 150
110 124 142
120 136 157
107 120 138
120 135 156
109 124 140
122 137 157
116 130 148
115 129 145
117 131 150
111 125 144
106 120 137
123 139 160
112 128 146
119 133 151
112 126 144
119 134 151
114 127 143
128 145 168
121 136 154
121 136 156
117 129 148
105 120 137
126 142 164
121 135 155
119 135 154
120 135 156
125 140 160
110 123 138
128 143 168
126 141 162
124 139 159
118 133 153
124 141 161
132 149 173
125 141 160
124 139 159
119 136 156
116 131 151
116 133 153
125 140 161
113 129 148
127 144 164
125 142 159
114 129 148
120 137 156
127 143 163
120 135 155
116 129 150
110 125 143
125 141 161
127 144 163
119 134 153
127 145 165
122 137 158
111 128 146
118 133 155
113 125 144
112 130 148
117 135 154
123 137 158
105 118 135
120 134 155
118 135 155
112 129 146
116 133 150
127 142 163
124 138 160
118 137 153
98 121 111
96 124 105
85 123 70
81 119 61
85 127 64
85 125 63
77 115 58
85 126 64
85 127 64
84 125 64
84 125 64
80 119 61
81 122 62
83 124 63
82 122 62
